; generated by Slic3r Prusa Edition 1.41.2+ on 2019-02-28 at 07:47:54

; 

; external perimeters extrusion width = 0.45mm
; perimeters extrusion width = 0.45mm
; infill extrusion width = 0.45mm
; solid infill extrusion width = 0.45mm
; top infill extrusion width = 0.40mm
; first layer extrusion width = 0.42mm

M73 P0 R33
M73 Q0 S33
M201 X1000 Y1000 Z1000 E5000 ; sets maximum accelerations, mm/sec^2
M203 X200 Y200 Z12 E120 ; sets maximum feedrates, mm/sec
M204 P1250 R1250 T1250 ; sets acceleration (P, T) and retract acceleration (R), mm/sec^2
M205 X8.00 Y8.00 Z0.40 E1.50 ; sets the jerk limits, mm/sec
M205 S0 T0 ; sets the minimum extruding and travel feed rate, mm/sec
M107
M115 U3.5.1 ; tell printer latest fw version
M83  ; extruder relative mode
M104 S166 ; set extruder temp minus 50 to avoid stringing during calibration
M140 S60 ; set bed temp
M190 S60 ; wait for bed temp
M109 S166 ; wait for extruder temp
G28 W ; home all without mesh bed level
G80 N7 ; mesh bed leveling
G1 Y-3.0 F1000.0 ; go outside print area
M104 S216 ; set extruder temp
M109 S216 ; wait for extruder temp
G92 E0.0
G1 X60.0 E9.0  F1000.0 ; intro line
M73 Q0 S33
M73 P0 R33
G1 X100.0 E12.5  F1000.0 ; intro line
G92 E0.0
M221 S95
M900 K30; Filament gcode
G21 ; set units to millimeters
G90 ; use absolute coordinates
M83 ; use relative distances for extrusion
;BEFORE_LAYER_CHANGE
G92 E0.0
;0.2


G1 E-0.80000 F2100.00000
G1 Z0.600 F10800.000
;AFTER_LAYER_CHANGE
;0.2
G1 X105.894 Y86.448
G1 Z0.200
G1 E0.80000 F2100.00000
M204 S1000
G1 F1200
G1 X106.640 Y85.738 E0.03228
G1 X107.513 Y85.192 E0.03228
G1 X108.478 Y84.834 E0.03228
G1 X109.495 Y84.676 E0.03228
G1 X140.246 Y84.669 E0.96416
G1 X141.171 Y84.755 E0.02915
G1 X142.071 Y85.010 E0.02932
G1 X142.909 Y85.425 E0.02932
G1 X143.657 Y85.986 E0.02932
G1 X144.289 Y86.675 E0.02932
G1 X144.785 Y87.468 E0.02932
G1 X145.128 Y88.338 E0.02932
G1 X145.306 Y89.256 E0.02932
G1 X145.327 Y120.418 E0.97707
G1 X145.225 Y121.270 E0.02688
G1 X144.982 Y122.092 E0.02688
G1 X144.607 Y122.856 E0.02671
G1 X144.106 Y123.552 E0.02688
G1 X143.325 Y124.289 E0.03367
G1 X142.402 Y124.849 E0.03384
G1 X141.387 Y125.200 E0.03367
G1 X140.315 Y125.330 E0.03384
G1 X109.576 Y125.327 E0.96381
G1 X108.730 Y125.225 E0.02671
G1 X107.908 Y124.982 E0.02688
G1 X107.144 Y124.607 E0.02671
G1 X106.448 Y124.106 E0.02688
G1 X105.711 Y123.325 E0.03367
G1 X105.151 Y122.402 E0.03384
G1 X104.800 Y121.387 E0.03367
G1 X104.670 Y120.315 E0.03384
G1 X104.673 Y89.576 E0.96381
G1 X104.775 Y88.730 E0.02671
G1 X105.018 Y87.908 E0.02688
G1 X105.393 Y87.144 E0.02671
G1 X105.859 Y86.496 E0.02500
G1 F8640
G1 X106.640 Y85.738 E-0.25133
G1 X107.513 Y85.192 E-0.23770
G1 X108.478 Y84.834 E-0.23770
G1 X108.620 Y84.812 E-0.03327
G1 E-0.04000 F2100.00000
G1 Z0.800 F10800.000
G1 X133.326 Y113.076
G1 Z0.200
G1 E0.80000 F2100.00000
G1 F1200
G1 X134.035 Y112.523 E0.02819
G1 X135.812 Y111.754 E0.06072
G1 X136.219 Y111.546 E0.01433
G1 X136.622 Y111.308 E0.01467
G1 X138.251 Y110.166 E0.06239
G1 X139.552 Y109.763 E0.04269
G1 X140.912 Y109.763 E0.04265
G1 X141.881 Y110.055 E0.03172
G1 X143.471 Y110.972 E0.05754
G1 X144.021 Y111.560 E0.02525
G1 X144.473 Y112.256 E0.02604
G1 X144.838 Y113.168 E0.03078
G1 X144.954 Y120.670 E0.23526
G1 X144.732 Y121.778 E0.03544
G1 X144.225 Y122.819 E0.03629
G1 X142.804 Y124.238 E0.06296
G1 X141.973 Y124.655 E0.02917
G1 X140.750 Y124.953 E0.03947
G1 X133.891 Y124.953 E0.21505
G1 X132.735 Y124.689 E0.03719
G1 X131.701 Y124.132 E0.03681
G1 X130.678 Y123.069 E0.04627
G1 X130.003 Y121.766 E0.04599
G1 X129.728 Y120.571 E0.03845
G1 X129.799 Y119.316 E0.03941
G1 X130.324 Y117.974 E0.04519
G1 X131.043 Y117.012 E0.03764
G1 X131.307 Y116.623 E0.01477
G1 X131.546 Y116.219 E0.01471
G1 X131.759 Y115.801 E0.01472
G1 X131.947 Y115.367 E0.01481
G1 X132.245 Y114.563 E0.02691
G1 X132.636 Y113.868 E0.02500
G1 X133.286 Y113.121 E0.03104
G1 X133.570 Y113.370 F10800.000
G1 F1200
G1 X134.246 Y112.836 E0.02701
G1 X135.972 Y112.095 E0.05888
G1 X136.401 Y111.877 E0.01510
G1 X136.826 Y111.625 E0.01549
G1 X138.444 Y110.492 E0.06192
G1 X139.582 Y110.140 E0.03737
G1 X140.833 Y110.133 E0.03921
G1 X141.714 Y110.394 E0.02881
G1 X143.215 Y111.250 E0.05419
G1 X143.734 Y111.805 E0.02381
G1 X144.146 Y112.445 E0.02386
G1 X144.475 Y113.274 E0.02798
G1 X144.577 Y120.655 E0.23143
G1 X144.367 Y121.678 E0.03276
G1 X143.901 Y122.624 E0.03307
G1 X142.607 Y123.916 E0.05733
G1 X141.860 Y124.295 E0.02625
G1 X140.726 Y124.576 E0.03664
G1 X133.912 Y124.576 E0.21366
G1 X132.891 Y124.344 E0.03282
G1 X131.907 Y123.814 E0.03505
G1 X130.970 Y122.829 E0.04262
G1 X130.350 Y121.617 E0.04272
G1 X130.101 Y120.515 E0.03539
G1 X130.173 Y119.371 E0.03596
G1 X130.664 Y118.138 E0.04161
G1 X131.349 Y117.233 E0.03559
G1 X131.626 Y116.825 E0.01546
G1 X131.877 Y116.401 E0.01545
G1 X132.101 Y115.961 E0.01546
G1 X132.297 Y115.508 E0.01549
G1 X132.593 Y114.708 E0.02674
G1 X132.954 Y114.071 E0.02296
G1 X133.530 Y113.415 E0.02737
G1 X133.812 Y113.664 F10800.000
G1 F1200
G1 X133.867 Y113.603 E0.00258
G1 X134.456 Y113.150 E0.02330
G1 X136.131 Y112.437 E0.05707
G1 X136.582 Y112.207 E0.01588
G1 X137.027 Y111.944 E0.01620
G1 X137.476 Y111.639 E0.01703
G1 X138.587 Y110.842 E0.04287
G1 X139.616 Y110.517 E0.03383
G1 X140.755 Y110.503 E0.03573
G1 X141.548 Y110.733 E0.02589
G1 X142.960 Y111.529 E0.05080
G1 X143.446 Y112.050 E0.02234
G1 X143.818 Y112.632 E0.02166
G1 X144.111 Y113.380 E0.02519
G1 X144.200 Y120.638 E0.22760
G1 X144.003 Y121.576 E0.03005
G1 X143.578 Y122.428 E0.02985
G1 X142.408 Y123.594 E0.05179
G1 X141.746 Y123.935 E0.02335
G1 X140.702 Y124.199 E0.03376
G1 X133.934 Y124.199 E0.21222
G1 X133.002 Y123.983 E0.02998
G1 X132.115 Y123.498 E0.03170
G1 X131.264 Y122.592 E0.03898
G1 X130.697 Y121.469 E0.03946
G1 X130.476 Y120.462 E0.03232
G1 X130.547 Y119.428 E0.03250
G1 X131.003 Y118.304 E0.03803
G1 X131.654 Y117.454 E0.03358
G1 X131.944 Y117.027 E0.01618
G1 X132.207 Y116.582 E0.01620
G1 X132.442 Y116.122 E0.01620
G1 X132.647 Y115.648 E0.01621
G1 X132.929 Y114.880 E0.02563
G1 X133.273 Y114.274 E0.02184
G1 X133.772 Y113.709 E0.02366
G1 X134.053 Y113.960 F10800.000
G1 F1200
G1 X134.135 Y113.868 E0.00387
G1 X134.665 Y113.465 E0.02086
G1 X136.290 Y112.780 E0.05530
G1 X136.764 Y112.538 E0.01669
G1 X137.229 Y112.263 E0.01694
G1 X138.783 Y111.166 E0.05963
G1 X139.651 Y110.893 E0.02853
G1 X140.680 Y110.873 E0.03229
G1 X141.385 Y111.074 E0.02297
G1 X142.706 Y111.810 E0.04741
G1 X143.138 Y112.268 E0.01975
G1 X143.490 Y112.819 E0.02049
G1 X143.747 Y113.484 E0.02236
G1 X143.823 Y120.622 E0.22382
G1 X143.655 Y121.430 E0.02587
G1 X143.254 Y122.232 E0.02812
G1 X142.208 Y123.273 E0.04629
G1 X141.629 Y123.575 E0.02046
G1 X140.678 Y123.822 E0.03082
G1 X133.956 Y123.822 E0.21075
G1 X133.116 Y123.623 E0.02709
G1 X132.325 Y123.184 E0.02834
G1 X131.560 Y122.357 E0.03534
G1 X131.046 Y121.323 E0.03621
G1 X130.850 Y120.411 E0.02925
G1 X130.920 Y119.488 E0.02902
G1 X131.341 Y118.473 E0.03445
G1 X131.959 Y117.676 E0.03161
G1 X132.263 Y117.229 E0.01694
G1 X132.538 Y116.764 E0.01694
G1 X132.783 Y116.283 E0.01694
G1 X132.998 Y115.787 E0.01694
G1 X133.265 Y115.052 E0.02450
G1 X133.590 Y114.478 E0.02069
G1 X134.013 Y114.005 E0.01990
G1 X134.292 Y114.257 F10800.000
G1 F1200
G1 X134.402 Y114.135 E0.00515
G1 X134.872 Y113.781 E0.01844
G1 X136.448 Y113.122 E0.05355
G1 X136.946 Y112.869 E0.01752
G1 X137.431 Y112.581 E0.01768
G1 X137.910 Y112.256 E0.01814
G1 X138.928 Y111.515 E0.03950
G1 X139.689 Y111.269 E0.02507
G1 X140.608 Y111.244 E0.02881
G1 X141.224 Y111.415 E0.02004
G1 X142.452 Y112.090 E0.04395
G1 X142.851 Y112.513 E0.01823
G1 X143.161 Y113.003 E0.01818
G1 X143.383 Y113.586 E0.01955
G1 X143.445 Y120.604 E0.22005
G1 X143.292 Y121.326 E0.02315
G1 X142.932 Y122.034 E0.02489
G1 X142.006 Y122.954 E0.04093
G1 X141.511 Y123.217 E0.01759
G1 X140.653 Y123.445 E0.02783
G1 X133.979 Y123.445 E0.20924
G1 X133.231 Y123.263 E0.02415
G1 X132.538 Y122.871 E0.02496
G1 X131.858 Y122.124 E0.03170
G1 X131.395 Y121.179 E0.03298
G1 X131.225 Y120.362 E0.02618
G1 X131.293 Y119.550 E0.02556
G1 X131.654 Y118.684 E0.02939
G1 X132.264 Y117.898 E0.03121
G1 X132.581 Y117.431 E0.01768
G1 X132.869 Y116.946 E0.01768
G1 X133.125 Y116.443 E0.01769
G1 X133.349 Y115.925 E0.01769
G1 X133.601 Y115.224 E0.02337
G1 X133.908 Y114.682 E0.01952
G1 X134.252 Y114.301 E0.01610
G1 X134.530 Y114.554 F10800.000
G1 F1200
G1 X134.668 Y114.403 E0.00644
G1 X135.078 Y114.098 E0.01602
G1 X136.606 Y113.465 E0.05185
G1 X137.128 Y113.199 E0.01836
G1 X137.633 Y112.900 E0.01843
G1 X138.127 Y112.565 E0.01870
G1 X139.126 Y111.838 E0.03874
G1 X139.729 Y111.644 E0.01986
G1 X140.538 Y111.616 E0.02540
G1 X141.065 Y111.758 E0.01710
G1 X142.199 Y112.371 E0.04042
G1 X142.563 Y112.758 E0.01666
G1 X142.830 Y113.186 E0.01582
G1 X143.018 Y113.687 E0.01677
G1 X143.068 Y120.585 E0.21629
G1 X142.929 Y121.220 E0.02039
G1 X142.611 Y121.834 E0.02166
G1 X141.802 Y122.636 E0.03572
G1 X141.389 Y122.860 E0.01475
G1 X140.627 Y123.068 E0.02477
G1 X134.003 Y123.068 E0.20768
G1 X133.350 Y122.904 E0.02113
G1 X132.753 Y122.560 E0.02161
G1 X132.185 Y121.934 E0.02650
G1 X131.744 Y121.034 E0.03142
G1 X131.603 Y120.366 E0.02142
G1 X131.667 Y119.611 E0.02375
G1 X131.967 Y118.896 E0.02432
G1 X132.570 Y118.120 E0.03081
G1 X132.900 Y117.633 E0.01843
G1 X133.199 Y117.128 E0.01843
G1 X133.466 Y116.604 E0.01843
G1 X133.699 Y116.064 E0.01843
G1 X133.950 Y115.368 E0.02321
G1 X134.225 Y114.889 E0.01731
G1 X134.489 Y114.599 E0.01231
G1 X134.765 Y114.853 F10800.000
G1 F1200
G1 X134.932 Y114.673 E0.00771
G1 X135.282 Y114.416 E0.01362
G1 X136.763 Y113.808 E0.05019
G1 X137.309 Y113.530 E0.01923
G1 X137.836 Y113.219 E0.01917
G1 X138.345 Y112.872 E0.01933
G1 X139.274 Y112.185 E0.03622
G1 X139.774 Y112.020 E0.01650
G1 X140.472 Y111.988 E0.02193
G1 X140.909 Y112.102 E0.01413
G1 X141.948 Y112.654 E0.03691
G1 X142.254 Y112.974 E0.01387
G1 X142.500 Y113.368 E0.01457
G1 X142.653 Y113.785 E0.01392
G1 X142.691 Y120.564 E0.21256
G1 X142.567 Y121.111 E0.01757
G1 X142.292 Y121.631 E0.01845
G1 X141.597 Y122.319 E0.03067
G1 X141.264 Y122.503 E0.01193
G1 X140.600 Y122.691 E0.02162
G1 X134.028 Y122.691 E0.20606
G1 X133.472 Y122.546 E0.01803
G1 X132.969 Y122.250 E0.01828
G1 X132.512 Y121.745 E0.02139
G1 X132.093 Y120.891 E0.02981
G1 X131.978 Y120.320 E0.01825
G1 X132.039 Y119.676 E0.02027
G1 X132.280 Y119.108 E0.01935
G1 X132.875 Y118.341 E0.03043
G1 X133.219 Y117.836 E0.01917
G1 X133.530 Y117.309 E0.01917
G1 X133.807 Y116.764 E0.01917
G1 X134.050 Y116.203 E0.01917
G1 X134.299 Y115.512 E0.02304
G1 X134.540 Y115.097 E0.01505
G1 X134.724 Y114.897 E0.00850
G1 X134.997 Y115.154 F10800.000
G1 F1200
G1 X135.193 Y114.945 E0.00899
G1 X135.481 Y114.736 E0.01115
G1 X136.338 Y114.403 E0.02882
G1 X136.925 Y114.149 E0.02007
G1 X137.491 Y113.860 E0.01992
G1 X138.038 Y113.537 E0.01991
G1 X138.565 Y113.178 E0.02000
G1 X139.427 Y112.531 E0.03379
G1 X139.823 Y112.394 E0.01314
G1 X140.411 Y112.361 E0.01845
G1 X140.756 Y112.447 E0.01114
G1 X141.700 Y112.940 E0.03340
G1 X141.945 Y113.192 E0.01102
G1 X142.169 Y113.550 E0.01325
G1 X142.287 Y113.881 E0.01102
G1 X142.314 Y120.545 E0.20895
G1 X142.222 Y120.957 E0.01324
G1 X141.973 Y121.429 E0.01673
G1 X141.388 Y122.004 E0.02571
G1 X141.134 Y122.149 E0.00916
G1 X140.572 Y122.314 E0.01838
G1 X134.054 Y122.314 E0.20436
G1 X133.598 Y122.190 E0.01483
G1 X133.189 Y121.943 E0.01498
G1 X132.839 Y121.555 E0.01638
G1 X132.444 Y120.748 E0.02817
G1 X132.354 Y120.279 E0.01499
G1 X132.411 Y119.746 E0.01681
G1 X132.593 Y119.320 E0.01450
G1 X133.180 Y118.563 E0.03006
G1 X133.537 Y118.038 E0.01991
G1 X133.860 Y117.491 E0.01991
G1 X134.149 Y116.925 E0.01992
G1 X134.401 Y116.342 E0.01992
G1 X134.648 Y115.657 E0.02284
G1 X134.853 Y115.307 E0.01272
G1 X134.956 Y115.198 E0.00469
G1 X135.226 Y115.456 F10800.000
G1 F1200
G1 X135.452 Y115.220 E0.01026
G1 X135.679 Y115.058 E0.00873
G1 X136.479 Y114.752 E0.02686
G1 X137.086 Y114.490 E0.02071
G1 X137.673 Y114.191 E0.02066
G1 X138.240 Y113.856 E0.02066
G1 X138.785 Y113.485 E0.02065
G1 X139.629 Y112.851 E0.03310
G1 X139.874 Y112.768 E0.00811
G1 X140.355 Y112.735 E0.01511
G1 X140.606 Y112.794 E0.00810
G1 X141.456 Y113.228 E0.02990
G1 X141.637 Y113.410 E0.00806
G1 X141.837 Y113.731 E0.01184
G1 X141.920 Y113.973 E0.00804
G1 X141.937 Y120.526 E0.20546
G1 X141.876 Y120.804 E0.00892
G1 X141.653 Y121.226 E0.01497
G1 X141.176 Y121.692 E0.02089
G1 X140.999 Y121.796 E0.00643
G1 X140.542 Y121.937 E0.01500
G1 X134.082 Y121.937 E0.20257
G1 X133.729 Y121.836 E0.01150
G1 X133.412 Y121.638 E0.01173
G1 X133.166 Y121.366 E0.01150
G1 X132.795 Y120.608 E0.02647
G1 X132.730 Y120.243 E0.01160
G1 X132.781 Y119.819 E0.01339
G1 X132.905 Y119.533 E0.00977
G1 X133.485 Y118.785 E0.02969
G1 X133.856 Y118.240 E0.02066
G1 X134.191 Y117.673 E0.02066
G1 X134.490 Y117.086 E0.02066
G1 X134.752 Y116.481 E0.02066
G1 X134.996 Y115.802 E0.02262
G1 X135.185 Y115.499 E0.01119
G1 X135.474 Y115.736 F10800.000
G1 F1200
G1 X135.708 Y115.497 E0.01048
G1 X135.873 Y115.382 E0.00632
G1 X136.620 Y115.102 E0.02499
G1 X137.246 Y114.831 E0.02140
G1 X137.855 Y114.522 E0.02140
G1 X138.442 Y114.174 E0.02140
G1 X139.006 Y113.791 E0.02138
G1 X139.786 Y113.195 E0.03079
G1 X139.934 Y113.141 E0.00492
G1 X140.306 Y113.110 E0.01172
G1 X140.461 Y113.143 E0.00498
G1 X141.216 Y113.520 E0.02646
G1 X141.330 Y113.631 E0.00497
G1 X141.504 Y113.909 E0.01029
G1 X141.552 Y114.059 E0.00495
G1 X141.560 Y120.507 E0.20217
G1 X141.528 Y120.658 E0.00484
G1 X141.365 Y120.981 E0.01134
G1 X140.958 Y121.384 E0.01795
G1 X140.857 Y121.446 E0.00371
G1 X140.511 Y121.560 E0.01144
G1 X134.108 Y121.560 E0.20075
G1 X133.906 Y121.502 E0.00658
G1 X133.634 Y121.332 E0.01008
G1 X133.493 Y121.176 E0.00658
G1 X133.145 Y120.465 E0.02483
G1 X133.108 Y120.260 E0.00653
G1 X133.152 Y119.892 E0.01161
G1 X133.216 Y119.747 E0.00500
G1 X133.790 Y119.007 E0.02936
G1 X134.174 Y118.442 E0.02140
G1 X134.522 Y117.855 E0.02140
G1 X134.831 Y117.246 E0.02140
G1 X135.103 Y116.620 E0.02140
G1 X135.344 Y115.949 E0.02235
G1 X135.443 Y115.788 E0.00594
G1 X135.760 Y115.989 F10800.000
G1 F1200
G1 X135.960 Y115.778 E0.00910
G1 X136.063 Y115.708 E0.00392
G1 X136.759 Y115.453 E0.02324
G1 X137.407 Y115.173 E0.02213
G1 X138.036 Y114.852 E0.02214
G1 X138.644 Y114.493 E0.02215
G1 X139.228 Y114.096 E0.02214
G1 X139.954 Y113.533 E0.02881
G1 X140.271 Y113.486 E0.01003
G1 X140.323 Y113.495 E0.00166
G1 X140.987 Y113.820 E0.02317
G1 X141.026 Y113.855 E0.00166
G1 X141.183 Y114.134 E0.01003
G1 X141.183 Y120.490 E0.19927
G1 X141.073 Y120.740 E0.00856
G1 X140.730 Y121.083 E0.01522
G1 X140.476 Y121.183 E0.00856
G1 X134.134 Y121.183 E0.19882
G1 X133.855 Y121.026 E0.01003
G1 X133.820 Y120.987 E0.00166
G1 X133.495 Y120.323 E0.02317
G1 X133.513 Y120.003 E0.01003
G1 X133.533 Y119.954 E0.00166
G1 X134.096 Y119.228 E0.02881
G1 X134.493 Y118.644 E0.02214
G1 X134.852 Y118.036 E0.02215
G1 X135.173 Y117.407 E0.02214
G1 X135.453 Y116.759 E0.02214
G1 X135.691 Y116.098 E0.02203
G1 X135.728 Y116.040 E0.00216
G1 X136.043 Y116.239 F10800.000
G1 F1200
G1 X136.245 Y116.039 E0.00892
G1 X136.898 Y115.804 E0.02175
G1 X137.568 Y115.514 E0.02289
G1 X138.218 Y115.183 E0.02289
G1 X138.846 Y114.811 E0.02289
G1 X139.450 Y114.401 E0.02289
G1 X140.122 Y113.880 E0.02665
G1 X140.229 Y113.869 E0.00338
G1 X140.748 Y114.123 E0.01813
G1 X140.806 Y114.215 E0.00338
G1 X140.806 Y120.434 E0.19499
G1 X140.777 Y120.503 E0.00235
G1 X140.503 Y120.777 E0.01215
G1 X140.434 Y120.806 E0.00235
G1 X134.215 Y120.806 E0.19499
G1 X134.123 Y120.748 E0.00338
G1 X133.869 Y120.229 E0.01813
G1 X133.880 Y120.122 E0.00338
G1 X134.401 Y119.450 E0.02665
G1 X134.811 Y118.846 E0.02289
G1 X135.183 Y118.218 E0.02289
G1 X135.514 Y117.568 E0.02289
G1 X135.804 Y116.898 E0.02289
G1 X136.021 Y116.295 E0.02009
G1 X136.372 Y116.432 F10800.000
G1 F1200
G1 X136.432 Y116.372 E0.00264
G1 X137.037 Y116.155 E0.02014
G1 X137.728 Y115.856 E0.02363
G1 X138.400 Y115.513 E0.02363
G1 X139.049 Y115.130 E0.02363
G1 X139.672 Y114.706 E0.02363
G1 X140.217 Y114.283 E0.02165
G1 X140.429 Y114.386 E0.00737
G1 X140.429 Y120.318 E0.18598
G1 X140.318 Y120.429 E0.00490
G1 X134.386 Y120.429 E0.18598
G1 X134.283 Y120.217 E0.00737
