; generated by Slic3r Prusa Edition 1.41.2+ on 2019-02-23 at 12:38:28

; 

; external perimeters extrusion width = 0.45mm
; perimeters extrusion width = 0.45mm
; infill extrusion width = 0.45mm
; solid infill extrusion width = 0.45mm
; top infill extrusion width = 0.40mm
; support material extrusion width = 0.35mm
; first layer extrusion width = 0.42mm

M73 P0 R89
M73 Q0 S90
M201 X1000 Y1000 Z1000 E5000 ; sets maximum accelerations, mm/sec^2
M203 X200 Y200 Z12 E120 ; sets maximum feedrates, mm/sec
M204 P1250 R1250 T1250 ; sets acceleration (P, T) and retract acceleration (R), mm/sec^2
M205 X8.00 Y8.00 Z0.40 E1.50 ; sets the jerk limits, mm/sec
M205 S0 T0 ; sets the minimum extruding and travel feed rate, mm/sec
M107
M115 U3.5.1 ; tell printer latest fw version
M83  ; extruder relative mode
M104 S170 ; set extruder temp minus 50 to avoid stringing during calibration
M140 S60 ; set bed temp
M190 S60 ; wait for bed temp
M109 S170 ; wait for extruder temp
G28 W ; home all without mesh bed level
G80 N7 ; mesh bed leveling
G1 Y-3.0 F1000.0 ; go outside print area
M104 S220 ; set extruder temp
M109 S220 ; wait for extruder temp
G92 E0.0
G1 X60.0 E9.0  F1000.0 ; intro line
M73 Q0 S90
M73 P0 R89
G1 X100.0 E12.5  F1000.0 ; intro line
G92 E0.0
M221 S95
M900 K30; Filament gcode
G21 ; set units to millimeters
G90 ; use absolute coordinates
M83 ; use relative distances for extrusion
;BEFORE_LAYER_CHANGE
G92 E0.0
;0.2


G1 E-0.80000 F2100.00000
G1 Z0.600 F10800.000
;AFTER_LAYER_CHANGE
;0.2
G1 X83.393 Y70.566
G1 Z0.200
G1 E0.80000 F2100.00000
M204 S1100
G1 F1800
G1 X83.834 Y69.891 E0.02529
G1 X90.672 Y62.950 E0.30550
G1 X91.188 Y62.575 E0.01998
G1 X91.789 Y62.365 E0.01998
G1 X126.143 Y62.326 E1.07715
G1 X159.769 Y62.542 E1.05434
G1 X160.497 Y62.837 E0.02462
G1 X161.073 Y63.370 E0.02462
G1 X165.798 Y70.580 E0.27028
G1 X165.975 Y71.059 E0.01601
G1 X166.036 Y71.569 E0.01612
G1 X166.036 Y139.667 E2.13515
G1 X165.870 Y140.500 E0.02664
G1 X165.414 Y141.192 E0.02597
G1 X160.791 Y145.709 E0.20265
G1 X160.188 Y146.096 E0.02247
G1 X159.492 Y146.268 E0.02247
G1 X154.798 Y146.445 E0.14730
G1 X92.195 Y146.445 E1.96286
G1 X91.365 Y146.278 E0.02653
G1 X84.041 Y141.197 E0.27949
G1 X83.494 Y140.542 E0.02676
G1 X83.239 Y139.724 E0.02687
G1 X83.227 Y71.400 E2.14227
G1 X83.381 Y70.625 E0.02476
M204 S1200
; PURGING FINISHED
G1 F8640
G1 X83.834 Y69.891 E-0.19921
G1 X85.538 Y68.161 E-0.56079
G1 E-0.04000 F2100.00000
G1 Z0.800 F10800.000
G1 X85.415 Y71.403
G1 Z0.200
G1 E0.80000 F2100.00000
M204 S1100
G1 F1800
G1 X85.415 Y105.048 E1.05492
G1 X86.169 Y105.048 E0.02365
G1 X86.169 Y71.573 E1.04959
G1 X86.923 Y71.573 E0.02365
G1 X86.923 Y105.048 E1.04959
G1 X87.678 Y105.048 E0.02365
G1 X87.678 Y71.573 E1.04959
G1 X88.432 Y71.573 E0.02365
G1 X88.432 Y105.048 E1.04959
G1 X89.186 Y105.048 E0.02365
G1 X89.186 Y71.573 E1.04959
G1 X89.526 Y71.573 E0.01068
G1 X89.526 Y74.556 E0.09354
G1 X89.769 Y74.799 E0.01074
G1 X89.940 Y74.799 E0.00537
G1 X89.940 Y100.641 E0.81029
G1 X90.694 Y100.641 E0.02365
G1 X90.694 Y74.799 E0.81029
G1 X91.448 Y74.799 E0.02365
G1 X91.448 Y100.641 E0.81029
G1 X92.202 Y100.641 E0.02365
G1 X92.202 Y74.799 E0.81029
G1 X92.957 Y74.799 E0.02365
G1 X92.957 Y100.641 E0.81029
G1 X93.711 Y100.641 E0.02365
G1 X93.711 Y74.799 E0.81029
G1 X94.465 Y74.799 E0.02365
G1 X94.465 Y100.811 E0.81561
M204 S1200
G1 F8640
G1 X94.465 Y97.520 E-0.76000
G1 E-0.04000 F2100.00000
G1 Z0.800 F10800.000
G1 X85.415 Y105.849
G1 Z0.200
G1 E0.80000 F2100.00000
M204 S1100
G1 F1800
G1 X85.415 Y139.494 E1.05492
G1 X86.169 Y139.494 E0.02365
G1 X86.169 Y106.018 E1.04959
G1 X86.923 Y106.018 E0.02365
G1 X86.923 Y139.494 E1.04959
G1 X87.678 Y139.494 E0.02365
G1 X87.678 Y106.018 E1.04959
G1 X88.432 Y106.018 E0.02365
G1 X88.432 Y139.494 E1.04959
G1 X89.186 Y139.494 E0.02365
G1 X89.186 Y106.018 E1.04959
G1 X89.526 Y106.018 E0.01068
G1 X89.526 Y109.116 E0.09713
G1 X89.769 Y109.359 E0.01074
G1 X89.940 Y109.359 E0.00537
G1 X89.940 Y135.201 E0.81029
G1 X90.694 Y135.201 E0.02365
G1 X90.694 Y109.359 E0.81029
G1 X91.448 Y109.359 E0.02365
G1 X91.448 Y135.201 E0.81029
G1 X92.202 Y135.201 E0.02365
G1 X92.202 Y109.359 E0.81029
G1 X92.957 Y109.359 E0.02365
G1 X92.957 Y135.201 E0.81029
G1 X93.711 Y135.201 E0.02365
G1 X93.711 Y109.359 E0.81029
G1 X94.465 Y109.359 E0.02365
G1 X94.465 Y135.371 E0.81561
M204 S1200
G1 F8640
G1 X94.465 Y132.080 E-0.76000
G1 E-0.04000 F2100.00000
G1 Z0.800 F10800.000
G1 X94.465 Y144.256
G1 Z0.200
G1 E0.80000 F2100.00000
M204 S1100
G1 F1800
G1 X94.465 Y140.474 E0.11860
G1 X93.711 Y140.474 E0.02365
G1 X93.711 Y144.086 E0.11328
G1 X92.957 Y144.086 E0.02365
G1 X92.957 Y140.474 E0.11328
G1 X92.202 Y140.474 E0.02365
G1 X92.202 Y144.256 E0.11860
M204 S1200
G1 X96.727 Y144.256 F10800.000
M204 S1100
G1 F1800
G1 X96.727 Y64.684 E2.49492
G1 X95.973 Y64.684 E0.02365
G1 X95.973 Y144.086 E2.48960
G1 X95.219 Y144.086 E0.02365
G1 X95.219 Y64.684 E2.48960
G1 X94.465 Y64.684 E0.02365
G1 X94.465 Y69.526 E0.15183
G1 X93.711 Y69.526 E0.02365
G1 X93.711 Y64.684 E0.15183
G1 X92.957 Y64.684 E0.02365
G1 X92.957 Y69.526 E0.15183
G1 X92.202 Y69.526 E0.02365
G1 X92.202 Y64.514 E0.15715
M204 S1200
G1 X118.598 Y64.514 F10800.000
M204 S1100
G1 F1800
G1 X118.598 Y86.678 E0.69491
G1 X117.844 Y86.678 E0.02365
G1 X117.844 Y64.684 E0.68959
G1 X117.090 Y64.684 E0.02365
G1 X117.090 Y86.678 E0.68959
G1 X116.833 Y86.678 E0.00805
G1 X116.833 Y82.085 E0.14400
G1 X116.336 Y82.085 E0.01560
G1 X116.336 Y64.684 E0.54559
G1 X115.581 Y64.684 E0.02365
G1 X115.581 Y82.085 E0.54559
G1 X114.827 Y82.085 E0.02365
G1 X114.827 Y64.684 E0.54559
G1 X114.073 Y64.684 E0.02365
G1 X114.073 Y79.789 E0.47359
G1 X113.319 Y79.789 E0.02365
G1 X113.319 Y64.684 E0.47359
G1 X112.565 Y64.684 E0.02365
G1 X112.565 Y79.789 E0.47359
G1 X112.240 Y79.789 E0.01017
G1 X112.240 Y77.492 E0.07200
G1 X111.811 Y77.492 E0.01347
G1 X111.811 Y64.684 E0.40159
G1 X111.056 Y64.684 E0.02365
G1 X111.056 Y77.492 E0.40159
G1 X110.302 Y77.492 E0.02365
G1 X110.302 Y64.684 E0.40159
M73 Q1 S89
M73 P1 R88
G1 X109.548 Y64.684 E0.02365
G1 X109.548 Y77.492 E0.40159
G1 X108.794 Y77.492 E0.02365
G1 X108.794 Y64.684 E0.40159
G1 X108.040 Y64.684 E0.02365
G1 X108.040 Y77.492 E0.40159
G1 X107.286 Y77.492 E0.02365
G1 X107.286 Y64.684 E0.40159
G1 X106.531 Y64.684 E0.02365
G1 X106.531 Y77.492 E0.40159
G1 X105.777 Y77.492 E0.02365
G1 X105.777 Y64.684 E0.40159
G1 X105.023 Y64.684 E0.02365
G1 X105.023 Y77.492 E0.40159
G1 X104.381 Y77.492 E0.02013
G1 X104.381 Y79.789 E0.07200
G1 X104.269 Y79.789 E0.00352
G1 X104.269 Y64.684 E0.47359
G1 X103.515 Y64.684 E0.02365
G1 X103.515 Y79.789 E0.47359
G1 X102.761 Y79.789 E0.02365
G1 X102.761 Y64.684 E0.47359
G1 X102.007 Y64.684 E0.02365
G1 X102.007 Y79.789 E0.47359
G1 X101.252 Y79.789 E0.02365
G1 X101.252 Y64.684 E0.47359
G1 X100.498 Y64.684 E0.02365
G1 X100.498 Y79.789 E0.47359
G1 X99.789 Y79.789 E0.02225
G1 X99.789 Y84.381 E0.14400
G1 X99.744 Y84.381 E0.00140
G1 X99.744 Y64.684 E0.61759
G1 X98.990 Y64.684 E0.02365
G1 X98.990 Y84.381 E0.61759
G1 X98.236 Y84.381 E0.02365
G1 X98.236 Y64.684 E0.61759
G1 X97.482 Y64.684 E0.02365
G1 X97.482 Y144.086 E2.48960
G1 X98.236 Y144.086 E0.02365
G1 X98.236 Y126.685 E0.54559
G1 X98.990 Y126.685 E0.02365
G1 X98.990 Y144.086 E0.54559
G1 X99.744 Y144.086 E0.02365
G1 X99.744 Y126.685 E0.54559
G1 X99.789 Y126.685 E0.00140
G1 X99.789 Y128.982 E0.07200
G1 X100.498 Y128.982 E0.02225
G1 X100.498 Y144.086 E0.47359
G1 X101.252 Y144.086 E0.02365
G1 X101.252 Y128.982 E0.47359
G1 X102.007 Y128.982 E0.02365
G1 X102.007 Y144.086 E0.47359
G1 X102.761 Y144.086 E0.02365
G1 X102.761 Y131.278 E0.40159
G1 X103.515 Y131.278 E0.02365
G1 X103.515 Y144.086 E0.40159
G1 X104.269 Y144.086 E0.02365
G1 X104.269 Y131.278 E0.40159
G1 X105.023 Y131.278 E0.02365
G1 X105.023 Y144.086 E0.40159
G1 X105.777 Y144.086 E0.02365
G1 X105.777 Y131.278 E0.40159
G1 X106.531 Y131.278 E0.02365
G1 X106.531 Y144.086 E0.40159
G1 X107.286 Y144.086 E0.02365
G1 X107.286 Y133.575 E0.32959
G1 X108.040 Y133.575 E0.02365
G1 X108.040 Y144.086 E0.32959
G1 X108.794 Y144.086 E0.02365
G1 X108.794 Y133.575 E0.32959
G1 X109.548 Y133.575 E0.02365
G1 X109.548 Y144.086 E0.32959
G1 X110.302 Y144.086 E0.02365
G1 X110.302 Y131.278 E0.40159
G1 X111.056 Y131.278 E0.02365
G1 X111.056 Y144.086 E0.40159
G1 X111.811 Y144.086 E0.02365
G1 X111.811 Y131.278 E0.40159
G1 X112.565 Y131.278 E0.02365
G1 X112.565 Y144.086 E0.40159
G1 X113.319 Y144.086 E0.02365
G1 X113.319 Y131.278 E0.40159
G1 X114.073 Y131.278 E0.02365
G1 X114.073 Y144.086 E0.40159
G1 X114.827 Y144.086 E0.02365
G1 X114.827 Y128.982 E0.47359
G1 X115.581 Y128.982 E0.02365
G1 X115.581 Y144.086 E0.47359
G1 X116.336 Y144.086 E0.02365
G1 X116.336 Y128.982 E0.47359
G1 X116.833 Y128.982 E0.01560
G1 X116.833 Y124.389 E0.14400
G1 X117.090 Y124.389 E0.00805
G1 X117.090 Y144.086 E0.61759
G1 X117.844 Y144.086 E0.02365
G1 X117.844 Y124.389 E0.61759
G1 X118.598 Y124.389 E0.02365
G1 X118.598 Y144.086 E0.61759
G1 X119.352 Y144.086 E0.02365
G1 X119.352 Y64.684 E2.48960
G1 X120.106 Y64.684 E0.02365
G1 X120.106 Y144.256 E2.49492
M204 S1200
G1 X124.631 Y140.304 F10800.000
M204 S1100
G1 F1800
G1 X124.631 Y144.086 E0.11860
G1 X123.877 Y144.086 E0.02365
G1 X123.877 Y140.474 E0.11328
G1 X123.123 Y140.474 E0.02365
G1 X123.123 Y144.086 E0.11328
G1 X122.369 Y144.086 E0.02365
G1 X122.369 Y140.474 E0.11328
G1 X121.615 Y140.474 E0.02365
G1 X121.615 Y144.086 E0.11328
G1 X120.861 Y144.086 E0.02365
G1 X120.861 Y140.450 E0.11400
G1 X120.641 Y140.231 E0.00971
G1 X120.641 Y135.444 E0.15011
G1 X120.861 Y135.225 E0.00971
G1 X120.861 Y109.335 E0.81174
G1 X120.884 Y109.359 E0.00103
G1 X121.615 Y109.359 E0.02292
G1 X121.615 Y135.201 E0.81029
G1 X122.369 Y135.201 E0.02365
G1 X122.369 Y109.359 E0.81029
G1 X123.123 Y109.359 E0.02365
G1 X123.123 Y135.201 E0.81029
G1 X123.877 Y135.201 E0.02365
G1 X123.877 Y109.359 E0.81029
G1 X124.631 Y109.359 E0.02365
G1 X124.631 Y135.201 E0.81029
G1 X125.385 Y135.201 E0.02365
G1 X125.385 Y109.359 E0.81029
G1 X126.140 Y109.359 E0.02365
G1 X126.140 Y135.201 E0.81029
G1 X126.894 Y135.201 E0.02365
G1 X126.894 Y109.359 E0.81029
G1 X127.648 Y109.359 E0.02365
G1 X127.648 Y135.201 E0.81029
G1 X128.402 Y135.201 E0.02365
G1 X128.402 Y109.359 E0.81029
G1 X129.116 Y109.359 E0.02239
G1 X129.156 Y109.319 E0.00177
G1 X129.156 Y135.481 E0.82032
M204 S1200
G1 F8640
G1 X129.156 Y132.190 E-0.76000
G1 E-0.04000 F2100.00000
G1 Z0.800 F10800.000
G1 X126.140 Y140.304
G1 Z0.200
G1 E0.80000 F2100.00000
M204 S1100
G1 F1800
G1 X126.140 Y144.086 E0.11860
G1 X126.894 Y144.086 E0.02365
G1 X126.894 Y140.474 E0.11328
G1 X127.648 Y140.474 E0.02365
G1 X127.648 Y144.086 E0.11328
G1 X128.402 Y144.086 E0.02365
G1 X128.402 Y140.474 E0.11328
G1 X129.116 Y140.474 E0.02239
G1 X129.156 Y140.434 E0.00177
G1 X129.156 Y144.086 E0.11453
G1 X129.910 Y144.086 E0.02365
G1 X129.910 Y64.684 E2.48960
G1 X130.665 Y64.684 E0.02365
G1 X130.665 Y144.086 E2.48960
G1 X131.419 Y144.086 E0.02365
G1 X131.419 Y64.684 E2.48960
G1 X132.173 Y64.684 E0.02365
G1 X132.173 Y84.381 E0.61759
G1 X132.927 Y84.381 E0.02365
G1 X132.927 Y64.684 E0.61759
G1 X133.681 Y64.684 E0.02365
G1 X133.681 Y84.381 E0.61759
G1 X134.234 Y84.381 E0.01733
G1 X134.234 Y82.085 E0.07200
G1 X134.435 Y82.085 E0.00632
G1 X134.435 Y64.684 E0.54559
G1 X135.190 Y64.684 E0.02365
G1 X135.190 Y82.085 E0.54559
G1 X135.944 Y82.085 E0.02365
G1 X135.944 Y64.684 E0.54559
G1 X136.698 Y64.684 E0.02365
G1 X136.698 Y79.789 E0.47359
G1 X137.452 Y79.789 E0.02365
G1 X137.452 Y64.684 E0.47359
G1 X138.206 Y64.684 E0.02365
G1 X138.206 Y79.789 E0.47359
M73 Q2 S88
M73 P2 R87
G1 X138.827 Y79.789 E0.01945
G1 X138.827 Y77.492 E0.07200
G1 X138.960 Y77.492 E0.00420
G1 X138.960 Y64.684 E0.40159
G1 X139.714 Y64.684 E0.02365
G1 X139.714 Y77.492 E0.40159
G1 X140.469 Y77.492 E0.02365
G1 X140.469 Y64.684 E0.40159
G1 X141.223 Y64.684 E0.02365
G1 X141.223 Y77.492 E0.40159
G1 X141.977 Y77.492 E0.02365
G1 X141.977 Y64.684 E0.40159
G1 X142.731 Y64.684 E0.02365
G1 X142.731 Y77.492 E0.40159
G1 X143.485 Y77.492 E0.02365
G1 X143.485 Y64.684 E0.40159
G1 X144.239 Y64.684 E0.02365
G1 X144.239 Y77.492 E0.40159
G1 X144.994 Y77.492 E0.02365
G1 X144.994 Y64.684 E0.40159
G1 X145.748 Y64.684 E0.02365
G1 X145.748 Y77.492 E0.40159
G1 X146.502 Y77.492 E0.02365
G1 X146.502 Y64.684 E0.40159
G1 X147.256 Y64.684 E0.02365
G1 X147.256 Y79.789 E0.47359
G1 X148.010 Y79.789 E0.02365
G1 X148.010 Y64.684 E0.47359
G1 X148.764 Y64.684 E0.02365
G1 X148.764 Y79.789 E0.47359
G1 X148.982 Y79.789 E0.00682
G1 X148.982 Y82.085 E0.07200
G1 X149.519 Y82.085 E0.01683
G1 X149.519 Y64.684 E0.54559
G1 X150.273 Y64.684 E0.02365
G1 X150.273 Y82.085 E0.54559
G1 X151.027 Y82.085 E0.02365
G1 X151.027 Y64.684 E0.54559
G1 X151.781 Y64.684 E0.02365
G1 X151.781 Y86.678 E0.68959
G1 X152.535 Y86.678 E0.02365
G1 X152.535 Y64.684 E0.68959
G1 X153.289 Y64.684 E0.02365
G1 X153.289 Y86.678 E0.68959
G1 X153.575 Y86.678 E0.00894
G1 X153.575 Y89.944 E0.10241
G1 X153.289 Y89.944 E0.00894
G1 X153.289 Y121.123 E0.97759
G1 X152.535 Y121.123 E0.02365
G1 X152.535 Y89.944 E0.97759
G1 X151.781 Y89.944 E0.02365
G1 X151.781 Y121.123 E0.97759
G1 X151.278 Y121.123 E0.01577
G1 X151.278 Y116.530 E0.14400
G1 X151.027 Y116.530 E0.00788
G1 X151.027 Y94.537 E0.68959
G1 X150.273 Y94.537 E0.02365
G1 X150.273 Y116.530 E0.68959
G1 X149.519 Y116.530 E0.02365
G1 X149.519 Y94.537 E0.68959
G1 X148.764 Y94.537 E0.02365
G1 X148.764 Y114.234 E0.61759
G1 X148.010 Y114.234 E0.02365
G1 X148.010 Y94.537 E0.61759
G1 X147.256 Y94.537 E0.02365
G1 X147.256 Y114.234 E0.61759
G1 X146.685 Y114.234 E0.01789
G1 X146.685 Y111.937 E0.07200
G1 X146.502 Y111.937 E0.00576
G1 X146.502 Y96.833 E0.47359
G1 X145.748 Y96.833 E0.02365
G1 X145.748 Y111.937 E0.47359
G1 X144.994 Y111.937 E0.02365
G1 X144.994 Y96.833 E0.47359
G1 X144.389 Y96.833 E0.01895
G1 X144.389 Y99.129 E0.07200
G1 X144.239 Y99.129 E0.00469
G1 X144.239 Y111.937 E0.40159
G1 X143.485 Y111.937 E0.02365
G1 X143.485 Y99.129 E0.40159
G1 X142.731 Y99.129 E0.02365
G1 X142.731 Y111.937 E0.40159
G1 X141.977 Y111.937 E0.02365
G1 X141.977 Y99.129 E0.40159
G1 X141.223 Y99.129 E0.02365
G1 X141.223 Y111.937 E0.40159
G1 X140.469 Y111.937 E0.02365
G1 X140.469 Y96.833 E0.47359
G1 X139.714 Y96.833 E0.02365
G1 X139.714 Y111.937 E0.47359
G1 X138.960 Y111.937 E0.02365
G1 X138.960 Y96.833 E0.47359
G1 X138.206 Y96.833 E0.02365
G1 X138.206 Y114.234 E0.54559
G1 X137.452 Y114.234 E0.02365
G1 X137.452 Y96.833 E0.54559
G1 X136.698 Y96.833 E0.02365
G1 X136.698 Y114.234 E0.54559
G1 X136.530 Y114.234 E0.00526
G1 X136.530 Y116.530 E0.07200
G1 X135.944 Y116.530 E0.01839
G1 X135.944 Y94.537 E0.68959
G1 X135.190 Y94.537 E0.02365
G1 X135.190 Y116.530 E0.68959
G1 X134.435 Y116.530 E0.02365
G1 X134.435 Y94.537 E0.68959
G1 X134.234 Y94.537 E0.00632
G1 X134.234 Y92.240 E0.07200
G1 X133.681 Y92.240 E0.01733
G1 X133.681 Y118.827 E0.83359
G1 X132.927 Y118.827 E0.02365
G1 X132.927 Y92.240 E0.83359
G1 X132.173 Y92.240 E0.02365
G1 X132.173 Y118.827 E0.83359
G1 X131.937 Y118.827 E0.00738
G1 X131.937 Y126.685 E0.24641
G1 X132.173 Y126.685 E0.00738
G1 X132.173 Y144.086 E0.54559
G1 X132.927 Y144.086 E0.02365
G1 X132.927 Y126.685 E0.54559
G1 X133.681 Y126.685 E0.02365
G1 X133.681 Y144.086 E0.54559
G1 X134.435 Y144.086 E0.02365
G1 X134.435 Y128.982 E0.47359
G1 X135.190 Y128.982 E0.02365
G1 X135.190 Y144.086 E0.47359
G1 X135.944 Y144.086 E0.02365
G1 X135.944 Y128.982 E0.47359
G1 X136.530 Y128.982 E0.01839
G1 X136.530 Y131.278 E0.07200
G1 X136.698 Y131.278 E0.00526
G1 X136.698 Y144.086 E0.40159
G1 X137.452 Y144.086 E0.02365
G1 X137.452 Y131.278 E0.40159
G1 X138.206 Y131.278 E0.02365
G1 X138.206 Y144.086 E0.40159
G1 X138.960 Y144.086 E0.02365
G1 X138.960 Y131.278 E0.40159
G1 X139.714 Y131.278 E0.02365
G1 X139.714 Y144.086 E0.40159
G1 X140.469 Y144.086 E0.02365
G1 X140.469 Y131.278 E0.40159
G1 X141.123 Y131.278 E0.02051
G1 X141.123 Y133.575 E0.07200
G1 X141.223 Y133.575 E0.00313
G1 X141.223 Y144.086 E0.32959
G1 X141.977 Y144.086 E0.02365
G1 X141.977 Y133.575 E0.32959
G1 X142.731 Y133.575 E0.02365
G1 X142.731 Y144.086 E0.32959
G1 X143.485 Y144.086 E0.02365
G1 X143.485 Y133.575 E0.32959
G1 X144.239 Y133.575 E0.02365
G1 X144.239 Y144.086 E0.32959
