; generated by Slic3r Prusa Edition 1.41.2+ on 2019-02-23 at 22:55:31

; 

; external perimeters extrusion width = 0.45mm
; perimeters extrusion width = 0.45mm
; infill extrusion width = 0.45mm
; solid infill extrusion width = 0.45mm
; top infill extrusion width = 0.40mm
; first layer extrusion width = 0.42mm

; external perimeters extrusion width = 0.45mm
; perimeters extrusion width = 0.45mm
; infill extrusion width = 0.45mm
; solid infill extrusion width = 0.45mm
; top infill extrusion width = 0.40mm
; first layer extrusion width = 0.42mm

M73 P0 R27
M73 Q0 S27
M201 X1000 Y1000 Z1000 E5000 ; sets maximum accelerations, mm/sec^2
M203 X200 Y200 Z12 E120 ; sets maximum feedrates, mm/sec
M204 P1250 R1250 T1250 ; sets acceleration (P, T) and retract acceleration (R), mm/sec^2
M205 X8.00 Y8.00 Z0.40 E1.50 ; sets the jerk limits, mm/sec
M205 S0 T0 ; sets the minimum extruding and travel feed rate, mm/sec
M107
M115 U3.5.1 ; tell printer latest fw version
M83  ; extruder relative mode
M104 S169 ; set extruder temp minus 50 to avoid stringing during calibration
M140 S60 ; set bed temp
M190 S60 ; wait for bed temp
M109 S169 ; wait for extruder temp
G28 W ; home all without mesh bed level
G80 N7 ; mesh bed leveling
G1 Y-3.0 F1000.0 ; go outside print area
M104 S219 ; set extruder temp
M109 S219 ; wait for extruder temp
G92 E0.0
G1 X60.0 E9.0  F1000.0 ; intro line
M73 Q0 S27
M73 P0 R27
G1 X100.0 E12.5  F1000.0 ; intro line
G92 E0.0
M221 S95
M900 K30; Filament gcode
G21 ; set units to millimeters
G90 ; use absolute coordinates
M83 ; use relative distances for extrusion
;BEFORE_LAYER_CHANGE
G92 E0.0
;0.2


G1 E-0.80000 F2100.00000
G1 Z0.600 F10800.000
;AFTER_LAYER_CHANGE
;0.2
G1 X106.331 Y85.220
G1 Z0.200
G1 E0.80000 F2100.00000
M204 S1000
G1 F1152
G1 X107.178 Y85.032 E0.02721
G1 X142.784 Y85.031 E1.11640
G1 X143.597 Y85.190 E0.02597
G1 X144.295 Y85.641 E0.02608
G1 X144.775 Y86.321 E0.02608
G1 X144.967 Y87.130 E0.02608
G1 X144.968 Y122.813 E1.11881
G1 X144.809 Y123.600 E0.02518
G1 X144.374 Y124.280 E0.02529
G1 X143.653 Y124.787 E0.02766
G1 X142.786 Y124.969 E0.02777
G1 X107.183 Y124.968 E1.11629
G1 X106.397 Y124.808 E0.02518
G1 X105.718 Y124.372 E0.02529
G1 X105.212 Y123.649 E0.02766
G1 X105.031 Y122.786 E0.02766
G1 X105.032 Y87.183 E1.11629
G1 X105.192 Y86.397 E0.02518
G1 X105.626 Y85.720 E0.02518
G1 X106.282 Y85.255 E0.02521
; PURGING FINISHED
G1 F8640
G1 X107.178 Y85.032 E-0.21320
G1 X109.546 Y85.032 E-0.54680
G1 E-0.04000 F2100.00000
G1 Z0.800 F10800.000
G1 X108.561 Y119.958
G1 Z0.200
G1 E0.80000 F2100.00000
G1 F1152
G1 X110.042 Y119.958 E0.04644
G1 X110.042 Y121.439 E0.04644
G1 X108.561 Y121.439 E0.04644
G1 X108.561 Y120.018 E0.04456
G1 X108.184 Y119.581 F10800.000
G1 F1152
G1 X110.419 Y119.581 E0.07009
G1 X110.419 Y121.816 E0.07009
G1 X108.184 Y121.816 E0.07009
G1 X108.184 Y119.641 E0.06821
G1 X107.807 Y119.204 F10800.000
G1 F1152
G1 X110.796 Y119.204 E0.09373
G1 X110.796 Y122.193 E0.09373
G1 X107.807 Y122.193 E0.09373
G1 X107.807 Y119.264 E0.09185
G1 X107.430 Y118.826 F10800.000
G1 F1152
G1 X111.174 Y118.826 E0.11738
G1 X111.174 Y122.570 E0.11738
G1 X107.430 Y122.570 E0.11738
G1 X107.430 Y118.886 E0.11550
G1 X107.816 Y118.930 F10800.000
G1 F8640
G1 X110.721 Y118.834 E-0.76000
G1 E-0.04000 F2100.00000
G1 Z0.800 F10800.000
G1 X109.929 Y120.993
G1 Z0.200
G1 E0.80000 F2100.00000
G1 F1152
G1 X109.177 Y120.240 E0.04004
G1 X108.844 Y120.240 E0.01252
G1 X108.844 Y120.548 E0.01156
G1 X109.622 Y121.326 E0.04140
G1 F8640
G1 X108.844 Y120.548 E-0.25407
G1 X108.844 Y120.240 E-0.07094
G1 X109.177 Y120.240 E-0.07682
G1 X109.929 Y120.993 E-0.24575
G1 E-0.15243 F2100.00000
G1 Z0.800 F10800.000
G1 X110.042 Y90.042
G1 Z0.200
G1 E0.80000 F2100.00000
G1 F1152
G1 X108.561 Y90.042 E0.04644
G1 X108.561 Y88.561 E0.04644
G1 X110.042 Y88.561 E0.04644
G1 X110.042 Y89.982 E0.04456
G1 X110.419 Y90.419 F10800.000
G1 F1152
G1 X108.184 Y90.419 E0.07009
G1 X108.184 Y88.184 E0.07009
G1 X110.419 Y88.184 E0.07009
G1 X110.419 Y90.359 E0.06821
G1 X110.796 Y90.796 F10800.000
G1 F1152
G1 X107.807 Y90.796 E0.09373
G1 X107.807 Y87.807 E0.09373
G1 X110.796 Y87.807 E0.09373
G1 X110.796 Y90.736 E0.09185
G1 X111.174 Y91.174 F10800.000
G1 F1152
G1 X107.430 Y91.174 E0.11738
G1 X107.430 Y87.430 E0.11738
G1 X111.174 Y87.430 E0.11738
G1 X111.174 Y91.114 E0.11550
G1 X110.787 Y91.070 F10800.000
G1 F8640
G1 X107.883 Y91.166 E-0.76000
G1 E-0.04000 F2100.00000
G1 Z0.800 F10800.000
G1 X109.622 Y89.929
G1 Z0.200
G1 E0.80000 F2100.00000
G1 F1152
G1 X108.844 Y89.151 E0.04140
G1 X108.844 Y88.844 E0.01156
G1 X109.177 Y88.844 E0.01252
G1 X109.929 Y89.597 E0.04004
G1 F8640
G1 X109.177 Y88.844 E-0.24575
G1 X108.844 Y88.844 E-0.07682
G1 X108.844 Y89.151 E-0.07094
G1 X109.622 Y89.929 E-0.25406
G1 E-0.15243 F2100.00000
G1 Z0.800 F10800.000
G1 X139.958 Y90.042
G1 Z0.200
G1 E0.80000 F2100.00000
G1 F1152
G1 X139.958 Y88.561 E0.04644
G1 X141.439 Y88.561 E0.04644
G1 X141.439 Y90.042 E0.04644
G1 X140.018 Y90.042 E0.04456
G1 X139.581 Y90.419 F10800.000
G1 F1152
G1 X139.581 Y88.184 E0.07009
G1 X141.816 Y88.184 E0.07009
G1 X141.816 Y90.419 E0.07009
G1 X139.641 Y90.419 E0.06821
G1 X139.204 Y90.796 F10800.000
G1 F1152
G1 X139.204 Y87.807 E0.09373
G1 X142.193 Y87.807 E0.09373
G1 X142.193 Y90.796 E0.09373
G1 X139.264 Y90.796 E0.09185
G1 X138.826 Y91.174 F10800.000
G1 F1152
G1 X138.826 Y87.430 E0.11738
G1 X142.570 Y87.430 E0.11738
G1 X142.570 Y91.174 E0.11738
G1 X138.886 Y91.174 E0.11550
G1 X138.930 Y90.787 F10800.000
G1 F8640
G1 X138.834 Y87.883 E-0.76000
G1 E-0.04000 F2100.00000
G1 Z0.800 F10800.000
G1 X141.019 Y89.929
G1 Z0.200
G1 E0.80000 F2100.00000
G1 F1152
G1 X140.240 Y89.151 E0.04140
G1 X140.240 Y88.844 E0.01156
G1 X140.573 Y88.844 E0.01252
G1 X141.326 Y89.597 E0.04004
G1 F8640
G1 X140.573 Y88.844 E-0.24575
G1 X140.240 Y88.844 E-0.07682
G1 X140.240 Y89.151 E-0.07094
G1 X141.019 Y89.929 E-0.25407
G1 E-0.15243 F2100.00000
G1 Z0.800 F10800.000
G1 X141.326 Y119.958
G1 Z0.200
G1 E0.80000 F2100.00000
G1 F1152
G1 X141.439 Y119.958 E0.00355
G1 X141.439 Y121.439 E0.04644
G1 X139.958 Y121.439 E0.04644
G1 X139.958 Y119.958 E0.04644
G1 X141.266 Y119.958 E0.04101
G1 X141.816 Y119.581 F10800.000
G1 F1152
G1 X141.816 Y121.816 E0.07009
G1 X139.581 Y121.816 E0.07009
G1 X139.581 Y119.581 E0.07009
G1 X141.756 Y119.581 E0.06821
G1 X142.193 Y119.204 F10800.000
G1 F1152
G1 X142.193 Y122.193 E0.09373
G1 X139.204 Y122.193 E0.09373
G1 X139.204 Y119.204 E0.09373
G1 X142.133 Y119.204 E0.09185
G1 X142.570 Y118.826 F10800.000
G1 F1152
G1 X142.570 Y122.570 E0.11738
G1 X138.826 Y122.570 E0.11738
G1 X138.826 Y118.826 E0.11738
G1 X142.510 Y118.826 E0.11550
G1 X142.467 Y119.213 F10800.000
G1 F8640
G1 X142.563 Y122.117 E-0.76000
G1 E-0.04000 F2100.00000
G1 Z0.800 F10800.000
G1 X141.326 Y120.993
G1 Z0.200
G1 E0.80000 F2100.00000
G1 F1152
G1 X140.573 Y120.240 E0.04004
G1 X140.240 Y120.240 E0.01252
G1 X140.240 Y120.548 E0.01156
G1 X141.019 Y121.326 E0.04140
;BEFORE_LAYER_CHANGE
G92 E0.0
;0.5


G1 F8640
G1 X140.240 Y120.548 E-0.25407
G1 X140.240 Y120.240 E-0.07094
G1 X140.573 Y120.240 E-0.07682
G1 X141.326 Y120.993 E-0.24575
G1 E-0.15242 F2100.00000
G1 Z0.800 F10800.000
;AFTER_LAYER_CHANGE
;0.5
G1 X143.653 Y124.787
G1 Z0.500
G1 E0.80000 F2100.00000
G1 F1168
G1 X142.786 Y124.969 E0.03928
G1 X107.183 Y124.968 E1.57914
G1 X106.397 Y124.808 E0.03562
G1 X105.718 Y124.372 E0.03578
G1 X105.212 Y123.649 E0.03912
G1 X105.031 Y122.786 E0.03912
G1 X105.032 Y87.183 E1.57914
G1 X105.192 Y86.397 E0.03562
G1 X105.626 Y85.720 E0.03562
G1 X106.331 Y85.220 E0.03833
G1 X107.178 Y85.032 E0.03849
G1 X142.784 Y85.031 E1.57930
G1 X143.597 Y85.190 E0.03674
G1 X144.295 Y85.641 E0.03690
G1 X144.775 Y86.321 E0.03690
G1 X144.967 Y87.130 E0.03690
G1 X144.968 Y122.813 E1.58270
G1 X144.809 Y123.600 E0.03562
G1 X144.374 Y124.280 E0.03578
G1 X143.702 Y124.752 E0.03646
; PURGING FINISHED
G1 F8640
G1 X142.786 Y124.969 E-0.21729
G1 X140.435 Y124.969 E-0.54271
G1 E-0.04000 F2100.00000
G1 Z1.100 F10800.000
G1 X110.065 Y121.398
G1 Z0.500
G1 E0.80000 F2100.00000
M204 S800
G1 F1168
G1 X108.602 Y121.398 E0.07038
G1 X108.602 Y119.935 E0.07038
G1 X110.065 Y119.935 E0.07038
G1 X110.065 Y121.338 E0.06749
M204 S1000
G1 X110.451 Y121.784 F10800.000
M204 S800
G1 F1168
G1 X108.216 Y121.784 E0.10747
G1 X108.216 Y119.549 E0.10747
G1 X110.451 Y119.549 E0.10747
G1 X110.451 Y121.724 E0.10459
M204 S1000
G1 X110.836 Y122.169 F10800.000
M204 S800
G1 F1168
G1 X107.831 Y122.169 E0.14457
G1 X107.831 Y119.164 E0.14457
G1 X110.836 Y119.164 E0.14457
G1 X110.836 Y122.109 E0.14168
M204 S1000
G1 X111.222 Y122.555 F10800.000
M204 S800
G1 F1168
G1 X107.445 Y122.555 E0.18166
G1 X107.445 Y118.778 E0.18166
G1 X111.222 Y118.778 E0.18166
G1 X111.222 Y122.495 E0.17878
M204 S1000
G1 X110.836 Y122.452 F10800.000
G1 F8640
G1 X107.931 Y122.547 E-0.76000
G1 E-0.04000 F2100.00000
G1 Z1.100 F10800.000
G1 X109.035 Y121.283
G1 Z0.500
G1 E0.80000 F2100.00000
M204 S1250
G1 F1168
G1 X109.776 Y120.542 E0.05870
G1 X109.776 Y120.224 E0.01779
G1 X109.458 Y120.224 E0.01780
G1 X108.717 Y120.965 E0.05869
M204 S1000
G1 F8640
G1 X109.458 Y120.224 E-0.24188
G1 X109.776 Y120.224 E-0.07335
G1 X109.776 Y120.542 E-0.07333
G1 X109.035 Y121.283 E-0.24193
G1 E-0.16951 F2100.00000
G1 Z1.100 F10800.000
G1 X108.717 Y90.065
G1 Z0.500
G1 E0.80000 F2100.00000
M204 S800
G1 F1168
G1 X108.602 Y90.065 E0.00556
G1 X108.602 Y88.602 E0.07038
G1 X110.065 Y88.602 E0.07038
G1 X110.065 Y90.065 E0.07038
G1 X108.777 Y90.065 E0.06193
M204 S1000
G1 X108.216 Y90.451 F10800.000
M204 S800
G1 F1168
G1 X108.216 Y88.216 E0.10747
G1 X110.451 Y88.216 E0.10747
G1 X110.451 Y90.451 E0.10747
G1 X108.276 Y90.451 E0.10459
M204 S1000
G1 X107.831 Y90.836 F10800.000
M204 S800
G1 F1168
G1 X107.831 Y87.831 E0.14457
G1 X110.836 Y87.831 E0.14457
G1 X110.836 Y90.836 E0.14457
G1 X107.891 Y90.836 E0.14168
M204 S1000
G1 X107.445 Y91.222 F10800.000
M204 S800
G1 F1168
G1 X107.445 Y87.445 E0.18166
G1 X111.222 Y87.445 E0.18166
G1 X111.222 Y91.222 E0.18166
G1 X107.505 Y91.222 E0.17877
M204 S1000
G1 X107.548 Y90.836 F10800.000
G1 F8640
G1 X107.453 Y87.931 E-0.76000
G1 E-0.04000 F2100.00000
G1 Z1.100 F10800.000
G1 X109.035 Y89.949
G1 Z0.500
G1 E0.80000 F2100.00000
M204 S1250
G1 F1168
G1 X109.776 Y89.209 E0.05870
G1 X109.776 Y88.891 E0.01779
G1 X109.458 Y88.891 E0.01780
G1 X108.717 Y89.632 E0.05869
M204 S1000
G1 F8640
G1 X109.458 Y88.891 E-0.24187
G1 X109.776 Y88.891 E-0.07336
G1 X109.776 Y89.209 E-0.07332
G1 X109.035 Y89.949 E-0.24192
G1 E-0.16953 F2100.00000
G1 Z1.100 F10800.000
G1 X139.935 Y90.065
G1 Z0.500
G1 E0.80000 F2100.00000
M204 S800
G1 F1168
G1 X139.935 Y88.602 E0.07038
G1 X141.398 Y88.602 E0.07038
G1 X141.398 Y90.065 E0.07038
G1 X139.995 Y90.065 E0.06749
M204 S1000
G1 X139.549 Y90.451 F10800.000
M204 S800
G1 F1168
G1 X139.549 Y88.216 E0.10747
G1 X141.784 Y88.216 E0.10747
G1 X141.784 Y90.451 E0.10747
G1 X139.609 Y90.451 E0.10459
M204 S1000
G1 X139.164 Y90.836 F10800.000
M204 S800
G1 F1168
G1 X139.164 Y87.831 E0.14457
G1 X142.169 Y87.831 E0.14457
G1 X142.169 Y90.836 E0.14457
G1 X139.224 Y90.836 E0.14168
M204 S1000
G1 X138.778 Y91.222 F10800.000
M204 S800
G1 F1168
G1 X138.778 Y87.445 E0.18166
G1 X142.555 Y87.445 E0.18166
G1 X142.555 Y91.222 E0.18166
G1 X138.838 Y91.222 E0.17878
M204 S1000
G1 X138.882 Y90.836 F10800.000
G1 F8640
G1 X138.786 Y87.931 E-0.76000
G1 E-0.04000 F2100.00000
G1 Z1.100 F10800.000
G1 X140.368 Y89.949
G1 Z0.500
G1 E0.80000 F2100.00000
M204 S1250
G1 F1168
G1 X141.109 Y89.209 E0.05870
G1 X141.109 Y88.891 E0.01779
G1 X140.791 Y88.891 E0.01780
G1 X140.051 Y89.632 E0.05869
M204 S1000
G1 F8640
G1 X140.791 Y88.891 E-0.24188
G1 X141.109 Y88.891 E-0.07336
G1 X141.109 Y89.209 E-0.07332
G1 X140.368 Y89.949 E-0.24193
G1 E-0.16951 F2100.00000
G1 Z1.100 F10800.000
G1 X140.051 Y119.935
G1 Z0.500
G1 E0.80000 F2100.00000
M204 S800
G1 F1168
G1 X141.398 Y119.935 E0.06482
G1 X141.398 Y121.398 E0.07038
G1 X139.935 Y121.398 E0.07038
G1 X139.935 Y119.935 E0.07038
G1 X139.991 Y119.935 E0.00268
M204 S1000
G1 X139.549 Y119.549 F10800.000
M204 S800
G1 F1168
G1 X141.784 Y119.549 E0.10747
G1 X141.784 Y121.784 E0.10747
G1 X139.549 Y121.784 E0.10747
G1 X139.549 Y119.609 E0.10459
M204 S1000
G1 X139.164 Y119.164 F10800.000
M204 S800
G1 F1168
G1 X142.169 Y119.164 E0.14457
G1 X142.169 Y122.169 E0.14457
G1 X139.164 Y122.169 E0.14457
G1 X139.164 Y119.224 E0.14168
M204 S1000
G1 X138.778 Y118.778 F10800.000
M204 S800
G1 F1168
G1 X142.555 Y118.778 E0.18166
G1 X142.555 Y122.555 E0.18166
G1 X138.778 Y122.555 E0.18166
G1 X138.778 Y118.838 E0.17878
M204 S1000
G1 X139.164 Y118.882 F10800.000
G1 F8640
G1 X142.069 Y118.786 E-0.76000
G1 E-0.04000 F2100.00000
G1 Z1.100 F10800.000
G1 X140.051 Y120.965
G1 Z0.500
G1 E0.80000 F2100.00000
M204 S1250
G1 F1168
G1 X140.791 Y120.224 E0.05869
G1 X141.109 Y120.224 E0.01780
G1 X141.109 Y120.542 E0.01779
G1 X140.368 Y121.283 E0.05870
M204 S1000
;BEFORE_LAYER_CHANGE
G92 E0.0
;0.8


G1 F8640
G1 X141.109 Y120.542 E-0.24193
G1 X141.109 Y120.224 E-0.07333
G1 X140.791 Y120.224 E-0.07336
G1 X140.051 Y120.965 E-0.24188
G1 E-0.16950 F2100.00000
G1 Z1.100 F10800.000
;AFTER_LAYER_CHANGE
;0.8
G1 X143.653 Y124.787
G1 Z0.800
G1 E0.80000 F2100.00000
G1 F1201
G1 X142.786 Y124.969 E0.03928
G1 X107.183 Y124.968 E1.57914
G1 X106.397 Y124.808 E0.03562
G1 X105.718 Y124.372 E0.03578
G1 X105.212 Y123.649 E0.03912
G1 X105.031 Y122.786 E0.03912
G1 X105.032 Y87.183 E1.57914
G1 X105.192 Y86.397 E0.03562
G1 X105.626 Y85.720 E0.03562
G1 X106.331 Y85.220 E0.03833
G1 X107.178 Y85.032 E0.03849
G1 X142.784 Y85.031 E1.57930
G1 X143.597 Y85.190 E0.03674
G1 X144.295 Y85.641 E0.03690
G1 X144.775 Y86.321 E0.03690
G1 X144.967 Y87.130 E0.03690
G1 X144.968 Y122.813 E1.58270
G1 X144.809 Y123.600 E0.03562
G1 X144.374 Y124.280 E0.03578
G1 X143.702 Y124.752 E0.03646
; PURGING FINISHED
G1 F8640
G1 X142.786 Y124.969 E-0.21729
G1 X140.435 Y124.969 E-0.54271
G1 E-0.04000 F2100.00000
G1 Z1.400 F10800.000
G1 X110.152 Y121.398
G1 Z0.800
G1 E0.80000 F2100.00000
M204 S800
G1 F1201
G1 X108.602 Y121.398 E0.07457
G1 X108.602 Y119.848 E0.07457
G1 X110.152 Y119.848 E0.07457
G1 X110.152 Y121.338 E0.07169
M204 S1000
G1 X110.538 Y121.784 F10800.000
M204 S800
G1 F1201
G1 X108.216 Y121.784 E0.11166
G1 X108.216 Y119.462 E0.11167
G1 X110.538 Y119.462 E0.11166
G1 X110.538 Y121.724 E0.10878
M204 S1000
G1 X110.923 Y122.169 F10800.000
M204 S800
G1 F1201
G1 X107.831 Y122.169 E0.14876
G1 X107.831 Y119.077 E0.14876
G1 X110.923 Y119.077 E0.14876
M73 Q3 S26
G1 X110.923 Y122.109 E0.14587
M204 S1000
G1 X111.309 Y122.555 F10800.000
M204 S800
G1 F1201
G1 X107.445 Y122.555 E0.18585
G1 X107.445 Y118.691 E0.18585
G1 X111.309 Y118.691 E0.18585
G1 X111.309 Y122.495 E0.18297
M73 P3 R26
M204 S1000
G1 X110.923 Y122.452 F10800.000
G1 F8640
G1 X108.018 Y122.546 E-0.76000
G1 E-0.04000 F2100.00000
G1 Z1.400 F10800.000
G1 X110.037 Y120.907
G1 Z0.800
G1 E0.80000 F2100.00000
M204 S1250
G1 F1201
G1 X109.267 Y120.137 E0.06282
G1 X108.891 Y120.137 E0.02170
G1 X108.891 Y120.415 E0.01607
G1 X109.585 Y121.109 E0.05661
G1 X108.930 Y121.109 E0.03777
G1 X108.717 Y120.896 E0.01736
M204 S1000
G1 F8640
G1 X108.930 Y121.109 E-0.06945
G1 X109.585 Y121.109 E-0.15111
G1 X108.891 Y120.415 E-0.22649
G1 X108.891 Y120.137 E-0.06430
G1 X109.267 Y120.137 E-0.08681
G1 X109.763 Y120.633 E-0.16185
G1 E-0.04000 F2100.00000
G1 Z1.400 F10800.000
G1 X108.717 Y90.152
G1 Z0.800
G1 E0.80000 F2100.00000
M204 S800
G1 F1201
G1 X108.602 Y90.152 E0.00556
G1 X108.602 Y88.602 E0.07457
G1 X110.152 Y88.602 E0.07457
G1 X110.152 Y90.152 E0.07457
G1 X108.777 Y90.152 E0.06612
M204 S1000
G1 X108.216 Y90.538 F10800.000
M204 S800
G1 F1201
G1 X108.216 Y88.216 E0.11166
G1 X110.538 Y88.216 E0.11166
G1 X110.538 Y90.538 E0.11166
G1 X108.276 Y90.538 E0.10878
M204 S1000
G1 X107.831 Y90.923 F10800.000
M204 S800
G1 F1201
G1 X107.831 Y87.831 E0.14876
G1 X110.923 Y87.831 E0.14876
G1 X110.923 Y90.923 E0.14876
G1 X107.891 Y90.923 E0.14587
M204 S1000
G1 X107.445 Y91.309 F10800.000
M204 S800
G1 F1201
G1 X107.445 Y87.445 E0.18585
G1 X111.309 Y87.445 E0.18585
G1 X111.309 Y91.309 E0.18585
G1 X107.505 Y91.309 E0.18297
M204 S1000
G1 X107.548 Y90.923 F10800.000
G1 F8640
G1 X107.454 Y88.018 E-0.76000
