; generated by Slic3r Prusa Edition 1.41.2+ on 2019-02-23 at 11:23:32

; 

; external perimeters extrusion width = 0.45mm
; perimeters extrusion width = 0.45mm
; infill extrusion width = 0.45mm
; solid infill extrusion width = 0.45mm
; top infill extrusion width = 0.40mm
; first layer extrusion width = 0.42mm

M73 P0 R29
M73 Q0 S29
M201 X1000 Y1000 Z1000 E5000 ; sets maximum accelerations, mm/sec^2
M203 X200 Y200 Z12 E120 ; sets maximum feedrates, mm/sec
M204 P1250 R1250 T1250 ; sets acceleration (P, T) and retract acceleration (R), mm/sec^2
M205 X8.00 Y8.00 Z0.40 E1.50 ; sets the jerk limits, mm/sec
M205 S0 T0 ; sets the minimum extruding and travel feed rate, mm/sec
M107
M115 U3.5.1 ; tell printer latest fw version
M83  ; extruder relative mode
M104 S168 ; set extruder temp minus 50 to avoid stringing during calibration
M140 S60 ; set bed temp
M190 S60 ; wait for bed temp
M109 S168 ; wait for extruder temp
G28 W ; home all without mesh bed level
G80 N7 ; mesh bed leveling
G1 Y-3.0 F1000.0 ; go outside print area
M104 S218 ; set extruder temp
M109 S218 ; wait for extruder temp
G92 E0.0
G1 X60.0 E9.0  F1000.0 ; intro line
M73 Q0 S29
M73 P0 R29
G1 X100.0 E12.5  F1000.0 ; intro line
G92 E0.0
M221 S95
M900 K30; Filament gcode
G21 ; set units to millimeters
G90 ; use absolute coordinates
M83 ; use relative distances for extrusion
;BEFORE_LAYER_CHANGE
G92 E0.0
;0.2


G1 E-0.80000 F2100.00000
G1 Z0.600 F10800.000
;AFTER_LAYER_CHANGE
;0.2
G1 X105.067 Y83.947
G1 Z0.200
G1 E0.80000 F2100.00000
M204 S1100
G1 F1736
G1 X105.911 Y83.762 E0.02709
G1 X144.054 Y83.761 E1.19593
G1 X144.870 Y83.921 E0.02608
G1 X145.568 Y84.374 E0.02608
G1 X146.047 Y85.054 E0.02608
G1 X146.237 Y85.867 E0.02620
G1 X146.238 Y124.083 E1.19822
G1 X146.078 Y124.873 E0.02529
G1 X145.639 Y125.555 E0.02541
G1 X144.919 Y126.058 E0.02754
G1 X144.056 Y126.239 E0.02766
G1 X105.917 Y126.238 E1.19581
G1 X105.127 Y126.078 E0.02529
G1 X104.445 Y125.639 E0.02541
G1 X103.942 Y124.919 E0.02754
G1 X103.761 Y124.056 E0.02766
G1 X103.762 Y85.917 E1.19581
G1 X103.922 Y85.127 E0.02529
G1 X104.358 Y84.448 E0.02529
G1 X105.018 Y83.982 E0.02533
M204 S1200
; PURGING FINISHED
G1 F8640
G1 X105.911 Y83.762 E-0.21237
G1 X108.283 Y83.762 E-0.54763
G1 E-0.04000 F2100.00000
G1 Z0.800 F10800.000
G1 X107.291 Y120.414
G1 Z0.200
G1 E0.80000 F2100.00000
M204 S1100
G1 F1736
G1 X109.586 Y120.414 E0.07196
G1 X109.586 Y122.709 E0.07196
G1 X107.291 Y122.709 E0.07196
G1 X107.291 Y120.474 E0.07008
M204 S1200
G1 X106.914 Y120.037 F10800.000
M204 S1100
G1 F1736
G1 X109.963 Y120.037 E0.09561
G1 X109.963 Y123.086 E0.09561
G1 X106.914 Y123.086 E0.09561
G1 X106.914 Y120.097 E0.09372
M204 S1200
G1 X106.537 Y119.660 F10800.000
M204 S1100
G1 F1736
G1 X110.340 Y119.660 E0.11925
G1 X110.340 Y123.463 E0.11925
G1 X106.537 Y123.463 E0.11925
G1 X106.537 Y119.720 E0.11737
M204 S1200
G1 X106.160 Y119.282 F10800.000
M204 S1100
G1 F1736
G1 X110.718 Y119.282 E0.14290
G1 X110.718 Y123.840 E0.14290
G1 X106.160 Y123.840 E0.14290
G1 X106.160 Y119.342 E0.14102
M204 S1200
G1 X106.546 Y119.386 F10800.000
G1 F8640
G1 X109.451 Y119.299 E-0.76000
G1 E-0.04000 F2100.00000
G1 Z0.800 F10800.000
G1 X107.404 Y121.731
G1 Z0.200
G1 E0.80000 F2100.00000
M204 S1100
G1 F1736
G1 X108.100 Y122.426 E0.03480
G1 X108.702 Y122.426 E0.02130
G1 X107.574 Y121.298 E0.05643
G1 X107.574 Y120.697 E0.02130
G1 X109.303 Y122.426 E0.08655
G1 X109.304 Y121.824 E0.02130
G1 X108.176 Y120.697 E0.05644
G1 X108.778 Y120.697 E0.02130
G1 X109.473 Y121.392 E0.03481
M204 S1200
G1 F8640
G1 X108.778 Y120.697 E-0.22711
G1 X108.176 Y120.697 E-0.13897
G1 X109.304 Y121.824 E-0.36824
G1 X109.303 Y121.935 E-0.02568
G1 E-0.04000 F2100.00000
G1 Z0.800 F10800.000
G1 X124.087 Y120.837
G1 Z0.200
G1 E0.80000 F2100.00000
M204 S1100
G1 F1736
G1 X124.413 Y120.837 E0.01022
G1 X124.413 Y123.463 E0.08233
G1 X124.087 Y123.463 E0.01022
G1 X124.087 Y120.897 E0.08045
M204 S1200
G1 X123.710 Y120.460 F10800.000
M204 S1100
G1 F1736
G1 X124.790 Y120.460 E0.03386
G1 X124.790 Y123.840 E0.10598
G1 X123.710 Y123.840 E0.03386
G1 X123.710 Y120.520 E0.10410
M204 S1200
G1 X124.075 Y120.623 F10800.000
G1 F8640
G1 X124.790 Y120.460 E-0.24976
G1 X124.790 Y122.670 E-0.51024
G1 E-0.04000 F2100.00000
G1 Z0.800 F10800.000
G1 X140.414 Y120.520
G1 Z0.200
G1 E0.80000 F2100.00000
M204 S1100
G1 F1736
G1 X140.414 Y120.414 E0.00333
G1 X142.709 Y120.414 E0.07196
G1 X142.709 Y122.709 E0.07196
G1 X140.414 Y122.709 E0.07196
G1 X140.414 Y120.580 E0.06675
M204 S1200
G1 X140.037 Y120.037 F10800.000
M204 S1100
G1 F1736
G1 X143.086 Y120.037 E0.09561
G1 X143.086 Y123.086 E0.09561
G1 X140.037 Y123.086 E0.09561
G1 X140.037 Y120.097 E0.09372
M204 S1200
G1 X139.660 Y119.660 F10800.000
M204 S1100
G1 F1736
G1 X143.463 Y119.660 E0.11925
G1 X143.463 Y123.463 E0.11925
G1 X139.660 Y123.463 E0.11925
G1 X139.660 Y119.720 E0.11737
M204 S1200
G1 X139.282 Y119.282 F10800.000
M204 S1100
G1 F1736
G1 X143.840 Y119.282 E0.14290
G1 X143.840 Y123.840 E0.14290
G1 X139.282 Y123.840 E0.14290
G1 X139.282 Y119.342 E0.14102
M204 S1200
G1 X139.669 Y119.386 F10800.000
G1 F8640
G1 X142.574 Y119.299 E-0.76000
G1 E-0.04000 F2100.00000
G1 Z0.800 F10800.000
G1 X140.527 Y121.731
G1 Z0.200
G1 E0.80000 F2100.00000
M204 S1100
G1 F1736
G1 X141.222 Y122.426 E0.03480
G1 X141.824 Y122.426 E0.02130
G1 X140.697 Y121.298 E0.05643
G1 X140.697 Y120.697 E0.02130
G1 X142.426 Y122.426 E0.08655
G1 X142.426 Y121.824 E0.02130
G1 X141.298 Y120.697 E0.05643
G1 X141.900 Y120.697 E0.02130
G1 X142.596 Y121.392 E0.03481
M204 S1200
G1 F8640
G1 X141.900 Y120.697 E-0.22711
G1 X141.298 Y120.697 E-0.13897
G1 X142.426 Y121.824 E-0.36823
G1 X142.426 Y121.935 E-0.02569
G1 E-0.04000 F2100.00000
G1 Z0.800 F10800.000
G1 X143.463 Y104.413
G1 Z0.200
G1 E0.80000 F2100.00000
M204 S1100
G1 F1736
G1 X141.037 Y104.413 E0.07606
G1 X141.037 Y104.087 E0.01022
G1 X143.463 Y104.087 E0.07606
G1 X143.463 Y104.353 E0.00834
M204 S1200
G1 X143.840 Y104.790 F10800.000
M204 S1100
G1 F1736
G1 X140.660 Y104.790 E0.09971
G1 X140.660 Y103.710 E0.03386
G1 X143.840 Y103.710 E0.09971
G1 X143.840 Y104.730 E0.03198
M204 S1200
G1 X143.442 Y104.746 F10800.000
G1 F8640
G1 X140.660 Y104.790 E-0.73440
G1 X140.660 Y104.679 E-0.02560
G1 E-0.04000 F2100.00000
G1 Z0.800 F10800.000
G1 X142.709 Y89.586
G1 Z0.200
G1 E0.80000 F2100.00000
M204 S1100
G1 F1736
G1 X140.414 Y89.586 E0.07196
G1 X140.414 Y87.291 E0.07196
G1 X142.709 Y87.291 E0.07196
G1 X142.709 Y89.526 E0.07008
M204 S1200
G1 X143.086 Y89.963 F10800.000
M204 S1100
G1 F1736
G1 X140.037 Y89.963 E0.09561
G1 X140.037 Y86.914 E0.09561
G1 X143.086 Y86.914 E0.09561
G1 X143.086 Y89.903 E0.09372
M204 S1200
G1 X143.463 Y90.340 F10800.000
M204 S1100
G1 F1736
G1 X139.660 Y90.340 E0.11925
G1 X139.660 Y86.537 E0.11925
G1 X143.463 Y86.537 E0.11925
G1 X143.463 Y90.280 E0.11737
M204 S1200
G1 X143.840 Y90.718 F10800.000
M204 S1100
G1 F1736
G1 X139.282 Y90.718 E0.14290
G1 X139.282 Y86.160 E0.14290
G1 X143.840 Y86.160 E0.14290
G1 X143.840 Y90.658 E0.14102
M204 S1200
G1 X143.454 Y90.614 F10800.000
G1 F8640
G1 X140.549 Y90.701 E-0.76000
G1 E-0.04000 F2100.00000
G1 Z0.800 F10800.000
G1 X142.596 Y88.270
G1 Z0.200
G1 E0.80000 F2100.00000
M204 S1100
G1 F1736
G1 X141.900 Y87.574 E0.03481
G1 X141.298 Y87.574 E0.02130
G1 X142.426 Y88.702 E0.05644
G1 X142.426 Y89.304 E0.02130
G1 X140.697 Y87.574 E0.08655
G1 X140.697 Y88.176 E0.02130
G1 X141.824 Y89.304 E0.05643
G1 X141.222 Y89.304 E0.02130
G1 X140.527 Y88.608 E0.03480
M204 S1200
G1 F8640
G1 X141.222 Y89.304 E-0.22706
G1 X141.824 Y89.304 E-0.13897
G1 X140.697 Y88.176 E-0.36819
G1 X140.697 Y88.064 E-0.02577
G1 E-0.04000 F2100.00000
G1 Z0.800 F10800.000
G1 X124.413 Y89.163
G1 Z0.200
G1 E0.80000 F2100.00000
M204 S1100
G1 F1736
G1 X124.087 Y89.163 E0.01022
G1 X124.087 Y86.537 E0.08233
G1 X124.413 Y86.537 E0.01022
G1 X124.413 Y89.103 E0.08045
M204 S1200
G1 X124.790 Y89.540 F10800.000
M204 S1100
G1 F1736
G1 X123.710 Y89.540 E0.03386
G1 X123.710 Y86.160 E0.10598
G1 X124.790 Y86.160 E0.03386
G1 X124.790 Y89.480 E0.10410
M204 S1200
G1 X124.425 Y89.377 F10800.000
G1 F8640
G1 X123.710 Y89.540 E-0.24976
G1 X123.710 Y87.330 E-0.51024
G1 E-0.04000 F2100.00000
G1 Z0.800 F10800.000
G1 X109.586 Y89.480
G1 Z0.200
G1 E0.80000 F2100.00000
M204 S1100
G1 F1736
G1 X109.586 Y89.586 E0.00333
G1 X107.291 Y89.586 E0.07196
G1 X107.291 Y87.291 E0.07196
G1 X109.586 Y87.291 E0.07196
G1 X109.586 Y89.420 E0.06675
M204 S1200
G1 X109.963 Y89.963 F10800.000
M204 S1100
G1 F1736
G1 X106.914 Y89.963 E0.09561
G1 X106.914 Y86.914 E0.09561
G1 X109.963 Y86.914 E0.09561
G1 X109.963 Y89.903 E0.09372
M204 S1200
G1 X110.340 Y90.340 F10800.000
M204 S1100
G1 F1736
G1 X106.537 Y90.340 E0.11925
G1 X106.537 Y86.537 E0.11925
G1 X110.340 Y86.537 E0.11925
G1 X110.340 Y90.280 E0.11737
M204 S1200
G1 X110.718 Y90.718 F10800.000
M204 S1100
G1 F1736
G1 X106.160 Y90.718 E0.14290
G1 X106.160 Y86.160 E0.14290
G1 X110.718 Y86.160 E0.14290
G1 X110.718 Y90.658 E0.14102
M204 S1200
G1 X110.331 Y90.614 F10800.000
G1 F8640
G1 X107.426 Y90.701 E-0.76000
G1 E-0.04000 F2100.00000
G1 Z0.800 F10800.000
G1 X109.473 Y88.270
G1 Z0.200
G1 E0.80000 F2100.00000
M204 S1100
G1 F1736
G1 X108.778 Y87.574 E0.03481
G1 X108.176 Y87.574 E0.02130
G1 X109.304 Y88.702 E0.05644
G1 X109.303 Y89.304 E0.02130
G1 X107.574 Y87.574 E0.08655
G1 X107.574 Y88.176 E0.02130
G1 X108.702 Y89.304 E0.05643
G1 X108.100 Y89.304 E0.02130
G1 X107.404 Y88.608 E0.03480
M204 S1200
G1 F8640
G1 X108.100 Y89.304 E-0.22707
G1 X108.702 Y89.304 E-0.13897
G1 X107.574 Y88.176 E-0.36819
G1 X107.574 Y88.064 E-0.02577
G1 E-0.04000 F2100.00000
G1 Z0.800 F10800.000
G1 X106.537 Y104.087
G1 Z0.200
G1 E0.80000 F2100.00000
M204 S1100
G1 F1736
G1 X108.963 Y104.087 E0.07606
G1 X108.963 Y104.413 E0.01022
G1 X106.537 Y104.413 E0.07606
G1 X106.537 Y104.147 E0.00834
M204 S1200
G1 X106.160 Y103.710 F10800.000
M204 S1100
G1 F1736
G1 X109.340 Y103.710 E0.09971
G1 X109.340 Y104.790 E0.03386
G1 X106.160 Y104.790 E0.09971
G1 X106.160 Y103.770 E0.03198
M204 S1200
G1 X106.558 Y103.754 F10800.000
M106 S255
;BEFORE_LAYER_CHANGE
G92 E0.0
;0.45


G1 F8640
G1 X109.340 Y103.710 E-0.73440
G1 X109.340 Y103.821 E-0.02560
G1 E-0.04000 F2100.00000
G1 Z0.800 F10800.000
;AFTER_LAYER_CHANGE
;0.45
G1 X103.942 Y124.919
G1 Z0.450
G1 E0.80000 F2100.00000
G1 F1781
G1 X103.761 Y124.056 E0.03359
G1 X103.762 Y85.917 E1.45223
G1 X103.922 Y85.127 E0.03072
G1 X104.358 Y84.448 E0.03072
G1 X105.067 Y83.947 E0.03304
G1 X105.911 Y83.762 E0.03290
G1 X144.054 Y83.761 E1.45237
G1 X144.870 Y83.921 E0.03168
G1 X145.568 Y84.374 E0.03168
G1 X146.047 Y85.054 E0.03168
G1 X146.237 Y85.867 E0.03181
G1 X146.238 Y124.083 E1.45515
G1 X146.078 Y124.873 E0.03072
G1 X145.639 Y125.555 E0.03086
G1 X144.919 Y126.058 E0.03345
G1 X144.056 Y126.239 E0.03359
G1 X105.917 Y126.238 E1.45223
G1 X105.127 Y126.078 E0.03072
G1 X104.445 Y125.639 E0.03086
G1 X103.976 Y124.968 E0.03117
; PURGING FINISHED
G1 F8640
G1 X103.761 Y124.056 E-0.21647
G1 X103.761 Y121.702 E-0.54353
G1 E-0.04000 F2100.00000
G1 Z1.050 F10800.000
G1 X107.364 Y122.636
G1 Z0.450
G1 E0.80000 F2100.00000
M204 S880
G1 F1781
G1 X107.364 Y120.583 E0.08457
G1 X109.417 Y120.583 E0.08457
G1 X109.417 Y122.636 E0.08457
G1 X107.424 Y122.636 E0.08210
M204 S1200
G1 X106.968 Y123.032 F10800.000
M204 S880
G1 F1781
G1 X106.968 Y120.187 E0.11722
G1 X109.813 Y120.187 E0.11722
G1 X109.813 Y123.032 E0.11722
G1 X107.028 Y123.032 E0.11475
M204 S1200
G1 X106.571 Y123.429 F10800.000
M204 S880
G1 F1781
G1 X106.571 Y119.790 E0.14988
G1 X110.210 Y119.790 E0.14988
G1 X110.210 Y123.429 E0.14988
G1 X106.631 Y123.429 E0.14741
M204 S1200
G1 X106.175 Y123.825 F10800.000
M204 S880
G1 F1781
G1 X106.175 Y119.394 E0.18253
G1 X110.606 Y119.394 E0.18253
G1 X110.606 Y123.825 E0.18253
G1 X106.235 Y123.825 E0.18006
M204 S1200
G1 X106.279 Y123.439 F10800.000
G1 F8640
G1 X106.190 Y120.534 E-0.76000
G1 E-0.04000 F2100.00000
G1 Z1.050 F10800.000
G1 X108.410 Y122.517
G1 Z0.450
G1 E0.80000 F2100.00000
M204 S1250
G1 F1781
G1 X109.120 Y121.808 E0.04558
G1 X109.120 Y121.189 E0.02809
G1 X107.970 Y122.339 E0.07385
G1 X107.661 Y122.339 E0.01404
G1 X107.661 Y122.030 E0.01405
G1 X108.810 Y120.880 E0.07384
G1 X108.192 Y120.880 E0.02809
G1 X107.483 Y121.590 E0.04557
M204 S1200
G1 F8640
G1 X108.192 Y120.880 E-0.23161
G1 X108.810 Y120.880 E-0.14275
G1 X107.661 Y122.030 E-0.37524
G1 X107.661 Y122.075 E-0.01041
G1 E-0.04000 F2100.00000
G1 Z1.050 F10800.000
G1 X124.121 Y120.871
G1 Z0.450
G1 E0.80000 F2100.00000
M204 S880
G1 F1781
G1 X124.379 Y120.871 E0.01060
G1 X124.379 Y123.429 E0.10535
G1 X124.121 Y123.429 E0.01060
G1 X124.121 Y120.931 E0.10288
M204 S1200
G1 X123.725 Y120.475 F10800.000
M204 S880
G1 F1781
G1 X124.775 Y120.475 E0.04326
G1 X124.775 Y123.825 E0.13801
G1 X123.725 Y123.825 E0.04326
G1 X123.725 Y120.535 E0.13553
M204 S1200
G1 X124.090 Y120.639 F10800.000
G1 F8640
G1 X124.775 Y120.475 E-0.24284
G1 X124.775 Y122.715 E-0.51716
G1 E-0.04000 F2100.00000
G1 Z1.050 F10800.000
G1 X140.583 Y120.583
G1 Z0.450
G1 E0.80000 F2100.00000
M204 S880
G1 F1781
G1 X142.636 Y120.583 E0.08457
G1 X142.636 Y122.636 E0.08457
G1 X140.583 Y122.636 E0.08457
G1 X140.583 Y120.643 E0.08209
M204 S1200
G1 X140.187 Y120.187 F10800.000
M204 S880
G1 F1781
G1 X143.032 Y120.187 E0.11722
G1 X143.032 Y123.032 E0.11722
G1 X140.187 Y123.032 E0.11722
G1 X140.187 Y120.247 E0.11475
M204 S1200
G1 X139.790 Y119.790 F10800.000
M204 S880
G1 F1781
G1 X143.429 Y119.790 E0.14988
G1 X143.429 Y123.429 E0.14988
G1 X139.790 Y123.429 E0.14988
G1 X139.790 Y119.850 E0.14741
M204 S1200
G1 F8640
G1 X143.081 Y119.796 E-0.76000
G1 E-0.04000 F2100.00000
G1 Z1.050 F10800.000
G1 X143.825 Y123.825
G1 Z0.450
G1 E0.80000 F2100.00000
M204 S880
G1 F1781
G1 X139.394 Y123.825 E0.18253
G1 X139.394 Y119.394 E0.18253
G1 X143.825 Y119.394 E0.18253
G1 X143.825 Y123.765 E0.18006
M204 S1200
G1 X143.439 Y123.721 F10800.000
G1 F8640
G1 X140.534 Y123.810 E-0.76000
G1 E-0.04000 F2100.00000
G1 Z1.050 F10800.000
G1 X141.629 Y122.517
G1 Z0.450
G1 E0.80000 F2100.00000
M204 S1250
G1 F1781
G1 X142.339 Y121.808 E0.04558
G1 X142.339 Y121.189 E0.02809
G1 X141.189 Y122.339 E0.07385
G1 X140.880 Y122.339 E0.01404
G1 X140.880 Y122.030 E0.01405
G1 X142.030 Y120.880 E0.07384
G1 X141.411 Y120.880 E0.02809
G1 X140.702 Y121.590 E0.04557
M204 S1200
G1 F8640
G1 X141.411 Y120.880 E-0.23161
G1 X142.030 Y120.880 E-0.14275
G1 X140.880 Y122.030 E-0.37524
G1 X140.880 Y122.075 E-0.01041
G1 E-0.04000 F2100.00000
G1 Z1.050 F10800.000
G1 X141.071 Y104.379
G1 Z0.450
G1 E0.80000 F2100.00000
M204 S880
G1 F1781
G1 X141.071 Y104.121 E0.01060
G1 X143.429 Y104.121 E0.09711
G1 X143.429 Y104.379 E0.01060
G1 X141.131 Y104.379 E0.09464
M204 S1200
G1 X140.675 Y104.775 F10800.000
M204 S880
G1 F1781
G1 X140.675 Y103.725 E0.04326
G1 X143.825 Y103.725 E0.12977
G1 X143.825 Y104.775 E0.04326
G1 X140.735 Y104.775 E0.12729
M204 S1200
G1 X140.837 Y104.409 F10800.000
G1 F8640
G1 X140.675 Y103.725 E-0.24284
G1 X142.915 Y103.725 E-0.51716
G1 E-0.04000 F2100.00000
G1 Z1.050 F10800.000
G1 X140.735 Y89.417
G1 Z0.450
G1 E0.80000 F2100.00000
M204 S880
G1 F1781
G1 X140.583 Y89.417 E0.00625
G1 X140.583 Y87.364 E0.08457
G1 X142.636 Y87.364 E0.08457
G1 X142.636 Y89.417 E0.08457
G1 X140.795 Y89.417 E0.07584
M204 S1200
G1 X140.187 Y89.813 F10800.000
M204 S880
G1 F1781
G1 X140.187 Y86.968 E0.11722
G1 X143.032 Y86.968 E0.11722
G1 X143.032 Y89.813 E0.11722
G1 X140.247 Y89.813 E0.11475
M204 S1200
G1 X139.790 Y90.210 F10800.000
M204 S880
G1 F1781
G1 X139.790 Y86.571 E0.14988
G1 X143.429 Y86.571 E0.14988
G1 X143.429 Y90.210 E0.14988
G1 X139.850 Y90.210 E0.14741
M204 S1200
G1 F8640
G1 X139.796 Y86.919 E-0.76000
G1 E-0.04000 F2100.00000
G1 Z1.050 F10800.000
G1 X143.825 Y90.606
G1 Z0.450
G1 E0.80000 F2100.00000
M204 S880
G1 F1781
G1 X139.394 Y90.606 E0.18253
G1 X139.394 Y86.175 E0.18253
G1 X143.825 Y86.175 E0.18253
G1 X143.825 Y90.546 E0.18006
M204 S1200
G1 X143.439 Y90.502 F10800.000
G1 F8640
G1 X140.534 Y90.590 E-0.76000
G1 E-0.04000 F2100.00000
G1 Z1.050 F10800.000
G1 X141.629 Y89.298
G1 Z0.450
G1 E0.80000 F2100.00000
M204 S1250
G1 F1781
G1 X142.339 Y88.589 E0.04558
G1 X142.339 Y87.970 E0.02809
G1 X141.189 Y89.120 E0.07385
G1 X140.880 Y89.120 E0.01404
