; generated by Slic3r Prusa Edition 1.41.2+ on 2019-02-22 at 00:25:12

; 

; external perimeters extrusion width = 0.45mm
; perimeters extrusion width = 0.45mm
; infill extrusion width = 0.45mm
; solid infill extrusion width = 0.45mm
; top infill extrusion width = 0.40mm
; support material extrusion width = 0.35mm
; first layer extrusion width = 0.42mm

M73 P0 R82
M73 Q0 S83
M201 X1000 Y1000 Z1000 E5000 ; sets maximum accelerations, mm/sec^2
M203 X200 Y200 Z12 E120 ; sets maximum feedrates, mm/sec
M204 P1250 R1250 T1250 ; sets acceleration (P, T) and retract acceleration (R), mm/sec^2
M205 X8.00 Y8.00 Z0.40 E1.50 ; sets the jerk limits, mm/sec
M205 S0 T0 ; sets the minimum extruding and travel feed rate, mm/sec
M107
M115 U3.5.1 ; tell printer latest fw version
M83  ; extruder relative mode
M104 S165 ; set extruder temp minus 50 to avoid stringing during calibration
M140 S60 ; set bed temp
M190 S60 ; wait for bed temp
M109 S165 ; wait for extruder temp
G28 W ; home all without mesh bed level
G80 N7 ; mesh bed leveling
G1 Y-3.0 F1000.0 ; go outside print area
M104 S215 ; set extruder temp
M109 S215 ; wait for extruder temp
G92 E0.0
G1 X60.0 E9.0  F1000.0 ; intro line
M73 Q0 S83
M73 P0 R82
G1 X100.0 E12.5  F1000.0 ; intro line
G92 E0.0
M221 S95
M900 K30; Filament gcode
G21 ; set units to millimeters
G90 ; use absolute coordinates
M83 ; use relative distances for extrusion
;BEFORE_LAYER_CHANGE
G92 E0.0
;0.2


G1 E-0.80000 F2100.00000
G1 Z0.600 F10800.000
;AFTER_LAYER_CHANGE
;0.2
G1 X107.388 Y78.481
G1 Z0.200
G1 E0.80000 F2100.00000
M204 S1000
G1 F1200
G1 X108.216 Y78.320 E0.02642
G1 X142.969 Y78.490 E1.08969
G1 X143.474 Y78.565 E0.01601
G1 X143.945 Y78.753 E0.01589
G1 X144.363 Y79.047 E0.01601
G1 X144.701 Y79.429 E0.01601
G1 X149.290 Y86.448 E0.26293
G1 X149.498 Y86.886 E0.01521
G1 X149.604 Y87.356 E0.01510
G1 X149.617 Y123.713 E1.13994
G1 X149.478 Y124.460 E0.02383
G1 X149.091 Y125.114 E0.02383
G1 X144.151 Y130.103 E0.22014
G1 X143.570 Y130.390 E0.02032
G1 X142.926 Y130.493 E0.02044
G1 X107.954 Y130.478 E1.09654
G1 X107.443 Y130.354 E0.01646
G1 X106.975 Y130.110 E0.01658
G1 X100.137 Y125.291 E0.26227
G1 X99.626 Y124.768 E0.02293
G1 X99.339 Y124.183 E0.02044
G1 X99.237 Y123.543 E0.02032
G1 X99.273 Y87.033 E1.14473
G1 X99.465 Y86.456 E0.01908
G1 X99.811 Y85.951 E0.01919
G1 X106.684 Y78.942 E0.30778
G1 X107.338 Y78.514 E0.02454
; PURGING FINISHED
G1 F8640
G1 X108.216 Y78.320 E-0.20746
G1 X110.609 Y78.332 E-0.55254
G1 E-0.04000 F2100.00000
G1 Z0.800 F10800.000
G1 X108.212 Y80.508
G1 Z0.200
G1 E0.80000 F2100.00000
G1 F1200
G1 X108.212 Y85.649 E0.16118
G1 X108.967 Y85.649 E0.02365
G1 X108.967 Y80.678 E0.15586
G1 X109.721 Y80.678 E0.02365
G1 X109.721 Y85.649 E0.15586
G1 X110.475 Y85.649 E0.02365
G1 X110.475 Y80.678 E0.15586
G1 X111.229 Y80.678 E0.02365
G1 X111.229 Y128.135 E1.48799
G1 X111.983 Y128.135 E0.02365
G1 X111.983 Y80.678 E1.48799
G1 X112.737 Y80.678 E0.02365
G1 X112.737 Y128.135 E1.48799
G1 X113.492 Y128.135 E0.02365
G1 X113.492 Y80.678 E1.48799
G1 X114.246 Y80.678 E0.02365
G1 X114.246 Y102.757 E0.69228
G1 X115.000 Y102.757 E0.02365
G1 X115.000 Y80.678 E0.69228
G1 X115.754 Y80.678 E0.02365
G1 X115.754 Y102.757 E0.69228
G1 X115.836 Y102.757 E0.00257
G1 X115.836 Y98.143 E0.14467
G1 X116.508 Y98.143 E0.02107
G1 X116.508 Y80.678 E0.54761
G1 X117.262 Y80.678 E0.02365
G1 X117.262 Y98.143 E0.54761
G1 X118.017 Y98.143 E0.02365
G1 X118.017 Y80.678 E0.54761
G1 X118.771 Y80.678 E0.02365
G1 X118.771 Y95.836 E0.47527
G1 X119.525 Y95.836 E0.02365
G1 X119.525 Y80.678 E0.47527
G1 X120.279 Y80.678 E0.02365
G1 X120.279 Y95.836 E0.47527
G1 X121.033 Y95.836 E0.02365
G1 X121.033 Y80.678 E0.47527
G1 X121.787 Y80.678 E0.02365
G1 X121.787 Y95.836 E0.47527
G1 X122.541 Y95.836 E0.02365
G1 X122.541 Y80.678 E0.47527
G1 X123.296 Y80.678 E0.02365
G1 X123.296 Y93.529 E0.40294
G1 X124.050 Y93.529 E0.02365
G1 X124.050 Y80.678 E0.40294
G1 X124.804 Y80.678 E0.02365
G1 X124.804 Y93.529 E0.40294
G1 X125.558 Y93.529 E0.02365
G1 X125.558 Y80.678 E0.40294
G1 X126.312 Y80.678 E0.02365
G1 X126.312 Y93.529 E0.40294
G1 X127.066 Y93.529 E0.02365
G1 X127.066 Y80.678 E0.40294
G1 X127.821 Y80.678 E0.02365
G1 X127.821 Y93.529 E0.40294
G1 X128.363 Y93.529 E0.01700
G1 X128.363 Y95.836 E0.07234
G1 X128.575 Y95.836 E0.00664
G1 X128.575 Y80.678 E0.47527
G1 X129.329 Y80.678 E0.02365
G1 X129.329 Y95.836 E0.47527
G1 X130.083 Y95.836 E0.02365
G1 X130.083 Y80.678 E0.47527
G1 X130.837 Y80.678 E0.02365
G1 X130.837 Y98.143 E0.54761
G1 X131.591 Y98.143 E0.02365
G1 X131.591 Y80.678 E0.54761
G1 X132.346 Y80.678 E0.02365
G1 X132.346 Y98.143 E0.54761
G1 X132.977 Y98.143 E0.01980
G1 X132.977 Y100.450 E0.07234
G1 X133.100 Y100.450 E0.00385
G1 X133.100 Y80.678 E0.61995
G1 X133.854 Y80.678 E0.02365
G1 X133.854 Y100.450 E0.61995
G1 X134.608 Y100.450 E0.02365
G1 X134.608 Y80.678 E0.61995
G1 X135.362 Y80.678 E0.02365
G1 X135.362 Y128.135 E1.48799
G1 X136.116 Y128.135 E0.02365
G1 X136.116 Y80.678 E1.48799
G1 X136.871 Y80.678 E0.02365
G1 X136.871 Y128.135 E1.48799
G1 X137.625 Y128.135 E0.02365
G1 X137.625 Y80.678 E1.48799
G1 X138.379 Y80.678 E0.02365
G1 X138.379 Y128.135 E1.48799
M73 Q1 S82
M73 P1 R81
G1 X139.133 Y128.135 E0.02365
G1 X139.133 Y80.678 E1.48799
G1 X139.887 Y80.678 E0.02365
G1 X139.887 Y85.649 E0.15586
G1 X140.641 Y85.649 E0.02365
G1 X140.641 Y80.678 E0.15586
G1 X141.395 Y80.678 E0.02365
G1 X141.395 Y85.649 E0.15586
G1 X142.150 Y85.649 E0.02365
G1 X142.150 Y80.678 E0.15586
G1 X142.904 Y80.678 E0.02365
G1 X142.904 Y85.819 E0.16118
G1 F8640
G1 X142.904 Y82.527 E-0.76000
G1 E-0.04000 F2100.00000
G1 Z0.800 F10800.000
G1 X139.887 Y90.844
G1 Z0.200
G1 E0.80000 F2100.00000
G1 F1200
G1 X139.887 Y118.986 E0.88239
G1 X140.641 Y118.986 E0.02365
G1 X140.641 Y91.014 E0.87707
G1 X141.395 Y91.014 E0.02365
G1 X141.395 Y118.986 E0.87707
G1 X142.150 Y118.986 E0.02365
G1 X142.150 Y91.014 E0.87707
G1 X142.904 Y91.014 E0.02365
G1 X142.904 Y118.986 E0.87707
G1 X143.658 Y118.986 E0.02365
G1 X143.658 Y91.014 E0.87707
G1 X144.175 Y91.014 E0.01620
G1 X144.351 Y90.837 E0.00782
G1 X144.351 Y87.599 E0.10152
G1 X144.412 Y87.599 E0.00191
G1 X144.412 Y123.521 E1.12631
G1 X145.166 Y123.521 E0.02365
G1 X145.166 Y87.599 E1.12631
G1 X145.920 Y87.599 E0.02365
G1 X145.920 Y123.521 E1.12631
G1 X146.675 Y123.521 E0.02365
G1 X146.675 Y87.599 E1.12631
G1 X147.429 Y87.599 E0.02365
G1 X147.429 Y123.691 E1.13163
G1 F8640
G1 X147.429 Y120.399 E-0.76000
G1 E-0.04000 F2100.00000
G1 Z0.800 F10800.000
G1 X142.904 Y128.305
G1 Z0.200
G1 E0.80000 F2100.00000
G1 F1200
G1 X142.904 Y124.351 E0.12397
G1 X142.150 Y124.351 E0.02365
G1 X142.150 Y128.135 E0.11865
G1 X141.395 Y128.135 E0.02365
G1 X141.395 Y124.351 E0.11865
G1 X140.641 Y124.351 E0.02365
G1 X140.641 Y128.135 E0.11865
G1 X139.887 Y128.135 E0.02365
G1 X139.887 Y124.181 E0.12397
G1 X134.608 Y128.305 F10800.000
G1 F1200
G1 X134.608 Y110.670 E0.55293
G1 X133.854 Y110.670 E0.02365
G1 X133.854 Y128.135 E0.54761
G1 X133.100 Y128.135 E0.02365
G1 X133.100 Y110.670 E0.54761
G1 X132.977 Y110.670 E0.00385
G1 X132.977 Y112.977 E0.07234
G1 X132.346 Y112.977 E0.01980
G1 X132.346 Y128.135 E0.47527
G1 X131.591 Y128.135 E0.02365
G1 X131.591 Y112.977 E0.47527
G1 X130.837 Y112.977 E0.02365
G1 X130.837 Y128.135 E0.47527
G1 X130.083 Y128.135 E0.02365
G1 X130.083 Y115.284 E0.40294
G1 X129.329 Y115.284 E0.02365
G1 X129.329 Y128.135 E0.40294
G1 X128.575 Y128.135 E0.02365
G1 X128.575 Y115.284 E0.40294
G1 X127.821 Y115.284 E0.02365
G1 X127.821 Y128.135 E0.40294
G1 X127.066 Y128.135 E0.02365
G1 X127.066 Y115.284 E0.40294
G1 X126.312 Y115.284 E0.02365
G1 X126.312 Y128.135 E0.40294
G1 X125.558 Y128.135 E0.02365
G1 X125.558 Y115.284 E0.40294
G1 X124.804 Y115.284 E0.02365
G1 X124.804 Y128.135 E0.40294
G1 X124.050 Y128.135 E0.02365
G1 X124.050 Y115.284 E0.40294
G1 X123.296 Y115.284 E0.02365
G1 X123.296 Y128.135 E0.40294
G1 X122.541 Y128.135 E0.02365
G1 X122.541 Y115.284 E0.40294
G1 X121.787 Y115.284 E0.02365
G1 X121.787 Y128.135 E0.40294
G1 X121.033 Y128.135 E0.02365
G1 X121.033 Y115.284 E0.40294
G1 X120.450 Y115.284 E0.01828
G1 X120.450 Y112.977 E0.07234
G1 X120.279 Y112.977 E0.00537
G1 X120.279 Y128.135 E0.47527
G1 X119.525 Y128.135 E0.02365
G1 X119.525 Y112.977 E0.47527
G1 X118.771 Y112.977 E0.02365
G1 X118.771 Y128.135 E0.47527
G1 X118.017 Y128.135 E0.02365
G1 X118.017 Y110.670 E0.54761
G1 X117.262 Y110.670 E0.02365
G1 X117.262 Y128.135 E0.54761
G1 X116.508 Y128.135 E0.02365
G1 X116.508 Y110.670 E0.54761
G1 X115.836 Y110.670 E0.02107
G1 X115.836 Y108.363 E0.07234
G1 X115.754 Y108.363 E0.00257
G1 X115.754 Y128.135 E0.61995
G1 X115.000 Y128.135 E0.02365
G1 X115.000 Y108.363 E0.61995
G1 X114.246 Y108.363 E0.02365
G1 X114.246 Y128.305 E0.62527
G1 X110.475 Y128.305 F10800.000
G1 F1200
G1 X110.475 Y124.351 E0.12397
G1 X109.721 Y124.351 E0.02365
G1 X109.721 Y128.135 E0.11865
G1 X108.967 Y128.135 E0.02365
G1 X108.967 Y124.351 E0.11865
G1 X108.212 Y124.351 E0.02365
G1 X108.212 Y128.305 E0.12397
G1 F8640
G1 X108.212 Y125.014 E-0.76000
G1 E-0.04000 F2100.00000
G1 Z0.800 F10800.000
G1 X110.475 Y119.156
G1 Z0.200
G1 E0.80000 F2100.00000
G1 F1200
G1 X110.475 Y91.014 E0.88239
G1 X109.721 Y91.014 E0.02365
G1 X109.721 Y118.986 E0.87707
G1 X108.967 Y118.986 E0.02365
G1 X108.967 Y91.014 E0.87707
G1 X108.212 Y91.014 E0.02365
G1 X108.212 Y118.986 E0.87707
G1 X107.458 Y118.986 E0.02365
G1 X107.458 Y91.014 E0.87707
G1 X106.704 Y91.014 E0.02365
G1 X106.704 Y118.986 E0.87707
G1 X105.950 Y118.986 E0.02365
G1 X105.950 Y91.014 E0.87707
G1 X105.825 Y91.014 E0.00391
G1 X105.649 Y90.837 E0.00782
G1 X105.649 Y87.599 E0.10152
G1 X105.196 Y87.599 E0.01421
G1 X105.196 Y123.521 E1.12631
M73 Q2 S81
M73 P2 R80
G1 X104.442 Y123.521 E0.02365
G1 X104.442 Y87.599 E1.12631
G1 X103.688 Y87.599 E0.02365
G1 X103.688 Y123.521 E1.12631
G1 X102.933 Y123.521 E0.02365
G1 X102.933 Y87.599 E1.12631
G1 X102.179 Y87.599 E0.02365
G1 X102.179 Y123.521 E1.12631
G1 X101.425 Y123.521 E0.02365
G1 X101.425 Y87.430 E1.13163
G1 F8640
G1 X101.425 Y90.721 E-0.76000
G1 E-0.04000 F2100.00000
G1 Z0.800 F10800.000
G1 X107.291 Y120.629
G1 Z0.200
G1 E0.80000 F2100.00000
G1 F1200
G1 X109.371 Y120.629 E0.06522
G1 X109.371 Y122.709 E0.06522
G1 X107.291 Y122.709 E0.06522
G1 X107.291 Y120.689 E0.06334
G1 X106.914 Y120.252 F10800.000
G1 F1200
G1 X109.748 Y120.252 E0.08886
G1 X109.748 Y123.086 E0.08886
G1 X106.914 Y123.086 E0.08886
G1 X106.914 Y120.312 E0.08698
G1 X106.537 Y119.875 F10800.000
G1 F1200
G1 X110.125 Y119.875 E0.11251
G1 X110.125 Y123.463 E0.11251
G1 X106.537 Y123.463 E0.11251
G1 X106.537 Y119.935 E0.11063
G1 X106.160 Y119.498 F10800.000
G1 F1200
G1 X110.503 Y119.498 E0.13616
G1 X110.503 Y123.840 E0.13616
G1 X106.160 Y123.840 E0.13616
G1 X106.160 Y119.558 E0.13427
G1 X106.546 Y119.601 F10800.000
G1 F8640
G1 X109.451 Y119.512 E-0.76000
G1 E-0.04000 F2100.00000
G1 Z0.800 F10800.000
G1 X107.404 Y121.823
G1 Z0.200
G1 E0.80000 F2100.00000
G1 F1200
G1 X108.008 Y122.426 E0.02711
G1 X108.548 Y122.426 E0.01717
G1 X107.574 Y121.452 E0.04377
G1 X107.574 Y120.912 E0.01717
G1 X109.088 Y122.426 E0.06805
G1 X109.088 Y121.886 E0.01717
G1 X108.114 Y120.912 E0.04377
G1 X108.655 Y120.912 E0.01717
G1 X109.258 Y121.515 E0.02711
G1 F8640
G1 X108.655 Y120.912 E-0.19702
G1 X108.114 Y120.912 E-0.12479
G1 X109.088 Y121.886 E-0.31808
G1 X109.088 Y122.406 E-0.12011
G1 E-0.04000 F2100.00000
G1 Z0.800 F10800.000
G1 X109.258 Y89.371
G1 Z0.200
G1 E0.80000 F2100.00000
G1 F1200
G1 X107.291 Y89.371 E0.06167
G1 X107.291 Y87.291 E0.06522
G1 X109.371 Y87.291 E0.06522
G1 X109.371 Y89.371 E0.06522
G1 X109.318 Y89.371 E0.00166
G1 X109.748 Y89.748 F10800.000
G1 F1200
G1 X106.914 Y89.748 E0.08886
G1 X106.914 Y86.914 E0.08886
G1 X109.748 Y86.914 E0.08886
G1 X109.748 Y89.688 E0.08698
G1 X110.125 Y90.125 F10800.000
G1 F1200
G1 X106.537 Y90.125 E0.11251
G1 X106.537 Y86.537 E0.11251
G1 X110.125 Y86.537 E0.11251
G1 X110.125 Y90.065 E0.11063
G1 X110.503 Y90.503 F10800.000
G1 F1200
G1 X106.160 Y90.503 E0.13616
G1 X106.160 Y86.160 E0.13616
G1 X110.503 Y86.160 E0.13616
G1 X110.503 Y90.443 E0.13427
G1 X110.116 Y90.399 F10800.000
G1 F8640
G1 X107.211 Y90.488 E-0.76000
G1 E-0.04000 F2100.00000
G1 Z0.800 F10800.000
G1 X109.258 Y88.177
G1 Z0.200
G1 E0.80000 F2100.00000
G1 F1200
G1 X108.655 Y87.574 E0.02711
G1 X108.114 Y87.574 E0.01717
G1 X109.088 Y88.548 E0.04377
G1 X109.088 Y89.088 E0.01717
G1 X107.574 Y87.574 E0.06805
G1 X107.574 Y88.115 E0.01717
G1 X108.548 Y89.088 E0.04377
G1 X108.008 Y89.088 E0.01717
G1 X107.404 Y88.485 E0.02711
G1 F8640
G1 X108.008 Y89.088 E-0.19697
G1 X108.548 Y89.088 E-0.12479
G1 X107.574 Y88.115 E-0.31804
G1 X107.574 Y87.594 E-0.12020
G1 E-0.04000 F2100.00000
G1 Z0.800 F10800.000
G1 X140.629 Y89.371
G1 Z0.200
G1 E0.80000 F2100.00000
G1 F1200
G1 X140.629 Y87.291 E0.06522
G1 X142.709 Y87.291 E0.06522
G1 X142.709 Y89.371 E0.06522
G1 X140.689 Y89.371 E0.06334
G1 X140.252 Y89.748 F10800.000
G1 F1200
G1 X140.252 Y86.914 E0.08886
G1 X143.086 Y86.914 E0.08886
G1 X143.086 Y89.748 E0.08886
G1 X140.312 Y89.748 E0.08698
G1 X139.875 Y90.125 F10800.000
G1 F1200
G1 X139.875 Y86.537 E0.11251
G1 X143.463 Y86.537 E0.11251
G1 X143.463 Y90.125 E0.11251
G1 X139.935 Y90.125 E0.11063
G1 X139.498 Y90.503 F10800.000
G1 F1200
G1 X139.498 Y86.160 E0.13616
G1 X143.840 Y86.160 E0.13616
G1 X143.840 Y90.503 E0.13616
G1 X139.558 Y90.503 E0.13427
G1 X139.601 Y90.116 F10800.000
G1 F8640
G1 X139.512 Y87.211 E-0.76000
G1 E-0.04000 F2100.00000
G1 Z0.800 F10800.000
G1 X140.742 Y88.485
G1 Z0.200
G1 E0.80000 F2100.00000
G1 F1200
G1 X141.345 Y89.088 E0.02711
G1 X141.885 Y89.088 E0.01717
G1 X140.912 Y88.115 E0.04377
G1 X140.912 Y87.574 E0.01717
G1 X142.426 Y89.088 E0.06805
G1 X142.426 Y88.548 E0.01717
G1 X141.452 Y87.574 E0.04377
G1 X141.992 Y87.574 E0.01717
G1 X142.596 Y88.177 E0.02711
G1 F8640
G1 X141.992 Y87.574 E-0.19702
G1 X141.452 Y87.574 E-0.12479
G1 X142.426 Y88.548 E-0.31808
G1 X142.426 Y89.068 E-0.12011
G1 E-0.04000 F2100.00000
G1 Z0.800 F10800.000
G1 X142.596 Y120.629
G1 Z0.200
G1 E0.80000 F2100.00000
G1 F1200
G1 X142.709 Y120.629 E0.00355
G1 X142.709 Y122.709 E0.06522
G1 X140.629 Y122.709 E0.06522
G1 X140.629 Y120.629 E0.06522
G1 X142.536 Y120.629 E0.05979
G1 X143.086 Y120.252 F10800.000
G1 F1200
G1 X143.086 Y123.086 E0.08886
G1 X140.252 Y123.086 E0.08886
G1 X140.252 Y120.252 E0.08886
G1 X143.026 Y120.252 E0.08698
G1 X143.463 Y119.875 F10800.000
G1 F1200
G1 X143.463 Y123.463 E0.11251
G1 X139.875 Y123.463 E0.11251
G1 X139.875 Y119.875 E0.11251
G1 X143.403 Y119.875 E0.11063
G1 X143.840 Y119.498 F10800.000
G1 F1200
G1 X143.840 Y123.840 E0.13616
G1 X139.498 Y123.840 E0.13616
G1 X139.498 Y119.498 E0.13616
G1 X143.780 Y119.498 E0.13427
G1 X143.736 Y119.884 F10800.000
G1 F8640
G1 X143.825 Y122.789 E-0.76000
G1 E-0.04000 F2100.00000
G1 Z0.800 F10800.000
G1 X142.596 Y121.515
G1 Z0.200
G1 E0.80000 F2100.00000
G1 F1200
G1 X141.992 Y120.912 E0.02711
G1 X141.452 Y120.912 E0.01717
G1 X142.426 Y121.886 E0.04377
G1 X142.426 Y122.426 E0.01717
G1 X140.912 Y120.912 E0.06805
G1 X140.912 Y121.452 E0.01717
G1 X141.885 Y122.426 E0.04377
G1 X141.345 Y122.426 E0.01717
G1 X140.742 Y121.823 E0.02711
M106 S255
;BEFORE_LAYER_CHANGE
G92 E0.0
;0.4


G1 F8640
G1 X141.345 Y122.426 E-0.19697
G1 X141.885 Y122.426 E-0.12479
G1 X140.912 Y121.452 E-0.31804
G1 X140.912 Y120.931 E-0.12020
G1 E-0.04000 F2100.00000
G1 Z0.800 F10800.000
;AFTER_LAYER_CHANGE
;0.4
G1 X149.478 Y124.460
G1 Z0.400
G1 E0.80000 F2100.00000
G1 F1387
G1 X149.091 Y125.114 E0.02383
G1 X144.151 Y130.103 E0.22014
G1 X143.570 Y130.390 E0.02032
G1 X142.926 Y130.493 E0.02044
G1 X107.954 Y130.478 E1.09654
G1 X107.443 Y130.354 E0.01646
G1 X106.975 Y130.110 E0.01658
G1 X100.137 Y125.291 E0.26227
G1 X99.626 Y124.768 E0.02293
G1 X99.339 Y124.183 E0.02044
G1 X99.237 Y123.543 E0.02032
G1 X99.273 Y87.033 E1.14473
G1 X99.465 Y86.456 E0.01908
G1 X99.811 Y85.951 E0.01919
G1 X106.684 Y78.942 E0.30778
G1 X107.388 Y78.481 E0.02642
G1 X108.216 Y78.320 E0.02642
G1 X142.969 Y78.490 E1.08969
G1 X143.474 Y78.565 E0.01601
G1 X143.945 Y78.753 E0.01589
G1 X144.363 Y79.047 E0.01601
G1 X144.701 Y79.429 E0.01601
G1 X149.290 Y86.448 E0.26293
G1 X149.498 Y86.886 E0.01521
G1 X149.604 Y87.356 E0.01510
