; generated by Slic3r Prusa Edition 1.41.2+ on 2019-02-17 at 22:21:17

; 

; external perimeters extrusion width = 0.45mm
; perimeters extrusion width = 0.45mm
; infill extrusion width = 0.45mm
; solid infill extrusion width = 0.45mm
; top infill extrusion width = 0.40mm
; support material extrusion width = 0.35mm
; first layer extrusion width = 0.42mm

M73 P0 R86
M73 Q0 S87
M201 X1000 Y1000 Z1000 E5000 ; sets maximum accelerations, mm/sec^2
M203 X200 Y200 Z12 E120 ; sets maximum feedrates, mm/sec
M204 P1250 R1250 T1250 ; sets acceleration (P, T) and retract acceleration (R), mm/sec^2
M205 X8.00 Y8.00 Z0.40 E1.50 ; sets the jerk limits, mm/sec
M205 S0 T0 ; sets the minimum extruding and travel feed rate, mm/sec
M107
M115 U3.5.1 ; tell printer latest fw version
M83  ; extruder relative mode
M104 S165 ; set extruder temp minus 50 to avoid stringing during calibration
M140 S60 ; set bed temp
M190 S60 ; wait for bed temp
M109 S165 ; wait for extruder temp
G28 W ; home all without mesh bed level
G80 N7 ; mesh bed leveling
G1 Y-3.0 F1000.0 ; go outside print area
M104 S215 ; set extruder temp
M109 S215 ; wait for extruder temp
G92 E0.0
G1 X60.0 E9.0  F1000.0 ; intro line
M73 Q0 S87
M73 P0 R86
G1 X100.0 E12.5  F1000.0 ; intro line
G92 E0.0
M221 S95
M900 K30; Filament gcode
G21 ; set units to millimeters
G90 ; use absolute coordinates
M83 ; use relative distances for extrusion
;BEFORE_LAYER_CHANGE
G92 E0.0
;0.2


G1 E-0.80000 F2100.00000
G1 Z0.600 F10800.000
;AFTER_LAYER_CHANGE
;0.2
G1 X106.643 Y71.018
G1 Z0.200
G1 E0.80000 F2100.00000
M204 S1000
G1 F1200
G1 X107.926 Y70.841 E0.04061
G1 X142.669 Y70.671 E1.08936
G1 X143.458 Y70.733 E0.02479
G1 X144.227 Y70.916 E0.02479
G1 X144.958 Y71.217 E0.02479
G1 X145.635 Y71.626 E0.02479
G1 X152.627 Y77.816 E0.29280
G1 X153.066 Y78.391 E0.02270
G1 X153.420 Y79.023 E0.02270
G1 X156.376 Y85.363 E0.21933
G1 X156.736 Y86.567 E0.03940
G1 X156.807 Y87.405 E0.02636
G1 X156.789 Y123.778 E1.14045
G1 X156.629 Y124.688 E0.02897
G1 X156.307 Y125.554 E0.02897
G1 X152.958 Y131.767 E0.22131
G1 X152.359 Y132.464 E0.02880
G1 X151.646 Y133.042 E0.02880
G1 X145.205 Y136.952 E0.23624
G1 X144.031 Y137.444 E0.03992
G1 X142.777 Y137.629 E0.03974
G1 X107.446 Y137.603 E1.10777
G1 X106.545 Y137.426 E0.02880
G1 X105.686 Y137.087 E0.02897
G1 X98.232 Y132.957 E0.26716
G1 X97.289 Y132.086 E0.04026
G1 X92.537 Y126.167 E0.23802
G1 X91.918 Y125.029 E0.04061
G1 X91.607 Y123.777 E0.04044
G1 X91.573 Y87.127 E1.14915
G1 X91.647 Y86.373 E0.02375
G1 X91.832 Y85.638 E0.02375
G1 X92.123 Y84.939 E0.02375
G1 X92.519 Y84.287 E0.02392
G1 X97.136 Y78.105 E0.24193
G1 X97.703 Y77.476 E0.02653
G1 X104.992 Y71.806 E0.28955
G1 X105.782 Y71.338 E0.02880
G1 X106.587 Y71.039 E0.02692
G1 F8640
G1 X107.926 Y70.841 E-0.31262
G1 X109.864 Y70.832 E-0.44738
G1 E-0.04000 F2100.00000
G1 Z0.800 F10800.000
G1 X147.559 Y76.496
G1 Z0.200
G1 E0.80000 F2100.00000
G1 F1200
G1 X149.692 Y76.525 E0.06689
G1 X150.487 Y76.744 E0.02587
G1 X151.268 Y77.123 E0.02722
G1 X152.374 Y78.076 E0.04578
G1 X153.085 Y79.118 E0.03954
G1 X153.488 Y80.404 E0.04228
G1 X153.521 Y82.836 E0.07624
G1 X154.542 Y83.386 E0.03636
G1 X155.459 Y84.229 E0.03908
G1 X156.153 Y85.283 E0.03956
G1 X156.555 Y86.523 E0.04088
G1 X156.618 Y123.799 E1.16876
G1 X156.355 Y125.011 E0.03888
G1 X155.812 Y126.041 E0.03652
G1 X154.688 Y127.190 E0.05039
G1 X153.518 Y127.837 E0.04192
G1 X153.494 Y129.540 E0.05339
G1 X153.242 Y130.524 E0.03186
G1 X152.788 Y131.408 E0.03115
G1 X151.523 Y132.704 E0.05678
G1 X150.607 Y133.206 E0.03274
G1 X149.631 Y133.483 E0.03180
G1 X147.499 Y133.508 E0.06685
G1 X147.077 Y134.713 E0.04004
G1 X146.508 Y135.550 E0.03174
G1 X145.694 Y136.335 E0.03547
G1 X144.431 Y137.020 E0.04504
G1 X143.486 Y137.233 E0.03039
G1 X142.521 Y137.245 E0.03024
G1 X142.259 Y137.273 E0.00827
G1 X139.333 Y137.272 E0.09175
G1 X138.728 Y137.247 E0.01898
G1 X138.488 Y137.272 E0.00755
G1 X137.070 Y137.272 E0.04446
G1 X136.465 Y137.247 E0.01898
G1 X136.226 Y137.272 E0.00755
G1 X113.691 Y137.272 E0.70655
G1 X113.086 Y137.247 E0.01898
G1 X112.847 Y137.272 E0.00755
G1 X108.382 Y137.272 E0.13999
G1 X108.121 Y137.245 E0.00823
G1 X107.284 Y137.248 E0.02624
G1 X106.146 Y136.995 E0.03655
G1 X105.119 Y136.462 E0.03630
G1 X103.904 Y135.261 E0.05357
G1 X103.312 Y134.129 E0.04003
G1 X103.161 Y133.524 E0.01955
G1 X100.571 Y133.508 E0.08119
G1 X99.546 Y133.268 E0.03303
G1 X98.604 Y132.795 E0.03303
G1 X97.333 Y131.572 E0.05531
G1 X96.825 Y130.682 E0.03212
G1 X96.509 Y129.575 E0.03610
G1 X96.493 Y128.046 E0.04792
G1 X95.645 Y128.000 E0.02661
G1 X94.367 Y127.540 E0.04259
G1 X93.486 Y126.933 E0.03356
G1 X92.589 Y125.945 E0.04183
G1 X92.074 Y124.961 E0.03482
G1 X91.792 Y123.867 E0.03542
G1 X91.760 Y86.796 E1.16235
G1 X91.985 Y85.699 E0.03510
G1 X92.495 Y84.654 E0.03646
G1 X93.748 Y83.367 E0.05632
G1 X94.835 Y82.787 E0.03864
G1 X95.758 Y82.559 E0.02980
G1 X96.489 Y82.543 E0.02294
G1 X96.504 Y80.461 E0.06527
G1 X96.747 Y79.510 E0.03080
G1 X97.328 Y78.434 E0.03832
G1 X98.100 Y77.607 E0.03550
G1 X98.777 Y77.090 E0.02669
G1 X100.581 Y76.484 E0.05966
G1 X103.084 Y76.473 E0.07848
G1 X103.103 Y75.261 E0.03800
G1 X103.377 Y74.179 E0.03501
G1 X103.932 Y73.126 E0.03731
G1 X105.129 Y71.921 E0.05326
G1 X106.846 Y71.130 E0.05927
G1 X107.643 Y71.029 E0.02518
G1 X142.259 Y71.029 E1.08537
G1 X142.529 Y71.058 E0.00851
G1 X143.618 Y71.083 E0.03416
G1 X144.717 Y71.395 E0.03581
G1 X145.833 Y72.083 E0.04111
G1 X146.683 Y72.966 E0.03842
G1 X147.241 Y73.943 E0.03529
G1 X147.541 Y75.074 E0.03667
G1 X147.558 Y76.436 E0.04270
G1 X147.186 Y76.868 F10800.000
G1 F1200
G1 X149.661 Y76.901 E0.07761
G1 X150.368 Y77.102 E0.02305
G1 X151.041 Y77.425 E0.02340
G1 X152.109 Y78.345 E0.04418
G1 X152.756 Y79.304 E0.03629
G1 X153.119 Y80.488 E0.03883
G1 X153.146 Y83.107 E0.08212
G1 X153.353 Y83.174 E0.00680
G1 X154.306 Y83.681 E0.03386
G1 X155.159 Y84.458 E0.03618
G1 X155.803 Y85.424 E0.03640
G1 X156.187 Y86.611 E0.03912
G1 X156.241 Y123.779 E1.16538
G1 X156.009 Y124.860 E0.03466
G1 X155.523 Y125.798 E0.03312
G1 X154.439 Y126.906 E0.04860
G1 X153.457 Y127.440 E0.03505
G1 X153.144 Y127.532 E0.01021
G1 X153.122 Y129.470 E0.06079
G1 X152.896 Y130.372 E0.02914
G1 X152.465 Y131.210 E0.02955
G1 X151.274 Y132.419 E0.05322
G1 X150.482 Y132.850 E0.02827
G1 X149.601 Y133.106 E0.02878
G1 X147.163 Y133.134 E0.07642
G1 X147.134 Y133.408 E0.00864
G1 X146.750 Y134.523 E0.03696
G1 X146.230 Y135.294 E0.02916
G1 X145.489 Y136.018 E0.03247
G1 X144.322 Y136.658 E0.04174
G1 X143.423 Y136.861 E0.02890
G1 X142.499 Y136.868 E0.02897
G1 X142.248 Y136.895 E0.00792
G1 X139.337 Y136.895 E0.09129
G1 X138.715 Y136.869 E0.01952
G1 X138.477 Y136.895 E0.00748
G1 X137.074 Y136.895 E0.04400
G1 X136.452 Y136.869 E0.01952
G1 X136.215 Y136.895 E0.00748
G1 X113.695 Y136.895 E0.70609
G1 X113.073 Y136.869 E0.01952
G1 X112.836 Y136.895 E0.00748
G1 X108.393 Y136.895 E0.13931
G1 X108.142 Y136.867 E0.00793
G1 X107.303 Y136.871 E0.02628
G1 X106.295 Y136.648 E0.03236
G1 X105.361 Y136.172 E0.03289
G1 X104.224 Y135.059 E0.04988
G1 X103.658 Y133.976 E0.03832
G1 X103.461 Y133.148 E0.02668
G1 X100.636 Y133.136 E0.08855
G1 X99.654 Y132.906 E0.03163
G1 X98.801 Y132.472 E0.03000
G1 X97.616 Y131.321 E0.05180
G1 X97.165 Y130.517 E0.02891
G1 X96.886 Y129.545 E0.03170
G1 X96.866 Y127.683 E0.05840
G1 X95.745 Y127.635 E0.03518
G1 X94.518 Y127.193 E0.04088
G1 X93.749 Y126.663 E0.02930
G1 X92.912 Y125.749 E0.03887
G1 X92.419 Y124.806 E0.03334
G1 X92.163 Y123.798 E0.03263
G1 X92.137 Y86.815 E1.15956
G1 X92.349 Y85.800 E0.03251
G1 X92.820 Y84.848 E0.03330
G1 X93.952 Y83.685 E0.05091
G1 X94.950 Y83.148 E0.03552
G1 X95.827 Y82.930 E0.02834
G1 X96.864 Y82.917 E0.03252
G1 X96.881 Y80.488 E0.07615
G1 X97.106 Y79.628 E0.02787
G1 X97.646 Y78.637 E0.03541
G1 X98.365 Y77.876 E0.03282
G1 X98.928 Y77.437 E0.02239
G1 X100.671 Y76.851 E0.05766
G1 X103.457 Y76.851 E0.08735
G1 X103.475 Y75.332 E0.04765
G1 X103.737 Y74.294 E0.03357
G1 X104.252 Y73.328 E0.03432
G1 X105.319 Y72.248 E0.04760
G1 X106.923 Y71.501 E0.05550
G1 X107.655 Y71.407 E0.02312
G1 X142.248 Y71.407 E1.08465
G1 X142.505 Y71.435 E0.00810
G1 X143.539 Y71.453 E0.03243
G1 X144.589 Y71.750 E0.03420
G1 X145.578 Y72.362 E0.03646
G1 X146.394 Y73.210 E0.03692
G1 X146.901 Y74.107 E0.03230
G1 X147.164 Y75.102 E0.03226
G1 X147.185 Y76.808 E0.05350
G1 X146.812 Y77.240 F10800.000
G1 F1200
G1 X149.629 Y77.278 E0.08836
G1 X150.248 Y77.460 E0.02021
G1 X150.815 Y77.728 E0.01967
G1 X151.843 Y78.613 E0.04254
G1 X152.426 Y79.489 E0.03300
G1 X152.750 Y80.570 E0.03538
G1 X152.771 Y83.403 E0.08882
G1 X153.198 Y83.519 E0.01388
G1 X154.108 Y84.003 E0.03231
G1 X154.859 Y84.688 E0.03189
G1 X155.452 Y85.566 E0.03322
G1 X155.819 Y86.699 E0.03735
G1 X155.864 Y123.760 E1.16202
G1 X155.661 Y124.712 E0.03052
G1 X155.232 Y125.555 E0.02966
G1 X154.190 Y126.621 E0.04674
G1 X153.301 Y127.096 E0.03160
G1 X152.769 Y127.238 E0.01725
G1 X152.751 Y129.401 E0.06782
G1 X152.536 Y130.258 E0.02772
G1 X152.145 Y131.010 E0.02657
G1 X151.027 Y132.133 E0.04967
G1 X150.356 Y132.494 E0.02392
G1 X149.569 Y132.729 E0.02573
G1 X146.796 Y132.762 E0.08695
G1 X146.767 Y133.317 E0.01745
G1 X146.422 Y134.335 E0.03368
G1 X145.951 Y135.040 E0.02660
G1 X145.283 Y135.701 E0.02947
G1 X144.212 Y136.296 E0.03839
G1 X143.361 Y136.488 E0.02737
G1 X142.477 Y136.491 E0.02772
G1 X142.237 Y136.518 E0.00757
G1 X139.341 Y136.518 E0.09081
G1 X138.700 Y136.491 E0.02009
G1 X138.466 Y136.518 E0.00740
G1 X137.078 Y136.518 E0.04352
G1 X136.438 Y136.491 E0.02009
G1 X136.204 Y136.518 E0.00740
G1 X113.699 Y136.518 E0.70561
G1 X113.059 Y136.491 E0.02009
G1 X112.825 Y136.518 E0.00740
G1 X108.404 Y136.518 E0.13860
G1 X108.162 Y136.490 E0.00766
G1 X107.361 Y136.498 E0.02510
G1 X106.442 Y136.300 E0.02949
G1 X105.601 Y135.880 E0.02946
G1 X104.544 Y134.857 E0.04613
G1 X104.004 Y133.823 E0.03657
G1 X103.849 Y133.148 E0.02173
G1 X103.835 Y132.772 E0.01180
G1 X100.699 Y132.763 E0.09833
G1 X99.804 Y132.559 E0.02880
G1 X98.998 Y132.150 E0.02834
G1 X97.901 Y131.072 E0.04821
G1 X97.505 Y130.354 E0.02571
G1 X97.263 Y129.515 E0.02737
G1 X97.239 Y127.316 E0.06896
G1 X95.844 Y127.270 E0.04377
G1 X94.670 Y126.847 E0.03913
G1 X93.982 Y126.366 E0.02632
G1 X93.233 Y125.550 E0.03472
G1 X92.779 Y124.691 E0.03047
G1 X92.534 Y123.728 E0.03118
G1 X92.515 Y86.835 E1.15674
G1 X92.712 Y85.903 E0.02988
G1 X93.143 Y85.045 E0.03011
G1 X94.200 Y83.971 E0.04724
G1 X95.104 Y83.492 E0.03207
G1 X95.893 Y83.302 E0.02545
G1 X96.839 Y83.295 E0.02966
G1 X97.239 Y83.247 E0.01262
G1 X97.257 Y80.514 E0.08567
G1 X97.448 Y79.787 E0.02358
G1 X97.938 Y78.877 E0.03238
G1 X98.629 Y78.146 E0.03155
G1 X99.134 Y77.755 E0.02002
G1 X100.702 Y77.228 E0.05187
G1 X103.832 Y77.228 E0.09815
G1 X103.846 Y75.400 E0.05733
G1 X104.081 Y74.450 E0.03068
G1 X104.572 Y73.529 E0.03273
G1 X105.510 Y72.574 E0.04198
G1 X107.002 Y71.871 E0.05171
G1 X107.667 Y71.784 E0.02104
G1 X142.237 Y71.784 E1.08390
G1 X142.481 Y71.812 E0.00772
G1 X143.461 Y71.823 E0.03072
G1 X144.459 Y72.106 E0.03254
G1 X145.356 Y72.668 E0.03320
G1 X146.105 Y73.452 E0.03397
G1 X146.559 Y74.268 E0.02930
G1 X146.793 Y75.173 E0.02929
G1 X146.811 Y77.180 E0.06292
G1 X146.436 Y77.613 F10800.000
G1 F1200
G1 X149.549 Y77.647 E0.09762
G1 X150.100 Y77.807 E0.01799
G1 X150.630 Y78.057 E0.01836
G1 X151.575 Y78.880 E0.03929
G1 X152.095 Y79.672 E0.02970
G1 X152.381 Y80.649 E0.03194
G1 X152.395 Y83.699 E0.09561
G1 X153.042 Y83.863 E0.02096
G1 X153.909 Y84.324 E0.03077
G1 X154.588 Y84.950 E0.02895
G1 X155.102 Y85.708 E0.02871
G1 X155.451 Y86.787 E0.03558
G1 X155.487 Y123.741 E1.15865
G1 X155.313 Y124.567 E0.02646
G1 X154.940 Y125.315 E0.02622
G1 X153.986 Y126.303 E0.04306
G1 X153.145 Y126.752 E0.02989
G1 X152.394 Y126.941 E0.02428
G1 X152.380 Y129.333 E0.07500
G1 X152.191 Y130.104 E0.02490
G1 X151.824 Y130.809 E0.02491
G1 X150.782 Y131.845 E0.04606
G1 X150.227 Y132.139 E0.01969
G1 X149.537 Y132.352 E0.02265
G1 X146.428 Y132.389 E0.09748
G1 X146.400 Y133.227 E0.02628
G1 X146.094 Y134.148 E0.03045
G1 X145.671 Y134.786 E0.02399
G1 X145.036 Y135.415 E0.02804
G1 X144.103 Y135.934 E0.03346
G1 X143.299 Y136.115 E0.02584
G1 X142.454 Y136.113 E0.02648
G1 X142.225 Y136.141 E0.00725
G1 X139.345 Y136.141 E0.09031
G1 X138.685 Y136.113 E0.02070
G1 X138.454 Y136.141 E0.00729
G1 X137.082 Y136.141 E0.04301
G1 X136.422 Y136.113 E0.02070
G1 X136.192 Y136.141 E0.00729
G1 X113.703 Y136.141 E0.70511
G1 X113.044 Y136.113 E0.02070
G1 X112.813 Y136.141 E0.00729
G1 X108.416 Y136.141 E0.13785
G1 X108.183 Y136.113 E0.00736
G1 X107.379 Y136.121 E0.02521
G1 X106.547 Y135.937 E0.02672
G1 X105.799 Y135.557 E0.02632
G1 X104.829 Y134.609 E0.04251
G1 X104.366 Y133.716 E0.03155
G1 X104.221 Y133.085 E0.02032
G1 X104.210 Y132.395 E0.02162
G1 X100.760 Y132.391 E0.10816
G1 X99.953 Y132.212 E0.02593
G1 X99.196 Y131.827 E0.02663
G1 X98.187 Y130.825 E0.04459
G1 X97.861 Y130.227 E0.02134
G1 X97.639 Y129.484 E0.02430
G1 X97.613 Y126.947 E0.07955
G1 X95.943 Y126.905 E0.05238
G1 X94.823 Y126.501 E0.03732
G1 X94.217 Y126.070 E0.02330
G1 X93.555 Y125.352 E0.03063
G1 X93.123 Y124.536 E0.02896
G1 X92.906 Y123.660 E0.02831
G1 X92.892 Y86.856 E1.15397
M73 Q1 S86
G1 X93.075 Y86.007 E0.02721
G1 X93.465 Y85.243 E0.02690
G1 X94.445 Y84.259 E0.04357
G1 X95.255 Y83.838 E0.02861
G1 X95.957 Y83.674 E0.02259
M73 P1 R85
G1 X96.862 Y83.672 E0.02837
G1 X97.109 Y83.642 E0.00781
G1 X97.613 Y83.646 E0.01580
G1 X97.634 Y80.542 E0.09732
G1 X97.806 Y79.907 E0.02064
G1 X98.229 Y79.118 E0.02806
G1 X98.892 Y78.416 E0.03028
G1 X99.338 Y78.073 E0.01762
G1 X100.733 Y77.605 E0.04611
G1 X104.208 Y77.605 E0.10897
G1 X104.218 Y75.466 E0.06708
G1 X104.425 Y74.606 E0.02774
G1 X104.892 Y73.730 E0.03113
G1 X105.704 Y72.900 E0.03640
G1 X107.082 Y72.240 E0.04790
G1 X107.680 Y72.161 E0.01892
G1 X142.225 Y72.161 E1.08313
G1 X142.456 Y72.189 E0.00730
G1 X143.431 Y72.199 E0.03057
G1 X144.327 Y72.460 E0.02927
G1 X145.133 Y72.973 E0.02996
G1 X145.813 Y73.693 E0.03104
G1 X146.217 Y74.428 E0.02629
G1 X146.422 Y75.242 E0.02633
G1 X146.436 Y77.553 E0.07246
G1 X146.060 Y77.987 F10800.000
G1 F1200
G1 X149.471 Y78.017 E0.10695
G1 X149.954 Y78.155 E0.01574
G1 X150.444 Y78.387 E0.01701
G1 X151.306 Y79.145 E0.03598
G1 X151.763 Y79.852 E0.02639
G1 X152.011 Y80.726 E0.02851
G1 X152.018 Y83.997 E0.10254
G1 X152.887 Y84.208 E0.02805
G1 X153.710 Y84.645 E0.02920
G1 X154.315 Y85.211 E0.02599
G1 X154.752 Y85.850 E0.02426
G1 X155.084 Y86.875 E0.03379
G1 X155.110 Y123.722 E1.15529
G1 X154.963 Y124.424 E0.02250
G1 X154.646 Y125.077 E0.02277
G1 X153.781 Y125.985 E0.03931
G1 X152.989 Y126.408 E0.02815
G1 X152.432 Y126.543 E0.01797
G1 X152.018 Y126.552 E0.01299
G1 X152.008 Y129.265 E0.08507
G1 X151.830 Y129.991 E0.02344
G1 X151.504 Y130.607 E0.02184
G1 X150.579 Y131.526 E0.04088
G1 X150.098 Y131.784 E0.01713
G1 X149.452 Y131.984 E0.02120
G1 X146.057 Y132.015 E0.10645
G1 X146.032 Y133.138 E0.03523
G1 X145.764 Y133.964 E0.02722
G1 X145.392 Y134.532 E0.02131
G1 X144.789 Y135.129 E0.02660
G1 X143.994 Y135.572 E0.02853
G1 X143.238 Y135.743 E0.02429
G1 X142.432 Y135.736 E0.02528
G1 X142.212 Y135.764 E0.00694
G1 X139.361 Y135.764 E0.08939
G1 X139.170 Y135.743 E0.00602
G1 X138.660 Y135.736 E0.01599
G1 X138.441 Y135.764 E0.00692
G1 X137.099 Y135.764 E0.04210
G1 X136.908 Y135.743 E0.00602
G1 X136.398 Y135.736 E0.01599
G1 X136.179 Y135.764 E0.00692
G1 X113.720 Y135.764 E0.70419
G1 X113.529 Y135.743 E0.00602
G1 X113.019 Y135.736 E0.01599
G1 X112.800 Y135.764 E0.00692
G1 X108.429 Y135.764 E0.13705
G1 X108.206 Y135.735 E0.00704
G1 X107.397 Y135.743 E0.02538
G1 X106.696 Y135.590 E0.02248
G1 X105.996 Y135.235 E0.02462
G1 X105.116 Y134.363 E0.03883
G1 X104.728 Y133.609 E0.02659
G1 X104.593 Y133.021 E0.01892
G1 X104.585 Y132.018 E0.03146
G1 X100.819 Y132.018 E0.11809
G1 X100.101 Y131.864 E0.02301
G1 X99.394 Y131.505 E0.02488
G1 X98.474 Y130.579 E0.04091
G1 X98.216 Y130.098 E0.01713
G1 X98.016 Y129.452 E0.02120
G1 X97.986 Y126.576 E0.09019
G1 X96.041 Y126.539 E0.06100
G1 X94.976 Y126.156 E0.03547
G1 X94.454 Y125.777 E0.02024
G1 X93.875 Y125.152 E0.02669
G1 X93.483 Y124.420 E0.02607
G1 X93.283 Y123.635 E0.02537
G1 X93.269 Y86.875 E1.15259
G1 X93.423 Y86.157 E0.02304
