; generated by Slic3r Prusa Edition 1.41.2+ on 2019-02-28 at 22:09:06

; 

; external perimeters extrusion width = 0.45mm
; perimeters extrusion width = 0.45mm
; infill extrusion width = 0.45mm
; solid infill extrusion width = 0.45mm
; top infill extrusion width = 0.40mm
; first layer extrusion width = 0.42mm

M73 P0 R92
M73 Q0 S93
M201 X1000 Y1000 Z1000 E5000 ; sets maximum accelerations, mm/sec^2
M203 X200 Y200 Z12 E120 ; sets maximum feedrates, mm/sec
M204 P1250 R1250 T1250 ; sets acceleration (P, T) and retract acceleration (R), mm/sec^2
M205 X8.00 Y8.00 Z0.40 E1.50 ; sets the jerk limits, mm/sec
M205 S0 T0 ; sets the minimum extruding and travel feed rate, mm/sec
M107
M115 U3.5.1 ; tell printer latest fw version
M83  ; extruder relative mode
M104 S166 ; set extruder temp minus 50 to avoid stringing during calibration
M140 S60 ; set bed temp
M190 S60 ; wait for bed temp
M109 S166 ; wait for extruder temp
G28 W ; home all without mesh bed level
G80 N7 ; mesh bed leveling
G1 Y-3.0 F1000.0 ; go outside print area
M104 S216 ; set extruder temp
M109 S216 ; wait for extruder temp
G92 E0.0
G1 X60.0 E9.0  F1000.0 ; intro line
M73 Q0 S93
M73 P0 R92
G1 X100.0 E12.5  F1000.0 ; intro line
G92 E0.0
M221 S95
M900 K30; Filament gcode
G21 ; set units to millimeters
G90 ; use absolute coordinates
M83 ; use relative distances for extrusion
;BEFORE_LAYER_CHANGE
G92 E0.0
;0.2


G1 E-0.80000 F2100.00000
G1 Z0.600 F10800.000
;AFTER_LAYER_CHANGE
;0.2
G1 X97.410 Y77.775
G1 Z0.200
G1 E0.80000 F2100.00000
M204 S1000
G1 F1200
G1 X98.165 Y77.091 E0.03193
G1 X99.046 Y76.569 E0.03210
G1 X100.013 Y76.234 E0.03210
G1 X101.023 Y76.100 E0.03193
G1 X148.818 Y76.097 E1.49859
G1 X149.766 Y76.187 E0.02984
G1 X150.685 Y76.454 E0.03002
G1 X151.533 Y76.885 E0.02984
G1 X152.291 Y77.471 E0.03002
G1 X152.922 Y78.183 E0.02984
G1 X153.412 Y79.006 E0.03002
G1 X153.738 Y79.900 E0.02984
G1 X153.892 Y80.845 E0.03002
G1 X153.901 Y128.941 E1.50802
G1 X153.799 Y129.837 E0.02828
G1 X153.540 Y130.701 E0.02828
G1 X153.133 Y131.505 E0.02828
G1 X152.590 Y132.225 E0.02828
G1 X151.808 Y132.928 E0.03297
G1 X150.898 Y133.456 E0.03297
G1 X149.900 Y133.786 E0.03297
G1 X148.849 Y133.903 E0.03315
G1 X101.059 Y133.901 E1.49841
G1 X100.163 Y133.799 E0.02828
G1 X99.299 Y133.540 E0.02828
G1 X98.495 Y133.133 E0.02828
G1 X97.775 Y132.590 E0.02828
G1 X97.072 Y131.808 E0.03297
G1 X96.544 Y130.898 E0.03297
G1 X96.214 Y129.900 E0.03297
G1 X96.097 Y128.849 E0.03315
G1 X96.099 Y81.059 E1.49841
G1 X96.201 Y80.163 E0.02828
G1 X96.460 Y79.299 E0.02828
G1 X96.867 Y78.495 E0.02828
G1 X97.374 Y77.823 E0.02639
G1 F8640
G1 X98.165 Y77.091 E-0.24876
G1 X99.046 Y76.569 E-0.23642
G1 X100.013 Y76.234 E-0.23642
G1 X100.178 Y76.212 E-0.03840
G1 E-0.04000 F2100.00000
G1 Z0.800 F10800.000
G1 X99.854 Y116.710
G1 Z0.200
G1 E0.80000 F2100.00000
G1 F1200
G1 X100.746 Y116.538 E0.02850
G1 X101.684 Y116.542 E0.02940
G1 X102.762 Y116.817 E0.03488
G1 X103.364 Y117.114 E0.02105
G1 X104.193 Y117.475 E0.02834
G1 X104.980 Y117.759 E0.02623
G1 X105.787 Y117.993 E0.02638
G1 X108.967 Y118.681 E0.10201
G1 X110.046 Y119.382 E0.04034
G1 X110.943 Y120.388 E0.04226
G1 X111.573 Y121.784 E0.04803
G1 X111.823 Y123.392 E0.05102
G1 X112.006 Y124.211 E0.02632
G1 X112.241 Y125.021 E0.02642
G1 X112.527 Y125.814 E0.02643
G1 X112.864 Y126.592 E0.02660
G1 X113.211 Y127.314 E0.02512
G1 X113.465 Y128.389 E0.03462
G1 X113.420 Y129.572 E0.03712
G1 X113.088 Y130.650 E0.03538
G1 X112.359 Y131.842 E0.04380
G1 X111.385 Y132.771 E0.04221
G1 X110.358 Y133.292 E0.03612
G1 X109.266 Y133.526 E0.03500
G1 X100.715 Y133.523 E0.26814
G1 X99.737 Y133.334 E0.03122
G1 X98.827 Y132.940 E0.03109
G1 X97.200 Y131.395 E0.07035
G1 X96.772 Y130.544 E0.02986
G1 X96.473 Y129.310 E0.03981
G1 X96.568 Y120.083 E0.28933
G1 X96.829 Y119.337 E0.02478
G1 X97.202 Y118.651 E0.02448
G1 X98.308 Y117.525 E0.04948
G1 X99.801 Y116.738 E0.05291
G1 X99.955 Y117.075 F10800.000
G1 F1200
G1 X100.766 Y116.915 E0.02592
G1 X101.616 Y116.914 E0.02664
G1 X102.614 Y117.164 E0.03225
G1 X103.205 Y117.456 E0.02069
G1 X104.053 Y117.826 E0.02901
G1 X104.863 Y118.118 E0.02699
G1 X105.696 Y118.359 E0.02720
G1 X108.793 Y119.017 E0.09927
G1 X109.784 Y119.654 E0.03694
G1 X110.612 Y120.570 E0.03873
G1 X111.219 Y121.915 E0.04627
G1 X111.452 Y123.461 E0.04901
G1 X111.641 Y124.305 E0.02712
G1 X111.883 Y125.137 E0.02717
G1 X112.176 Y125.952 E0.02717
G1 X112.521 Y126.750 E0.02725
G1 X112.850 Y127.424 E0.02350
G1 X113.087 Y128.403 E0.03160
G1 X113.052 Y129.487 E0.03401
G1 X112.753 Y130.476 E0.03239
G1 X112.079 Y131.588 E0.04077
G1 X111.188 Y132.449 E0.03886
G1 X110.253 Y132.929 E0.03295
G1 X109.246 Y133.149 E0.03232
G1 X100.767 Y133.149 E0.26585
G1 X99.867 Y132.979 E0.02870
G1 X99.007 Y132.607 E0.02938
G1 X97.521 Y131.195 E0.06427
G1 X97.133 Y130.432 E0.02685
G1 X96.850 Y129.289 E0.03690
G1 X96.935 Y120.177 E0.28573
G1 X97.168 Y119.503 E0.02236
G1 X97.521 Y118.854 E0.02316
G1 X98.511 Y117.844 E0.04435
G1 X99.902 Y117.103 E0.04941
G1 X100.056 Y117.439 F10800.000
G1 F1200
G1 X100.820 Y117.289 E0.02442
G1 X101.591 Y117.291 E0.02417
G1 X102.464 Y117.511 E0.02824
G1 X103.046 Y117.798 E0.02034
G1 X103.914 Y118.176 E0.02967
G1 X104.746 Y118.476 E0.02775
G1 X105.601 Y118.725 E0.02791
G1 X106.487 Y118.923 E0.02845
G1 X108.621 Y119.354 E0.06829
G1 X109.524 Y119.927 E0.03352
G1 X110.281 Y120.753 E0.03513
G1 X110.864 Y122.046 E0.04447
G1 X111.081 Y123.529 E0.04699
G1 X111.275 Y124.399 E0.02795
G1 X111.524 Y125.254 E0.02791
G1 X111.825 Y126.091 E0.02791
G1 X112.179 Y126.909 E0.02794
G1 X112.489 Y127.536 E0.02192
G1 X112.710 Y128.420 E0.02857
G1 X112.683 Y129.405 E0.03089
G1 X112.417 Y130.303 E0.02939
G1 X111.798 Y131.336 E0.03776
G1 X110.988 Y132.128 E0.03551
G1 X110.146 Y132.567 E0.02977
G1 X109.225 Y132.772 E0.02959
G1 X100.785 Y132.772 E0.26462
G1 X99.960 Y132.613 E0.02635
G1 X99.189 Y132.275 E0.02639
G1 X97.841 Y130.994 E0.05830
G1 X97.493 Y130.318 E0.02385
G1 X97.228 Y129.268 E0.03396
G1 X97.301 Y120.271 E0.28209
G1 X97.519 Y119.642 E0.02089
G1 X97.839 Y119.058 E0.02087
G1 X98.716 Y118.162 E0.03930
G1 X100.003 Y117.468 E0.04587
G1 X100.159 Y117.803 F10800.000
G1 F1200
G1 X100.839 Y117.666 E0.02173
G1 X101.566 Y117.668 E0.02280
G1 X102.350 Y117.871 E0.02538
G1 X102.886 Y118.139 E0.01881
G1 X103.774 Y118.527 E0.03040
G1 X104.630 Y118.835 E0.02851
G1 X105.507 Y119.090 E0.02865
G1 X106.410 Y119.292 E0.02900
G1 X108.451 Y119.692 E0.06524
G1 X109.266 Y120.203 E0.03014
G1 X109.950 Y120.937 E0.03146
G1 X110.507 Y122.172 E0.04247
G1 X110.567 Y122.696 E0.01655
G1 X110.711 Y123.601 E0.02872
G1 X110.910 Y124.493 E0.02865
G1 X111.165 Y125.370 E0.02865
G1 X111.475 Y126.230 E0.02866
G1 X111.838 Y127.069 E0.02867
G1 X112.129 Y127.651 E0.02039
G1 X112.332 Y128.439 E0.02553
G1 X112.314 Y129.325 E0.02777
G1 X112.080 Y130.133 E0.02638
G1 X111.515 Y131.086 E0.03476
G1 X110.786 Y131.809 E0.03217
G1 X110.037 Y132.205 E0.02657
G1 X109.203 Y132.395 E0.02681
G1 X100.804 Y132.395 E0.26336
G1 X100.054 Y132.248 E0.02395
G1 X99.372 Y131.944 E0.02340
G1 X98.160 Y130.791 E0.05244
G1 X97.852 Y130.202 E0.02087
G1 X97.605 Y129.245 E0.03097
G1 X97.668 Y120.365 E0.27843
G1 X97.870 Y119.781 E0.01940
G1 X98.156 Y119.263 E0.01855
G1 X98.922 Y118.479 E0.03434
G1 X100.107 Y117.832 E0.04235
G1 X100.265 Y118.166 F10800.000
G1 F1200
G1 X100.858 Y118.043 E0.01898
G1 X101.541 Y118.045 E0.02142
G1 X102.198 Y118.216 E0.02130
G1 X102.726 Y118.481 E0.01851
G1 X103.635 Y118.878 E0.03110
G1 X104.513 Y119.194 E0.02927
G1 X105.413 Y119.455 E0.02939
G1 X106.334 Y119.661 E0.02957
G1 X108.284 Y120.032 E0.06222
G1 X109.010 Y120.482 E0.02680
G1 X109.621 Y121.124 E0.02780
G1 X110.136 Y122.245 E0.03867
G1 X110.194 Y122.747 E0.01585
G1 X110.340 Y123.672 E0.02934
G1 X110.545 Y124.587 E0.02940
G1 X110.806 Y125.487 E0.02940
G1 X111.124 Y126.369 E0.02940
G1 X111.496 Y127.229 E0.02937
G1 X111.784 Y127.802 E0.02012
G1 X111.955 Y128.460 E0.02132
G1 X111.944 Y129.247 E0.02467
G1 X111.743 Y129.962 E0.02329
G1 X111.202 Y130.874 E0.03322
G1 X110.583 Y131.490 E0.02741
G1 X109.926 Y131.844 E0.02339
G1 X109.181 Y132.018 E0.02398
G1 X100.822 Y132.018 E0.26210
G1 X100.188 Y131.894 E0.02025
G1 X99.555 Y131.613 E0.02171
G1 X98.479 Y130.587 E0.04661
G1 X98.210 Y130.083 E0.01791
G1 X97.982 Y129.222 E0.02793
G1 X98.034 Y120.458 E0.27480
G1 X98.208 Y119.948 E0.01687
G1 X98.474 Y119.467 E0.01723
G1 X99.129 Y118.795 E0.02942
G1 X100.212 Y118.195 E0.03883
G1 X100.373 Y118.528 F10800.000
G1 F1200
G1 X100.877 Y118.420 E0.01618
G1 X101.514 Y118.422 E0.01996
G1 X102.079 Y118.575 E0.01836
G1 X102.564 Y118.822 E0.01706
G1 X103.496 Y119.228 E0.03186
G1 X104.397 Y119.553 E0.03003
G1 X105.320 Y119.821 E0.03014
G1 X106.259 Y120.031 E0.03019
G1 X108.118 Y120.372 E0.05925
G1 X108.758 Y120.762 E0.02351
G1 X109.292 Y121.312 E0.02404
G1 X109.779 Y122.372 E0.03657
G1 X109.819 Y122.793 E0.01325
G1 X109.969 Y123.742 E0.03014
G1 X110.179 Y124.680 E0.03014
G1 X110.447 Y125.603 E0.03014
G1 X110.773 Y126.508 E0.03014
G1 X111.155 Y127.390 E0.03014
G1 X111.425 Y127.921 E0.01869
G1 X111.578 Y128.485 E0.01833
G1 X111.574 Y129.173 E0.02157
G1 X111.405 Y129.792 E0.02013
G1 X110.890 Y130.661 E0.03167
G1 X110.379 Y131.171 E0.02262
G1 X109.769 Y131.500 E0.02173
G1 X109.160 Y131.641 E0.01962
G1 X100.841 Y131.641 E0.26083
G1 X100.284 Y131.529 E0.01781
G1 X99.740 Y131.283 E0.01871
G1 X98.796 Y130.381 E0.04094
G1 X98.568 Y129.961 E0.01498
G1 X98.359 Y129.197 E0.02483
G1 X98.401 Y120.550 E0.27112
G1 X98.559 Y120.087 E0.01536
G1 X98.791 Y119.673 E0.01486
G1 X99.338 Y119.110 E0.02462
G1 X100.320 Y118.558 E0.03534
G1 X100.484 Y118.890 F10800.000
G1 F1200
G1 X100.898 Y118.797 E0.01331
G1 X101.488 Y118.799 E0.01848
G1 X101.925 Y118.919 E0.01422
G1 X102.403 Y119.163 E0.01683
G1 X103.356 Y119.579 E0.03261
G1 X104.280 Y119.911 E0.03079
G1 X105.226 Y120.186 E0.03088
G1 X106.186 Y120.401 E0.03085
G1 X107.955 Y120.714 E0.05632
G1 X108.509 Y121.047 E0.02028
G1 X108.966 Y121.504 E0.02027
G1 X109.407 Y122.441 E0.03246
G1 X109.445 Y122.840 E0.01257
G1 X109.599 Y123.813 E0.03088
G1 X109.814 Y124.774 E0.03088
G1 X110.089 Y125.720 E0.03088
G1 X110.422 Y126.647 E0.03089
G1 X110.813 Y127.551 E0.03088
G1 X111.081 Y128.076 E0.01847
G1 X111.201 Y128.513 E0.01422
G1 X111.203 Y129.103 E0.01851
G1 X111.066 Y129.624 E0.01687
G1 X110.577 Y130.449 E0.03008
G1 X110.173 Y130.854 E0.01795
G1 X109.655 Y131.139 E0.01853
G1 X109.137 Y131.264 E0.01672
G1 X100.861 Y131.264 E0.25949
G1 X100.383 Y131.165 E0.01531
G1 X99.927 Y130.954 E0.01573
G1 X99.111 Y130.173 E0.03543
G1 X98.924 Y129.836 E0.01207
G1 X98.736 Y129.171 E0.02166
G1 X98.768 Y120.641 E0.26748
G1 X98.897 Y120.255 E0.01275
G1 X99.108 Y119.879 E0.01352
G1 X99.549 Y119.424 E0.01987
G1 X100.432 Y118.919 E0.03188
G1 X100.599 Y119.250 F10800.000
G1 F1200
G1 X100.920 Y119.174 E0.01035
G1 X101.460 Y119.176 E0.01693
G1 X101.769 Y119.263 E0.01008
G1 X102.242 Y119.504 E0.01663
G1 X103.217 Y119.929 E0.03335
G1 X104.163 Y120.270 E0.03155
G1 X105.132 Y120.552 E0.03162
G1 X106.114 Y120.771 E0.03154
G1 X107.794 Y121.057 E0.05345
G1 X108.260 Y121.331 E0.01694
G1 X108.677 Y121.747 E0.01847
G1 X109.035 Y122.509 E0.02638
G1 X109.070 Y122.887 E0.01192
G1 X109.228 Y123.884 E0.03163
G1 X109.448 Y124.868 E0.03163
G1 X109.730 Y125.837 E0.03163
G1 X110.071 Y126.786 E0.03163
G1 X110.472 Y127.711 E0.03162
G1 X110.737 Y128.231 E0.01828
G1 X110.824 Y128.540 E0.01007
G1 X110.826 Y129.080 E0.01693
G1 X110.728 Y129.455 E0.01213
G1 X110.265 Y130.237 E0.02852
G1 X109.964 Y130.540 E0.01337
G1 X109.538 Y130.780 E0.01536
G1 X109.113 Y130.886 E0.01373
G1 X100.881 Y130.886 E0.25809
G1 X100.485 Y130.801 E0.01273
G1 X100.117 Y130.627 E0.01276
G1 X99.424 Y129.962 E0.03010
G1 X99.279 Y129.707 E0.00921
G1 X99.114 Y129.144 E0.01839
G1 X99.136 Y120.728 E0.26387
G1 X99.236 Y120.423 E0.01009
G1 X99.425 Y120.084 E0.01216
G1 X99.761 Y119.736 E0.01518
G1 X100.547 Y119.280 E0.02848
G1 X100.718 Y119.608 F10800.000
G1 F1200
G1 X100.948 Y119.551 E0.00743
G1 X101.389 Y119.547 E0.01381
G1 X101.616 Y119.609 E0.00740
G1 X102.081 Y119.845 E0.01634
G1 X103.077 Y120.280 E0.03410
G1 X104.047 Y120.629 E0.03231
G1 X105.038 Y120.917 E0.03237
G1 X106.043 Y121.142 E0.03228
G1 X107.638 Y121.401 E0.05067
G1 X108.012 Y121.616 E0.01351
G1 X108.387 Y121.991 E0.01663
G1 X108.662 Y122.577 E0.02030
G1 X108.696 Y122.935 E0.01127
G1 X108.858 Y123.954 E0.03237
G1 X109.083 Y124.962 E0.03237
G1 X109.371 Y125.953 E0.03237
G1 X109.721 Y126.925 E0.03237
G1 X110.131 Y127.872 E0.03237
G1 X110.391 Y128.384 E0.01801
G1 X110.453 Y128.612 E0.00740
G1 X110.449 Y129.050 E0.01374
G1 X110.373 Y129.328 E0.00904
G1 X109.954 Y130.023 E0.02545
G1 X109.752 Y130.227 E0.00899
G1 X109.415 Y130.423 E0.01223
G1 X109.087 Y130.509 E0.01062
G1 X100.901 Y130.509 E0.25667
G1 X100.626 Y130.451 E0.00882
G1 X100.306 Y130.300 E0.01109
G1 X99.735 Y129.748 E0.02489
G1 X99.632 Y129.572 E0.00639
G1 X99.491 Y129.115 E0.01500
G1 X99.505 Y120.813 E0.26030
G1 X99.575 Y120.589 E0.00736
G1 X99.742 Y120.290 E0.01076
G1 X99.976 Y120.047 E0.01055
G1 X100.667 Y119.639 E0.02516
G1 F8640
G1 X100.948 Y119.551 E-0.06810
G1 X101.389 Y119.547 E-0.10170
G1 X101.616 Y119.609 E-0.05449
G1 X102.081 Y119.845 E-0.12032
G1 X103.077 Y120.280 E-0.25109
G1 X103.747 Y120.521 E-0.16429
G1 E-0.04000 F2100.00000
G1 Z0.800 F10800.000
G1 X99.915 Y120.753
G1 Z0.200
G1 E0.80000 F2100.00000
G1 F1200
G1 X100.060 Y120.495 E0.00929
G1 X100.192 Y120.357 E0.00600
G1 X100.844 Y119.964 E0.02385
G1 X100.983 Y119.927 E0.00451
G1 X101.324 Y119.919 E0.01070
G1 X101.465 Y119.955 E0.00458
G1 X101.919 Y120.186 E0.01598
G1 X102.938 Y120.631 E0.03484
G1 X103.930 Y120.988 E0.03307
G1 X104.944 Y121.282 E0.03311
G1 X105.973 Y121.513 E0.03306
G1 X107.486 Y121.748 E0.04800
G1 X107.765 Y121.902 E0.00998
G1 X108.097 Y122.234 E0.01474
G1 X108.290 Y122.645 E0.01422
G1 X108.322 Y122.982 E0.01062
G1 X108.487 Y124.025 E0.03311
G1 X108.718 Y125.056 E0.03311
G1 X109.012 Y126.070 E0.03311
G1 X109.370 Y127.063 E0.03311
G1 X109.789 Y128.033 E0.03311
G1 X110.045 Y128.535 E0.01767
G1 X110.081 Y128.676 E0.00458
G1 X110.073 Y129.017 E0.01070
G1 X110.036 Y129.156 E0.00451
G1 X109.642 Y129.810 E0.02394
G1 X109.540 Y129.914 E0.00455
G1 X109.248 Y130.084 E0.01060
G1 X109.063 Y130.132 E0.00598
G1 X100.920 Y130.132 E0.25532
G1 X100.767 Y130.100 E0.00492
G1 X100.496 Y129.972 E0.00938
G1 X100.043 Y129.529 E0.01988
G1 X99.982 Y129.430 E0.00366
G1 X99.868 Y129.083 E0.01143
G1 X99.874 Y120.892 E0.25683
G1 X99.898 Y120.811 E0.00265
G1 X100.257 Y120.914 F10800.000
G1 F1200
G1 X100.410 Y120.665 E0.00916
G1 X100.980 Y120.316 E0.02093
G1 X101.271 Y120.293 E0.00916
G1 X101.758 Y120.527 E0.01696
G1 X102.798 Y120.981 E0.03558
G1 X103.814 Y121.347 E0.03383
G1 X104.851 Y121.648 E0.03386
G1 X105.905 Y121.884 E0.03388
G1 X107.342 Y122.097 E0.04554
G1 X107.520 Y122.190 E0.00629
G1 X107.807 Y122.478 E0.01275
G1 X107.918 Y122.713 E0.00814
G1 X107.948 Y123.029 E0.00996
G1 X108.117 Y124.096 E0.03386
G1 X108.352 Y125.149 E0.03386
G1 X108.653 Y126.186 E0.03385
G1 X109.019 Y127.202 E0.03386
G1 X109.448 Y128.193 E0.03385
G1 X109.697 Y128.682 E0.01719
G1 X109.684 Y129.020 E0.01062
G1 X109.335 Y129.590 E0.02093
G1 X109.039 Y129.755 E0.01062
G1 X100.938 Y129.755 E0.25402
G1 X100.687 Y129.646 E0.00856
G1 X100.344 Y129.302 E0.01522
G1 X100.245 Y129.048 E0.00856
G1 X100.245 Y120.972 E0.25321
G1 X100.622 Y121.034 F10800.000
G1 F1200
G1 X100.670 Y120.948 E0.00309
G1 X101.114 Y120.676 E0.01633
G1 X101.212 Y120.672 E0.00309
G1 X101.597 Y120.868 E0.01354
G1 X102.659 Y121.332 E0.03633
G1 X103.697 Y121.705 E0.03459
G1 X104.757 Y122.013 E0.03460
G1 X105.834 Y122.254 E0.03460
G1 X106.924 Y122.427 E0.03460
G1 X107.220 Y122.455 E0.00932
G1 X107.279 Y122.483 E0.00206
G1 X107.517 Y122.721 E0.01057
G1 X107.545 Y122.781 E0.00206
G1 X107.573 Y123.076 E0.00931
G1 X107.746 Y124.166 E0.03460
G1 X107.987 Y125.243 E0.03460
G1 X108.295 Y126.303 E0.03460
G1 X108.668 Y127.341 E0.03460
G1 X109.107 Y128.354 E0.03460
G1 X109.328 Y128.788 E0.01526
G1 X109.324 Y128.886 E0.00309
G1 X109.052 Y129.330 E0.01633
G1 X108.966 Y129.378 E0.00309
G1 X100.994 Y129.378 E0.24996
G1 X100.925 Y129.349 E0.00235
G1 X100.651 Y129.075 E0.01215
