; generated by Slic3r Prusa Edition 1.41.2+ on 2019-02-16 at 22:34:21

; 

; external perimeters extrusion width = 0.45mm
; perimeters extrusion width = 0.45mm
; infill extrusion width = 0.45mm
; solid infill extrusion width = 0.45mm
; top infill extrusion width = 0.40mm
; first layer extrusion width = 0.42mm

M73 P0 R93
M73 Q0 S94
M201 X1000 Y1000 Z1000 E5000 ; sets maximum accelerations, mm/sec^2
M203 X200 Y200 Z12 E120 ; sets maximum feedrates, mm/sec
M204 P1250 R1250 T1250 ; sets acceleration (P, T) and retract acceleration (R), mm/sec^2
M205 X8.00 Y8.00 Z0.40 E1.50 ; sets the jerk limits, mm/sec
M205 S0 T0 ; sets the minimum extruding and travel feed rate, mm/sec
M107
M115 U3.5.1 ; tell printer latest fw version
M83  ; extruder relative mode
M104 S162 ; set extruder temp minus 50 to avoid stringing during calibration
M140 S60 ; set bed temp
M190 S60 ; wait for bed temp
M109 S162 ; wait for extruder temp
G28 W ; home all without mesh bed level
G80 N7 ; mesh bed leveling
G1 Y-3.0 F1000.0 ; go outside print area
M104 S212 ; set extruder temp
M109 S212 ; wait for extruder temp
G92 E0.0
G1 X60.0 E9.0  F1000.0 ; intro line
M73 Q0 S94
M73 P0 R93
G1 X100.0 E12.5  F1000.0 ; intro line
G92 E0.0
M221 S95
M900 K30; Filament gcode
G21 ; set units to millimeters
G90 ; use absolute coordinates
M83 ; use relative distances for extrusion
;BEFORE_LAYER_CHANGE
G92 E0.0
;0.2


G1 E-0.80000 F2100.00000
G1 Z0.600 F10800.000
;AFTER_LAYER_CHANGE
;0.2
G1 X19.276 Y23.854
G1 Z0.200
G1 E0.80000 F2100.00000
M204 S1000
G1 F1200
G1 X19.988 Y23.364 E0.02709
G1 X20.837 Y23.189 E0.02721
G1 X150.851 Y23.189 E4.07647
G1 X151.681 Y23.354 E0.02653
G1 X152.389 Y23.824 E0.02664
G1 X152.863 Y24.525 E0.02653
G1 X153.035 Y25.353 E0.02653
G1 X153.035 Y157.388 E4.13987
G1 X152.873 Y158.204 E0.02608
G1 X152.418 Y158.900 E0.02608
G1 X151.703 Y159.391 E0.02721
G1 X150.849 Y159.566 E0.02732
G1 X20.836 Y159.566 E4.07647
G1 X20.020 Y159.403 E0.02608
G1 X19.324 Y158.948 E0.02608
G1 X18.831 Y158.230 E0.02732
G1 X18.658 Y157.377 E0.02727
G1 X18.658 Y25.366 E4.13911
G1 X18.821 Y24.550 E0.02608
G1 X19.243 Y23.904 E0.02420
; PURGING FINISHED
G1 F8640
G1 X19.988 Y23.364 E-0.21241
G1 X20.837 Y23.189 E-0.20036
G1 X22.341 Y23.189 E-0.34723
G1 E-0.04000 F2100.00000
G1 Z0.800 F10800.000
G1 X23.697 Y28.227
G1 Z0.200
G1 E0.80000 F2100.00000
G1 F1200
G1 X147.997 Y28.227 E3.89737
G1 X147.997 Y154.528 E3.96008
G1 X23.697 Y154.528 E3.89737
G1 X23.697 Y28.287 E3.95819
G1 X23.319 Y27.850 F10800.000
G1 F1200
G1 X148.374 Y27.850 E3.92101
M73 Q1 S92
M73 P1 R92
G1 X148.374 Y154.905 E3.98372
G1 X23.319 Y154.905 E3.92101
G1 X23.319 Y27.910 E3.98184
G1 X22.942 Y27.472 F10800.000
G1 F1200
G1 X148.752 Y27.472 E3.94466
G1 X148.752 Y155.282 E4.00737
G1 X22.942 Y155.282 E3.94466
G1 X22.942 Y27.532 E4.00549
G1 X22.565 Y27.095 F10800.000
G1 F1200
G1 X149.129 Y27.095 E3.96831
G1 X149.129 Y155.659 E4.03101
G1 X22.565 Y155.659 E3.96831
M73 Q2 S91
M73 P2 R91
G1 X22.565 Y27.155 E4.02913
G1 X22.188 Y26.718 F10800.000
G1 F1200
G1 X149.506 Y26.718 E3.99195
G1 X149.506 Y156.036 E4.05466
G1 X22.188 Y156.036 E3.99195
G1 X22.188 Y26.778 E4.05278
G1 X21.811 Y26.341 F10800.000
G1 F1200
G1 X149.883 Y26.341 E4.01560
G1 X149.883 Y156.413 E4.07831
G1 X21.811 Y156.413 E4.01560
G1 X21.811 Y26.401 E4.07643
G1 X21.434 Y25.964 F10800.000
G1 F1200
G1 X150.260 Y25.964 E4.03924
M73 Q3 S90
M73 P3 R90
G1 X150.260 Y156.790 E4.10195
G1 X21.434 Y156.790 E4.03924
G1 X21.434 Y26.024 E4.10007
G1 X21.057 Y25.587 F10800.000
G1 F1200
G1 X150.637 Y25.587 E4.06289
G1 X150.637 Y157.167 E4.12560
G1 X21.057 Y157.167 E4.06289
G1 X21.057 Y25.647 E4.12372
G1 X21.443 Y25.692 F10800.000
G1 F8640
G1 X24.348 Y25.646 E-0.76000
G1 E-0.04000 F2100.00000
G1 Z0.800 F10800.000
G1 X147.884 Y29.102
G1 Z0.200
G1 E0.80000 F2100.00000
G1 F1200
G1 X147.291 Y28.509 E0.02631
G1 X146.758 Y28.509 E0.01674
G1 X147.715 Y29.466 E0.04245
G1 X147.715 Y30.000 E0.01674
G1 X146.224 Y28.509 E0.06612
G1 X145.691 Y28.509 E0.01674
G1 X147.715 Y30.533 E0.08978
G1 X147.715 Y31.067 E0.01674
G1 X145.157 Y28.509 E0.11345
G1 X144.624 Y28.509 E0.01674
G1 X147.715 Y31.600 E0.13712
G1 X147.715 Y32.134 E0.01674
G1 X144.090 Y28.509 E0.16079
G1 X143.557 Y28.509 E0.01674
G1 X147.715 Y32.667 E0.18446
G1 X147.715 Y33.201 E0.01674
G1 X143.023 Y28.509 E0.20813
G1 X142.490 Y28.509 E0.01674
G1 X147.715 Y33.734 E0.23180
G1 X147.715 Y34.268 E0.01674
G1 X141.956 Y28.509 E0.25547
G1 X141.423 Y28.509 E0.01674
G1 X147.715 Y34.802 E0.27914
G1 X147.715 Y35.335 E0.01674
G1 X140.889 Y28.509 E0.30280
G1 X140.355 Y28.509 E0.01674
G1 X147.715 Y35.869 E0.32647
G1 X147.715 Y36.402 E0.01674
G1 X139.822 Y28.509 E0.35014
G1 X139.288 Y28.509 E0.01674
G1 X147.715 Y36.936 E0.37381
G1 X147.715 Y37.469 E0.01674
G1 X138.755 Y28.509 E0.39748
G1 X138.221 Y28.509 E0.01674
G1 X147.715 Y38.003 E0.42115
G1 X147.715 Y38.536 E0.01674
G1 X137.688 Y28.509 E0.44482
G1 X137.154 Y28.509 E0.01674
G1 X147.715 Y39.070 E0.46849
G1 X147.715 Y39.603 E0.01674
G1 X136.621 Y28.509 E0.49216
G1 X136.087 Y28.509 E0.01674
G1 X147.715 Y40.137 E0.51582
G1 X147.715 Y40.670 E0.01674
G1 X135.554 Y28.509 E0.53949
G1 X135.020 Y28.509 E0.01674
G1 X147.715 Y41.204 E0.56316
G1 X147.715 Y41.737 E0.01674
G1 X134.487 Y28.509 E0.58683
M73 Q4 S89
G1 X133.953 Y28.509 E0.01674
G1 X147.715 Y42.271 E0.61050
M73 P4 R89
G1 X147.715 Y42.804 E0.01674
G1 X133.420 Y28.509 E0.63417
G1 X132.886 Y28.509 E0.01674
G1 X147.715 Y43.338 E0.65784
G1 X147.715 Y43.871 E0.01674
G1 X132.353 Y28.509 E0.68151
G1 X131.819 Y28.509 E0.01674
G1 X147.715 Y44.405 E0.70518
G1 X147.715 Y44.939 E0.01674
G1 X131.286 Y28.509 E0.72884
G1 X130.752 Y28.509 E0.01674
G1 X147.715 Y45.472 E0.75251
G1 X147.715 Y46.006 E0.01674
G1 X130.218 Y28.509 E0.77618
G1 X129.685 Y28.509 E0.01674
G1 X147.715 Y46.539 E0.79985
G1 X147.715 Y47.073 E0.01674
G1 X129.151 Y28.509 E0.82352
G1 X128.618 Y28.509 E0.01674
G1 X147.715 Y47.606 E0.84719
G1 X147.715 Y48.140 E0.01674
G1 X128.084 Y28.509 E0.87086
G1 X127.551 Y28.509 E0.01674
G1 X147.715 Y48.673 E0.89453
G1 X147.715 Y49.207 E0.01674
G1 X127.017 Y28.509 E0.91820
G1 X126.484 Y28.509 E0.01674
G1 X147.715 Y49.740 E0.94186
G1 X147.715 Y50.274 E0.01674
G1 X125.950 Y28.509 E0.96553
G1 X125.417 Y28.509 E0.01674
G1 X147.715 Y50.807 E0.98920
G1 X147.715 Y51.341 E0.01674
G1 X124.883 Y28.509 E1.01287
G1 X124.350 Y28.509 E0.01674
G1 X147.715 Y51.874 E1.03654
G1 X147.715 Y52.408 E0.01674
G1 X123.816 Y28.509 E1.06021
G1 X123.283 Y28.509 E0.01674
G1 X147.715 Y52.941 E1.08388
G1 X147.715 Y53.475 E0.01674
G1 X122.749 Y28.509 E1.10755
G1 X122.216 Y28.509 E0.01674
G1 X147.715 Y54.009 E1.13122
G1 X147.715 Y54.542 E0.01674
G1 X121.682 Y28.509 E1.15488
G1 X121.148 Y28.509 E0.01674
G1 X147.715 Y55.076 E1.17855
G1 X147.715 Y55.609 E0.01674
G1 X120.615 Y28.509 E1.20222
G1 X120.081 Y28.509 E0.01674
G1 X147.715 Y56.143 E1.22589
G1 X147.715 Y56.676 E0.01674
G1 X119.548 Y28.509 E1.24956
G1 X119.014 Y28.509 E0.01674
G1 X147.715 Y57.210 E1.27323
G1 X147.715 Y57.743 E0.01674
G1 X118.481 Y28.509 E1.29690
G1 X117.947 Y28.509 E0.01674
G1 X147.715 Y58.277 E1.32057
G1 X147.715 Y58.810 E0.01674
G1 X117.414 Y28.509 E1.34424
G1 X116.880 Y28.509 E0.01674
G1 X147.715 Y59.344 E1.36790
G1 X147.715 Y59.877 E0.01674
G1 X116.347 Y28.509 E1.39157
G1 X115.813 Y28.509 E0.01674
G1 X147.715 Y60.411 E1.41524
G1 X147.715 Y60.944 E0.01674
G1 X115.280 Y28.509 E1.43891
M73 Q5 S88
G1 X114.746 Y28.509 E0.01674
G1 X147.715 Y61.478 E1.46258
M73 P5 R88
G1 X147.715 Y62.011 E0.01674
G1 X114.213 Y28.509 E1.48625
G1 X113.679 Y28.509 E0.01674
G1 X147.715 Y62.545 E1.50992
G1 X147.715 Y63.078 E0.01674
G1 X113.146 Y28.509 E1.53359
G1 X112.612 Y28.509 E0.01674
G1 X147.715 Y63.612 E1.55726
G1 X147.715 Y64.146 E0.01674
G1 X112.079 Y28.509 E1.58092
G1 X111.545 Y28.509 E0.01674
G1 X147.715 Y64.679 E1.60459
G1 X147.715 Y65.213 E0.01674
G1 X111.011 Y28.509 E1.62826
G1 X110.478 Y28.509 E0.01674
G1 X147.715 Y65.746 E1.65193
G1 X147.715 Y66.280 E0.01674
G1 X109.944 Y28.509 E1.67560
G1 X109.411 Y28.509 E0.01674
G1 X147.715 Y66.813 E1.69927
G1 X147.715 Y67.347 E0.01674
G1 X108.877 Y28.509 E1.72294
G1 X108.344 Y28.509 E0.01674
G1 X147.715 Y67.880 E1.74661
G1 X147.715 Y68.414 E0.01674
G1 X107.810 Y28.509 E1.77028
G1 X107.277 Y28.509 E0.01674
G1 X147.715 Y68.947 E1.79394
G1 X147.715 Y69.481 E0.01674
G1 X106.743 Y28.509 E1.81761
G1 X106.210 Y28.509 E0.01674
G1 X147.715 Y70.014 E1.84128
G1 X147.715 Y70.548 E0.01674
G1 X105.676 Y28.509 E1.86495
G1 X105.143 Y28.509 E0.01674
G1 X147.715 Y71.081 E1.88862
G1 X147.715 Y71.615 E0.01674
G1 X104.609 Y28.509 E1.91229
G1 X104.076 Y28.509 E0.01674
G1 X147.715 Y72.148 E1.93596
G1 X147.715 Y72.682 E0.01674
G1 X103.542 Y28.509 E1.95963
M73 Q6 S87
G1 X103.009 Y28.509 E0.01674
G1 X147.715 Y73.216 E1.98330
M73 P6 R87
G1 X147.715 Y73.749 E0.01674
G1 X102.475 Y28.509 E2.00696
G1 X101.941 Y28.509 E0.01674
G1 X147.715 Y74.283 E2.03063
G1 X147.715 Y74.816 E0.01674
G1 X101.408 Y28.509 E2.05430
G1 X100.874 Y28.509 E0.01674
G1 X147.715 Y75.350 E2.07797
G1 X147.715 Y75.883 E0.01674
G1 X100.341 Y28.509 E2.10164
G1 X99.807 Y28.509 E0.01674
G1 X147.715 Y76.417 E2.12531
G1 X147.715 Y76.950 E0.01674
G1 X99.274 Y28.509 E2.14898
G1 X98.740 Y28.509 E0.01674
G1 X147.715 Y77.484 E2.17265
G1 X147.715 Y78.017 E0.01674
G1 X98.207 Y28.509 E2.19632
G1 X97.673 Y28.509 E0.01674
G1 X147.715 Y78.551 E2.21998
G1 X147.715 Y79.084 E0.01674
G1 X97.140 Y28.509 E2.24365
G1 X96.606 Y28.509 E0.01674
G1 X147.715 Y79.618 E2.26732
G1 X147.715 Y80.151 E0.01674
G1 X96.073 Y28.509 E2.29099
G1 X95.539 Y28.509 E0.01674
G1 X147.715 Y80.685 E2.31466
G1 X147.715 Y81.218 E0.01674
G1 X95.006 Y28.509 E2.33833
G1 X94.472 Y28.509 E0.01674
G1 X147.715 Y81.752 E2.36200
G1 X147.715 Y82.285 E0.01674
G1 X93.939 Y28.509 E2.38567
M73 Q7 S86
M73 P7 R86
G1 X93.405 Y28.509 E0.01674
G1 X147.715 Y82.819 E2.40934
G1 X147.715 Y83.353 E0.01674
G1 X92.872 Y28.509 E2.43300
G1 X92.338 Y28.509 E0.01674
G1 X147.715 Y83.886 E2.45667
G1 X147.715 Y84.420 E0.01674
G1 X91.804 Y28.509 E2.48034
G1 X91.271 Y28.509 E0.01674
G1 X147.715 Y84.953 E2.50401
G1 X147.715 Y85.487 E0.01674
G1 X90.737 Y28.509 E2.52768
G1 X90.204 Y28.509 E0.01674
G1 X147.715 Y86.020 E2.55135
G1 X147.715 Y86.554 E0.01674
G1 X89.670 Y28.509 E2.57502
G1 X89.137 Y28.509 E0.01674
G1 X147.715 Y87.087 E2.59869
G1 X147.715 Y87.621 E0.01674
G1 X88.603 Y28.509 E2.62236
G1 X88.070 Y28.509 E0.01674
G1 X147.715 Y88.154 E2.64602
G1 X147.715 Y88.688 E0.01674
G1 X87.536 Y28.509 E2.66969
G1 X87.003 Y28.509 E0.01674
G1 X147.715 Y89.221 E2.69336
G1 X147.715 Y89.755 E0.01674
G1 X86.469 Y28.509 E2.71703
G1 X85.936 Y28.509 E0.01674
G1 X147.715 Y90.288 E2.74070
M73 Q8 S85
M73 P8 R85
G1 X147.715 Y90.822 E0.01674
G1 X85.402 Y28.509 E2.76437
G1 X84.869 Y28.509 E0.01674
G1 X147.715 Y91.355 E2.78804
G1 X147.715 Y91.889 E0.01674
G1 X84.335 Y28.509 E2.81171
G1 X83.802 Y28.509 E0.01674
G1 X147.715 Y92.423 E2.83538
G1 X147.715 Y92.956 E0.01674
G1 X83.268 Y28.509 E2.85904
G1 X82.735 Y28.509 E0.01674
G1 X147.715 Y93.490 E2.88271
G1 X147.715 Y94.023 E0.01674
G1 X82.201 Y28.509 E2.90638
G1 X81.667 Y28.509 E0.01674
G1 X147.715 Y94.557 E2.93005
G1 X147.715 Y95.090 E0.01674
G1 X81.134 Y28.509 E2.95372
G1 X80.600 Y28.509 E0.01674
G1 X147.715 Y95.624 E2.97739
G1 X147.715 Y96.157 E0.01674
G1 X80.067 Y28.509 E3.00106
G1 X79.533 Y28.509 E0.01674
G1 X147.715 Y96.691 E3.02473
G1 X147.715 Y97.224 E0.01674
G1 X79.000 Y28.509 E3.04840
M73 Q10 S84
M73 P10 R84
G1 X78.466 Y28.509 E0.01674
G1 X147.715 Y97.758 E3.07206
G1 X147.715 Y98.291 E0.01674
G1 X77.933 Y28.509 E3.09573
G1 X77.399 Y28.509 E0.01674
G1 X147.715 Y98.825 E3.11940
G1 X147.715 Y99.358 E0.01674
G1 X76.866 Y28.509 E3.14307
G1 X76.332 Y28.509 E0.01674
G1 X147.715 Y99.892 E3.16674
G1 X147.715 Y100.425 E0.01674
G1 X75.799 Y28.509 E3.19041
G1 X75.265 Y28.509 E0.01674
G1 X147.715 Y100.959 E3.21408
G1 X147.715 Y101.492 E0.01674
G1 X74.732 Y28.509 E3.23775
G1 X74.198 Y28.509 E0.01674
G1 X147.715 Y102.026 E3.26142
G1 X147.715 Y102.560 E0.01674
G1 X73.665 Y28.509 E3.28508
G1 X73.131 Y28.509 E0.01674
G1 X147.715 Y103.093 E3.30875
G1 X147.715 Y103.627 E0.01674
G1 X72.597 Y28.509 E3.33242
M73 Q11 S83
M73 P11 R82
G1 X72.064 Y28.509 E0.01674
G1 X147.715 Y104.160 E3.35609
G1 X147.715 Y104.694 E0.01674
G1 X71.530 Y28.509 E3.37976
G1 X70.997 Y28.509 E0.01674
G1 X147.715 Y105.227 E3.40343
G1 X147.715 Y105.761 E0.01674
G1 X70.463 Y28.509 E3.42710
G1 X69.930 Y28.509 E0.01674
G1 X147.715 Y106.294 E3.45077
G1 X147.715 Y106.828 E0.01674
G1 X69.396 Y28.509 E3.47444
G1 X68.863 Y28.509 E0.01674
G1 X147.715 Y107.361 E3.49810
G1 X147.715 Y107.895 E0.01674
G1 X68.329 Y28.509 E3.52177
G1 X67.796 Y28.509 E0.01674
G1 X147.715 Y108.428 E3.54544
G1 X147.715 Y108.962 E0.01674
G1 X67.262 Y28.509 E3.56911
G1 X66.729 Y28.509 E0.01674
G1 X147.715 Y109.495 E3.59278
M73 Q12 S82
M73 P12 R81
G1 X147.715 Y110.029 E0.01674
G1 X66.195 Y28.509 E3.61645
G1 X65.662 Y28.509 E0.01674
G1 X147.715 Y110.562 E3.64012
G1 X147.715 Y111.096 E0.01674
G1 X65.128 Y28.509 E3.66379
G1 X64.595 Y28.509 E0.01674
G1 X147.715 Y111.630 E3.68746
G1 X147.715 Y112.163 E0.01674
G1 X64.061 Y28.509 E3.71112
G1 X63.528 Y28.509 E0.01674
G1 X147.715 Y112.697 E3.73479
G1 X147.715 Y113.230 E0.01674
G1 X62.994 Y28.509 E3.75846
G1 X62.460 Y28.509 E0.01674
G1 X147.715 Y113.764 E3.78213
G1 X147.715 Y114.297 E0.01674
G1 X61.927 Y28.509 E3.80580
G1 X61.393 Y28.509 E0.01674
G1 X147.715 Y114.831 E3.82947
G1 X147.715 Y115.364 E0.01674
G1 X60.860 Y28.509 E3.85314
M73 Q13 S81
M73 P13 R80
G1 X60.326 Y28.509 E0.01674
G1 X147.715 Y115.898 E3.87681
G1 X147.715 Y116.431 E0.01674
G1 X59.793 Y28.509 E3.90048
G1 X59.259 Y28.509 E0.01674
G1 X147.715 Y116.965 E3.92414
G1 X147.715 Y117.498 E0.01674
G1 X58.726 Y28.509 E3.94781
G1 X58.192 Y28.509 E0.01674
G1 X147.715 Y118.032 E3.97148
G1 X147.715 Y118.565 E0.01674
G1 X57.659 Y28.509 E3.99515
G1 X57.125 Y28.509 E0.01674
G1 X147.715 Y119.099 E4.01882
G1 X147.715 Y119.632 E0.01674
G1 X56.592 Y28.509 E4.04249
G1 X56.058 Y28.509 E0.01674
G1 X147.715 Y120.166 E4.06616
G1 X147.715 Y120.699 E0.01674
G1 X55.525 Y28.509 E4.08983
M73 Q14 S80
M73 P14 R79
G1 X54.991 Y28.509 E0.01674
G1 X147.715 Y121.233 E4.11350
G1 X147.715 Y121.767 E0.01674
G1 X54.458 Y28.509 E4.13716
G1 X53.924 Y28.509 E0.01674
G1 X147.715 Y122.300 E4.16083
G1 X147.715 Y122.834 E0.01674
G1 X53.390 Y28.509 E4.18450
G1 X52.857 Y28.509 E0.01674
G1 X147.715 Y123.367 E4.20817
G1 X147.715 Y123.901 E0.01674
G1 X52.323 Y28.509 E4.23184
G1 X51.790 Y28.509 E0.01674
G1 X147.715 Y124.434 E4.25551
G1 X147.715 Y124.968 E0.01674
G1 X51.256 Y28.509 E4.27918
G1 X50.723 Y28.509 E0.01674
G1 X147.715 Y125.501 E4.30285
M73 Q15 S79
M73 P15 R78
G1 X147.715 Y126.035 E0.01674
G1 X50.189 Y28.509 E4.32652
G1 X49.656 Y28.509 E0.01674
G1 X147.715 Y126.568 E4.35018
G1 X147.715 Y127.102 E0.01674
G1 X49.122 Y28.509 E4.37385
G1 X48.589 Y28.509 E0.01674
G1 X147.715 Y127.635 E4.39752
G1 X147.715 Y128.169 E0.01674
G1 X48.055 Y28.509 E4.42119
G1 X47.522 Y28.509 E0.01674
G1 X147.715 Y128.702 E4.44486
G1 X147.715 Y129.236 E0.01674
G1 X46.988 Y28.509 E4.46853
G1 X46.455 Y28.509 E0.01674
G1 X147.715 Y129.769 E4.49220
G1 X147.715 Y130.303 E0.01674
G1 X45.921 Y28.509 E4.51587
M73 Q16 S78
M73 P16 R77
G1 X45.388 Y28.509 E0.01674
G1 X147.715 Y130.837 E4.53954
G1 X147.715 Y131.370 E0.01674
G1 X44.854 Y28.509 E4.56320
G1 X44.321 Y28.509 E0.01674
G1 X147.715 Y131.904 E4.58687
G1 X147.715 Y132.437 E0.01674
G1 X43.787 Y28.509 E4.61054
G1 X43.253 Y28.509 E0.01674
G1 X147.715 Y132.971 E4.63421
G1 X147.715 Y133.504 E0.01674
G1 X42.720 Y28.509 E4.65788
G1 X42.186 Y28.509 E0.01674
G1 X147.715 Y134.038 E4.68155
G1 X147.715 Y134.571 E0.01674
G1 X41.653 Y28.509 E4.70522
G1 X41.119 Y28.509 E0.01674
G1 X147.715 Y135.105 E4.72889
M73 Q17 S77
M73 P18 R76
G1 X147.715 Y135.638 E0.01674
G1 X40.586 Y28.509 E4.75256
G1 X40.052 Y28.509 E0.01674
G1 X147.715 Y136.172 E4.77622
G1 X147.715 Y136.705 E0.01674
G1 X39.519 Y28.509 E4.79989
G1 X38.985 Y28.509 E0.01674
G1 X147.715 Y137.239 E4.82356
G1 X147.715 Y137.772 E0.01674
G1 X38.452 Y28.509 E4.84723
G1 X37.918 Y28.509 E0.01674
G1 X147.715 Y138.306 E4.87090
G1 X147.715 Y138.839 E0.01674
