; generated by Slic3r Prusa Edition 1.41.2+ on 2019-02-17 at 15:39:42

; 

; external perimeters extrusion width = 0.45mm
; perimeters extrusion width = 0.45mm
; infill extrusion width = 0.45mm
; solid infill extrusion width = 0.45mm
; top infill extrusion width = 0.40mm
; first layer extrusion width = 0.42mm

M73 P0 R77
M73 Q0 S77
M201 X1000 Y1000 Z1000 E5000 ; sets maximum accelerations, mm/sec^2
M203 X200 Y200 Z12 E120 ; sets maximum feedrates, mm/sec
M204 P1250 R1250 T1250 ; sets acceleration (P, T) and retract acceleration (R), mm/sec^2
M205 X8.00 Y8.00 Z0.40 E1.50 ; sets the jerk limits, mm/sec
M205 S0 T0 ; sets the minimum extruding and travel feed rate, mm/sec
M107
M115 U3.5.1 ; tell printer latest fw version
M83  ; extruder relative mode
M104 S165 ; set extruder temp minus 50 to avoid stringing during calibration
M140 S60 ; set bed temp
M190 S60 ; wait for bed temp
M109 S165 ; wait for extruder temp
G28 W ; home all without mesh bed level
G80 N7 ; mesh bed leveling
G1 Y-3.0 F1000.0 ; go outside print area
M104 S215 ; set extruder temp
M109 S215 ; wait for extruder temp
G92 E0.0
G1 X60.0 E9.0  F1000.0 ; intro line
M73 Q0 S77
M73 P0 R77
G1 X100.0 E12.5  F1000.0 ; intro line
G92 E0.0
M221 S95
M900 K30; Filament gcode
G21 ; set units to millimeters
G90 ; use absolute coordinates
M83 ; use relative distances for extrusion
;BEFORE_LAYER_CHANGE
G92 E0.0
;0.2


G1 E-0.80000 F2100.00000
G1 Z0.600 F10800.000
;AFTER_LAYER_CHANGE
;0.2
G1 X11.536 Y63.978
G1 Z0.200
G1 E0.80000 F2100.00000
M204 S1000
G1 F1200
G1 X12.366 Y63.350 E0.03264
G1 X70.752 Y35.969 E2.02196
G1 X71.708 Y35.666 E0.03146
G1 X123.663 Y24.897 E1.66364
G1 X235.069 Y13.826 E3.51023
G1 X235.646 Y13.905 E0.01828
G1 X236.466 Y14.213 E0.02745
G1 X236.908 Y14.515 E0.01680
G1 X237.386 Y15.026 E0.02192
G1 X237.660 Y15.443 E0.01567
G1 X237.833 Y15.912 E0.01567
G1 X237.925 Y17.240 E0.04174
G1 X225.053 Y147.812 E4.11382
G1 X216.316 Y182.493 E1.12138
G1 X216.057 Y182.920 E0.01567
G1 X215.477 Y183.574 E0.02740
G1 X214.142 Y184.463 E0.05030
G1 X207.174 Y186.663 E0.22908
G1 X206.085 Y186.850 E0.03466
G1 X158.496 Y186.139 E1.49229
G1 X156.828 Y185.720 E0.05393
G1 X92.094 Y163.761 E2.14328
G1 X91.237 Y163.391 E0.02926
G1 X52.185 Y138.606 E1.45022
G1 X48.308 Y135.643 E0.15301
G1 X44.761 Y132.437 E0.14992
G1 X41.341 Y128.794 E0.15667
G1 X38.340 Y125.010 E0.15141
G1 X35.686 Y121.033 E0.14992
G1 X33.274 Y116.686 E0.15587
G1 X13.868 Y75.859 E1.41736
G1 X12.126 Y71.418 E0.14955
G1 X10.776 Y66.832 E0.14990
G1 X10.704 Y65.820 E0.03179
G1 X10.968 Y64.825 E0.03230
G1 X11.502 Y64.028 E0.03008
; PURGING FINISHED
G1 F8640
G1 X12.366 Y63.350 E-0.25350
G1 X14.352 Y62.419 E-0.50650
G1 E-0.04000 F2100.00000
G1 Z0.800 F10800.000
G1 X48.160 Y107.187
G1 Z0.200
G1 E0.80000 F2100.00000
G1 F1200
G1 X49.279 Y106.243 E0.04589
G1 X50.541 Y105.502 E0.04589
G1 X51.911 Y104.986 E0.04589
G1 X53.348 Y104.708 E0.04589
G1 X54.764 Y104.678 E0.04441
G1 X56.257 Y104.893 E0.04730
G1 X57.649 Y105.352 E0.04594
G1 X58.941 Y106.038 E0.04589
G1 X60.099 Y106.933 E0.04589
G1 X61.089 Y108.011 E0.04589
G1 X61.883 Y109.241 E0.04589
G1 X62.457 Y110.587 E0.04589
G1 X62.796 Y112.011 E0.04589
G1 X62.889 Y113.472 E0.04589
G1 X62.734 Y114.927 E0.04589
G1 X62.335 Y116.335 E0.04589
G1 X61.704 Y117.656 E0.04589
G1 X60.866 Y118.840 E0.04550
G1 X60.363 Y119.389 E0.02335
G1 X59.814 Y119.893 E0.02335
G1 X58.629 Y120.731 E0.04550
G1 X57.309 Y121.362 E0.04589
G1 X55.900 Y121.761 E0.04589
G1 X54.445 Y121.916 E0.04589
G1 X52.984 Y121.823 E0.04589
G1 X51.561 Y121.484 E0.04589
G1 X50.214 Y120.909 E0.04589
G1 X48.985 Y120.116 E0.04589
G1 X47.907 Y119.126 E0.04589
G1 X47.012 Y117.968 E0.04589
G1 X46.325 Y116.675 E0.04589
G1 X45.867 Y115.285 E0.04589
G1 X45.650 Y113.838 E0.04589
G1 X45.681 Y112.374 E0.04589
G1 X45.959 Y110.937 E0.04589
G1 X46.476 Y109.568 E0.04589
G1 X47.217 Y108.306 E0.04589
G1 X48.121 Y107.232 E0.04401
G1 X48.410 Y107.476 F10800.000
G1 F1200
G1 X49.498 Y106.552 E0.04474
G1 X50.705 Y105.844 E0.04388
G1 X52.014 Y105.350 E0.04388
G1 X53.388 Y105.084 E0.04388
G1 X54.741 Y105.055 E0.04243
G1 X56.170 Y105.261 E0.04528
G1 X57.500 Y105.700 E0.04390
G1 X58.736 Y106.356 E0.04388
G1 X59.843 Y107.212 E0.04388
G1 X60.790 Y108.243 E0.04388
G1 X61.549 Y109.418 E0.04388
G1 X62.098 Y110.705 E0.04388
G1 X62.422 Y112.067 E0.04388
G1 X62.511 Y113.464 E0.04388
G1 X62.363 Y114.855 E0.04388
G1 X61.981 Y116.202 E0.04388
G1 X61.378 Y117.464 E0.04388
G1 X60.572 Y118.603 E0.04374
G1 X60.096 Y119.122 E0.02210
G1 X59.577 Y119.599 E0.02210
G1 X58.438 Y120.404 E0.04374
G1 X57.175 Y121.008 E0.04388
G1 X55.829 Y121.389 E0.04388
G1 X54.437 Y121.537 E0.04388
G1 X53.040 Y121.448 E0.04388
G1 X51.679 Y121.124 E0.04388
G1 X50.392 Y120.575 E0.04388
G1 X49.216 Y119.816 E0.04388
G1 X48.185 Y118.870 E0.04388
G1 X47.330 Y117.762 E0.04388
G1 X46.673 Y116.527 E0.04388
G1 X46.235 Y115.197 E0.04388
G1 X46.028 Y113.813 E0.04388
G1 X46.058 Y112.414 E0.04388
G1 X46.323 Y111.040 E0.04388
G1 X46.817 Y109.731 E0.04388
G1 X47.526 Y108.524 E0.04388
G1 X48.371 Y107.521 E0.04112
G1 X48.305 Y107.089 F10800.000
G1 F8640
G1 X49.498 Y106.552 E-0.34315
G1 X50.705 Y105.844 E-0.32313
G1 X51.084 Y105.701 E-0.09371
G1 E-0.04000 F2100.00000
G1 Z0.800 F10800.000
G1 X29.854 Y92.931
G1 Z0.200
G1 E0.80000 F2100.00000
G1 F1200
G1 X26.413 Y89.644 E0.14921
G1 X23.432 Y86.255 E0.14154
G1 X20.756 Y82.619 E0.14154
G1 X18.406 Y78.765 E0.14154
G1 X16.400 Y74.721 E0.14154
G1 X14.752 Y70.518 E0.14154
G1 X13.479 Y66.199 E0.14117
G1 X13.474 Y66.050 E0.00470
G1 X13.536 Y65.910 E0.00479
G1 X13.596 Y65.847 E0.00273
G1 X13.692 Y65.796 E0.00341
G1 X13.874 Y65.789 E0.00572
G1 X14.002 Y65.849 E0.00441
G1 X14.075 Y65.929 E0.00341
G1 X14.145 Y66.110 E0.00608
G1 X15.203 Y68.297 E0.07618
G1 X16.561 Y70.318 E0.07633
G1 X18.188 Y72.129 E0.07633
G1 X20.053 Y73.694 E0.07633
G1 X22.119 Y74.981 E0.07633
G1 X24.345 Y75.966 E0.07633
G1 X26.941 Y76.701 E0.08457
G1 X29.071 Y74.978 E0.08589
G1 X31.488 Y73.362 E0.09117
G1 X30.002 Y69.574 E0.12756
G1 X29.036 Y66.140 E0.11186
G1 X28.479 Y63.030 E0.09907
G1 X29.750 Y64.793 E0.06815
G1 X31.063 Y67.027 E0.08126
G1 X32.153 Y69.377 E0.08123
G1 X33.221 Y72.426 E0.10128
G1 X36.869 Y70.982 E0.12302
G1 X36.376 Y69.580 E0.04658
G1 X34.455 Y63.464 E0.20101
G1 X33.254 Y58.656 E0.15540
G1 X35.142 Y61.897 E0.11762
G1 X37.544 Y66.689 E0.16807
G1 X39.080 Y70.186 E0.11975
G1 X42.367 Y69.137 E0.10820
G1 X40.956 Y63.431 E0.18429
G1 X40.092 Y59.468 E0.12717
G1 X42.209 Y63.107 E0.13200
G1 X44.847 Y68.498 E0.18817
G1 X50.111 Y67.592 E0.16746
G1 X51.550 Y64.990 E0.09322
G1 X52.502 Y62.426 E0.08577
G1 X53.061 Y59.748 E0.08577
G1 X53.213 Y57.017 E0.08577
G1 X52.955 Y54.293 E0.08577
G1 X52.294 Y51.641 E0.08571
G1 X52.251 Y51.534 E0.00360
G1 X52.234 Y51.416 E0.00376
G1 X52.257 Y51.298 E0.00375
G1 X52.333 Y51.206 E0.00375
G1 X52.435 Y51.143 E0.00376
G1 X52.580 Y51.135 E0.00455
G1 X52.709 Y51.196 E0.00448
G1 X52.807 Y51.329 E0.00517
G1 X54.770 Y55.321 E0.13949
G1 X56.383 Y59.496 E0.14032
G1 X57.623 Y63.796 E0.14032
G1 X58.479 Y68.189 E0.14032
G1 X58.946 Y72.640 E0.14032
G1 X59.018 Y77.114 E0.14032
G1 X58.679 Y81.816 E0.14779
G1 X61.508 Y85.766 E0.15234
G1 X63.893 Y89.726 E0.14496
G1 X65.957 Y93.863 E0.14496
G1 X67.687 Y98.151 E0.14496
G1 X69.071 Y102.562 E0.14496
G1 X70.101 Y107.069 E0.14496
G1 X70.770 Y111.644 E0.14496
G1 X71.075 Y116.257 E0.14496
G1 X71.014 Y120.880 E0.14496
G1 X70.586 Y125.483 E0.14496
G1 X69.794 Y130.039 E0.14496
G1 X68.644 Y134.516 E0.14496
G1 X67.142 Y138.889 E0.14496
G1 X65.523 Y142.615 E0.12737
G1 X61.773 Y141.006 E0.12793
G1 X57.674 Y138.831 E0.14549
G1 X53.768 Y136.326 E0.14549
G1 X50.082 Y133.507 E0.14549
G1 X46.640 Y130.395 E0.14549
G1 X43.467 Y127.009 E0.14549
G1 X40.583 Y123.374 E0.14549
G1 X38.009 Y119.513 E0.14549
G1 X35.761 Y115.453 E0.14549
G1 X33.856 Y111.222 E0.14549
G1 X32.305 Y106.849 E0.14549
G1 X31.120 Y102.362 E0.14549
G1 X30.309 Y97.794 E0.14549
G1 X29.860 Y92.991 E0.15125
G1 X29.492 Y93.106 F10800.000
G1 F1200
G1 X26.140 Y89.905 E0.14531
G1 X23.138 Y86.491 E0.14256
M73 Q1 S76
G1 X20.442 Y82.829 E0.14256
G1 X18.076 Y78.947 E0.14256
M73 P1 R76
G1 X16.055 Y74.874 E0.14256
G1 X14.395 Y70.641 E0.14256
G1 X13.111 Y66.283 E0.14244
G1 X13.092 Y66.164 E0.00380
G1 X13.111 Y65.940 E0.00704
G1 X13.210 Y65.715 E0.00770
G1 X13.365 Y65.547 E0.00717
G1 X13.464 Y65.484 E0.00367
G1 X13.676 Y65.411 E0.00704
G1 X13.922 Y65.412 E0.00770
G1 X14.032 Y65.440 E0.00355
G1 X14.236 Y65.552 E0.00729
G1 X14.321 Y65.631 E0.00367
G1 X14.448 Y65.827 E0.00731
G1 X14.495 Y65.967 E0.00462
G1 X15.531 Y68.109 E0.07461
G1 X16.859 Y70.086 E0.07466
G1 X18.450 Y71.857 E0.07466
G1 X20.275 Y73.388 E0.07466
G1 X22.296 Y74.647 E0.07466
G1 X24.473 Y75.611 E0.07466
G1 X26.855 Y76.285 E0.07761
G1 X28.847 Y74.674 E0.08031
G1 X31.026 Y73.217 E0.08219
G1 X29.644 Y69.694 E0.11864
G1 X28.668 Y66.224 E0.11302
G1 X28.007 Y62.534 E0.11754
G1 X28.030 Y62.414 E0.00384
G1 X28.075 Y62.345 E0.00260
G1 X28.141 Y62.294 E0.00260
G1 X28.211 Y62.270 E0.00232
G1 X28.348 Y62.282 E0.00432
G1 X28.415 Y62.318 E0.00239
G1 X28.486 Y62.395 E0.00329
G1 X30.066 Y64.586 E0.08471
G1 X31.398 Y66.852 E0.08239
G1 X32.503 Y69.235 E0.08238
G1 X33.447 Y71.931 E0.08955
G1 X36.393 Y70.765 E0.09934
G1 X36.018 Y69.700 E0.03540
G1 X34.092 Y63.566 E0.20156
G1 X32.548 Y57.388 E0.19968
G1 X32.571 Y57.324 E0.00213
G1 X32.631 Y57.246 E0.00308
G1 X32.719 Y57.186 E0.00334
G1 X32.821 Y57.165 E0.00329
G1 X35.474 Y61.718 E0.16519
G1 X37.885 Y66.529 E0.16874
G1 X39.289 Y69.724 E0.10941
G1 X41.917 Y68.885 E0.08650
G1 X40.589 Y63.516 E0.17339
G1 X39.467 Y58.371 E0.16512
G1 X39.528 Y58.286 E0.00327
G1 X39.610 Y58.227 E0.00316
G1 X39.706 Y58.195 E0.00316
G1 X39.788 Y58.195 E0.00260
G1 X42.541 Y62.929 E0.17171
G1 X45.062 Y68.078 E0.17973
G1 X49.868 Y67.251 E0.15293
G1 X51.207 Y64.833 E0.08666
G1 X52.139 Y62.321 E0.08400
G1 X52.686 Y59.699 E0.08400
G1 X52.835 Y57.024 E0.08400
G1 X52.583 Y54.357 E0.08400
G1 X51.935 Y51.758 E0.08397
G1 X51.884 Y51.633 E0.00423
G1 X51.852 Y51.406 E0.00720
G1 X51.896 Y51.180 E0.00720
G1 X51.935 Y51.096 E0.00294
G1 X52.081 Y50.918 E0.00720
G1 X52.277 Y50.797 E0.00720
G1 X52.366 Y50.769 E0.00294
G1 X52.600 Y50.756 E0.00735
G1 X52.696 Y50.774 E0.00308
G1 X52.912 Y50.875 E0.00746
G1 X52.984 Y50.934 E0.00294
G1 X53.130 Y51.132 E0.00771
G1 X55.116 Y55.170 E0.14107
G1 X56.741 Y59.375 E0.14137
G1 X57.990 Y63.707 E0.14137
G1 X58.853 Y68.133 E0.14137
G1 X59.322 Y72.617 E0.14137
G1 X59.395 Y77.125 E0.14137
G1 X59.065 Y81.707 E0.14404
G1 X61.823 Y85.559 E0.14854
G1 X64.224 Y89.545 E0.14590
G1 X66.301 Y93.709 E0.14590
G1 X68.042 Y98.024 E0.14590
G1 X69.435 Y102.464 E0.14590
G1 X70.472 Y107.000 E0.14590
G1 X71.146 Y111.604 E0.14590
G1 X71.453 Y116.247 E0.14590
G1 X71.390 Y120.900 E0.14590
G1 X70.960 Y125.533 E0.14590
G1 X70.163 Y130.118 E0.14590
G1 X69.005 Y134.625 E0.14590
G1 X67.494 Y139.026 E0.14590
G1 X65.719 Y143.109 E0.13961
G1 X61.610 Y141.346 E0.14019
G1 X57.484 Y139.157 E0.14647
G1 X53.551 Y136.635 E0.14647
G1 X49.840 Y133.797 E0.14647
G1 X46.376 Y130.664 E0.14647
G1 X43.181 Y127.256 E0.14647
G1 X40.278 Y123.596 E0.14647
G1 X37.686 Y119.709 E0.14647
G1 X35.424 Y115.623 E0.14647
G1 X33.505 Y111.363 E0.14647
G1 X31.945 Y106.960 E0.14647
G1 X30.752 Y102.444 E0.14647
G1 X29.935 Y97.844 E0.14647
G1 X29.498 Y93.166 E0.14732
G1 X29.671 Y92.749 F10800.000
G1 X29.972 Y92.971
G1 F1200
G1 X46.304 Y109.303 E0.72738
G1 X46.220 Y109.446 E0.00520
G1 X46.135 Y109.670 E0.00756
G1 X30.215 Y93.750 E0.70905
G1 X30.270 Y94.341 E0.01869
G1 X45.988 Y110.059 E0.70005
G1 X45.842 Y110.448 E0.01309
G1 X30.325 Y94.932 E0.69105
G1 X30.381 Y95.523 E0.01869
G1 X45.695 Y110.837 E0.68205
G1 X45.604 Y111.282 E0.01431
G1 X30.436 Y96.113 E0.67557
G1 X30.491 Y96.704 E0.01869
G1 X45.518 Y111.731 E0.66924
G1 X45.431 Y112.180 E0.01440
G1 X30.546 Y97.295 E0.66292
G1 X30.615 Y97.899 E0.01915
G1 X45.392 Y112.676 E0.65813
G1 X45.381 Y113.201 E0.01652
G1 X30.731 Y98.551 E0.65248
G1 X30.846 Y99.202 E0.02083
G1 X45.370 Y113.725 E0.64684
G1 X45.367 Y113.856 E0.00410
G1 X45.438 Y114.329 E0.01508
G1 X30.962 Y99.853 E0.64472
G1 X31.078 Y100.505 E0.02083
G1 X45.532 Y114.959 E0.64377
G1 X45.591 Y115.351 E0.01247
G1 X45.690 Y115.653 E0.01003
G1 X31.193 Y101.156 E0.64567
G1 X31.309 Y101.807 E0.02083
G1 X45.954 Y116.452 E0.65225
G1 X46.064 Y116.786 E0.01109
G1 X46.417 Y117.451 E0.02368
G1 X31.443 Y102.477 E0.66690
G1 X31.635 Y103.205 E0.02371
G1 X66.965 Y138.535 E1.57351
G1 X67.102 Y138.136 E0.01328
G1 X50.160 Y121.194 E0.75457
G1 X51.094 Y121.592 E0.03199
G1 X67.239 Y137.737 E0.71905
G1 X67.376 Y137.338 E0.01328
G1 X51.890 Y121.853 E0.68968
G1 X52.593 Y122.020 E0.02275
G1 X67.513 Y136.940 E0.66448
G1 X67.650 Y136.541 E0.01328
G1 X53.230 Y122.122 E0.64221
G1 X53.802 Y122.158 E0.01805
G1 X67.787 Y136.142 E0.62282
G1 X67.924 Y135.744 E0.01328
G1 X54.374 Y122.195 E0.60344
G1 X54.870 Y122.155 E0.01567
G1 X68.060 Y135.345 E0.58745
G1 X68.197 Y134.946 E0.01328
G1 X55.354 Y122.103 E0.57199
G1 X55.838 Y122.052 E0.01533
G1 X68.334 Y134.547 E0.55653
G1 X68.451 Y134.129 E0.01368
G1 X56.272 Y121.949 E0.54245
G1 X56.689 Y121.831 E0.01366
G1 X68.561 Y133.703 E0.52873
G1 X68.670 Y133.277 E0.01386
G1 X57.107 Y121.713 E0.51502
G1 X57.409 Y121.627 E0.00989
G1 X57.509 Y121.580 E0.00349
G1 X68.780 Y132.851 E0.50198
G1 X68.889 Y132.424 E0.01386
G1 X57.871 Y121.406 E0.49071
G1 X58.234 Y121.233 E0.01265
G1 X68.999 Y131.998 E0.47944
G1 X69.108 Y131.572 E0.01386
G1 X58.596 Y121.060 E0.46818
G1 X58.773 Y120.976 E0.00617
G1 X58.934 Y120.862 E0.00620
G1 X69.218 Y131.146 E0.45802
G1 X69.327 Y130.720 E0.01386
G1 X59.247 Y120.640 E0.44892
G1 X59.561 Y120.418 E0.01210
G1 X69.437 Y130.294 E0.43983
G1 X69.538 Y129.859 E0.01404
G1 X59.875 Y120.196 E0.43038
G1 X60.167 Y119.953 E0.01198
G1 X69.617 Y129.403 E0.42090
G1 X69.697 Y128.947 E0.01459
G1 X60.446 Y119.696 E0.41200
G1 X60.712 Y119.427 E0.01193
G1 X69.776 Y128.490 E0.40368
G1 X69.855 Y128.034 E0.01459
G1 X60.969 Y119.147 E0.39579
G1 X61.206 Y118.850 E0.01200
G1 X69.935 Y127.578 E0.38873
G1 X70.014 Y127.121 E0.01459
G1 X61.428 Y118.536 E0.38238
G1 X61.650 Y118.222 E0.01210
G1 X70.093 Y126.665 E0.37603
G1 X70.173 Y126.209 E0.01459
G1 X61.872 Y117.908 E0.36968
M73 Q2 S75
G1 X61.949 Y117.799 E0.00420
G1 X62.062 Y117.563 E0.00826
G1 X70.252 Y125.753 E0.36475
M73 P2 R75
G1 X70.320 Y125.285 E0.01488
G1 X62.235 Y117.200 E0.36007
G1 X62.409 Y116.838 E0.01265
G1 X70.366 Y124.795 E0.35439
G1 X70.411 Y124.305 E0.01550
G1 X62.582 Y116.476 E0.34870
G1 X62.706 Y116.064 E0.01353
G1 X70.457 Y123.815 E0.34520
G1 X70.502 Y123.325 E0.01550
G1 X62.824 Y115.647 E0.34196
G1 X62.942 Y115.229 E0.01366
G1 X70.548 Y122.835 E0.33873
G1 X70.593 Y122.345 E0.01550
G1 X63.034 Y114.785 E0.33669
G1 X63.085 Y114.301 E0.01533
G1 X70.639 Y121.855 E0.33642
G1 X70.685 Y121.365 E0.01550
G1 X63.137 Y113.817 E0.33616
G1 X63.173 Y113.478 E0.01075
G1 X63.162 Y113.307 E0.00540
G1 X70.730 Y120.875 E0.33706
G1 X70.738 Y120.347 E0.01662
G1 X63.126 Y112.734 E0.33903
G1 X63.089 Y112.162 E0.01805
G1 X70.745 Y119.818 E0.34097
G1 X70.752 Y119.290 E0.01665
G1 X62.966 Y111.504 E0.34676
G1 X62.799 Y110.801 E0.02275
G1 X70.759 Y118.761 E0.35452
G1 X70.766 Y118.232 E0.01665
G1 X62.500 Y109.966 E0.36815
G1 X62.134 Y109.108 E0.02940
G1 X62.055 Y108.985 E0.00458
G1 X70.941 Y117.871 E0.39576
G1 F8640
G1 X68.613 Y115.544 E-0.76000
G1 E-0.04000 F2100.00000
G1 Z0.800 F10800.000
G1 X59.043 Y105.974
G1 Z0.200
G1 E0.80000 F2100.00000
G1 F1200
G1 X28.706 Y75.637 E1.35114
G1 X29.002 Y75.397 E0.01199
G1 X70.780 Y117.175 E1.86069
G1 X70.787 Y116.647 E0.01665
G1 X29.303 Y75.163 E1.84759
G1 X29.624 Y74.948 E0.01216
G1 X70.782 Y116.106 E1.83306
G1 X70.744 Y115.532 E0.01810
G1 X29.945 Y74.733 E1.81708
G1 X30.266 Y74.519 E0.01216
G1 X70.706 Y114.959 E1.80109
G1 X70.668 Y114.385 E0.01810
G1 X30.587 Y74.304 E1.78511
G1 X30.908 Y74.089 E0.01216
G1 X70.630 Y113.812 E1.76913
G1 X70.592 Y113.238 E0.01810
G1 X31.229 Y73.875 E1.75314
G1 X31.550 Y73.660 E0.01216
G1 X70.554 Y112.665 E1.73716
G1 X70.517 Y112.091 E0.01810
G1 X31.794 Y73.368 E1.72460
G1 X31.448 Y72.487 E0.02982
G1 X70.464 Y111.503 E1.73766
G1 X70.372 Y110.875 E0.01997
