; generated by Slic3r Prusa Edition 1.41.2+ on 2019-02-18 at 17:40:03

; 

; external perimeters extrusion width = 0.45mm
; perimeters extrusion width = 0.45mm
; infill extrusion width = 0.45mm
; solid infill extrusion width = 0.45mm
; top infill extrusion width = 0.40mm
; support material extrusion width = 0.35mm
; first layer extrusion width = 0.42mm

M73 P0 R253
M73 Q0 S256
M201 X1000 Y1000 Z1000 E5000 ; sets maximum accelerations, mm/sec^2
M203 X200 Y200 Z12 E120 ; sets maximum feedrates, mm/sec
M204 P1250 R1250 T1250 ; sets acceleration (P, T) and retract acceleration (R), mm/sec^2
M205 X8.00 Y8.00 Z0.40 E1.50 ; sets the jerk limits, mm/sec
M205 S0 T0 ; sets the minimum extruding and travel feed rate, mm/sec
M107
M115 U3.5.1 ; tell printer latest fw version
M83  ; extruder relative mode
M104 S165 ; set extruder temp minus 50 to avoid stringing during calibration
M140 S60 ; set bed temp
M190 S60 ; wait for bed temp
M109 S165 ; wait for extruder temp
G28 W ; home all without mesh bed level
G80 N7 ; mesh bed leveling
G1 Y-3.0 F1000.0 ; go outside print area
M104 S215 ; set extruder temp
M109 S215 ; wait for extruder temp
G92 E0.0
G1 X60.0 E9.0  F1000.0 ; intro line
M73 Q0 S256
M73 P0 R253
G1 X100.0 E12.5  F1000.0 ; intro line
G92 E0.0
M221 S95
M900 K30; Filament gcode
G21 ; set units to millimeters
G90 ; use absolute coordinates
M83 ; use relative distances for extrusion
;BEFORE_LAYER_CHANGE
G92 E0.0
;0.2


G1 E-0.80000 F2100.00000
G1 Z0.600 F10800.000
;AFTER_LAYER_CHANGE
;0.2
G1 X62.303 Y68.043
G1 Z0.200
G1 E0.80000 F2100.00000
M204 S1000
G1 F1200
G1 X62.764 Y67.346 E0.02620
G1 X69.641 Y60.508 E0.30405
G1 X70.229 Y60.126 E0.02202
G1 X70.909 Y59.949 E0.02202
G1 X105.797 Y59.770 E1.09389
G1 X145.024 Y59.770 E1.22993
G1 X180.143 Y59.982 E1.10117
G1 X180.879 Y60.277 E0.02484
G1 X181.464 Y60.817 E0.02496
G1 X186.205 Y68.093 E0.27231
G1 X186.368 Y68.554 E0.01532
G1 X186.425 Y69.043 E0.01544
G1 X186.425 Y142.065 E2.28956
G1 X186.260 Y142.888 E0.02631
G1 X185.797 Y143.588 E0.02631
G1 X181.132 Y148.164 E0.20490
G1 X180.518 Y148.533 E0.02247
G1 X179.813 Y148.685 E0.02259
G1 X175.192 Y148.857 E0.14501
G1 X71.109 Y148.857 E3.26345
G1 X70.489 Y148.766 E0.01964
G1 X69.920 Y148.503 E0.01964
G1 X62.790 Y143.444 E0.27414
G1 X62.307 Y142.731 E0.02698
G1 X62.136 Y141.884 E0.02709
G1 X62.137 Y68.861 E2.28959
G1 X62.291 Y68.101 E0.02431
; PURGING FINISHED
G1 F8640
G1 X62.764 Y67.346 E-0.20582
G1 X64.466 Y65.654 E-0.55418
G1 E-0.04000 F2100.00000
G1 Z0.800 F10800.000
G1 X64.325 Y68.880
G1 Z0.200
G1 E0.80000 F2100.00000
G1 F1200
G1 X64.325 Y104.971 E1.13163
G1 X65.079 Y104.971 E0.02365
G1 X65.079 Y69.049 E1.12631
G1 X65.833 Y69.049 E0.02365
G1 X65.833 Y104.971 E1.12631
G1 X66.588 Y104.971 E0.02365
G1 X66.588 Y69.049 E1.12631
G1 X67.342 Y69.049 E0.02365
G1 X67.342 Y104.971 E1.12631
G1 X68.096 Y104.971 E0.02365
G1 X68.096 Y69.049 E1.12631
G1 X68.211 Y69.049 E0.00363
G1 X68.211 Y72.427 E0.10591
G1 X68.586 Y72.801 E0.01659
G1 X68.850 Y72.801 E0.00829
G1 X68.850 Y100.099 E0.85591
G1 X69.604 Y100.099 E0.02365
G1 X69.604 Y72.801 E0.85591
G1 X70.358 Y72.801 E0.02365
G1 X70.358 Y100.099 E0.85591
G1 X71.112 Y100.099 E0.02365
G1 X71.112 Y72.801 E0.85591
G1 X71.867 Y72.801 E0.02365
G1 X71.867 Y100.099 E0.85591
G1 X72.621 Y100.099 E0.02365
G1 X72.621 Y72.801 E0.85591
G1 X73.375 Y72.801 E0.02365
G1 X73.375 Y100.269 E0.86123
G1 F8640
G1 X73.375 Y96.977 E-0.76000
G1 E-0.04000 F2100.00000
G1 Z0.800 F10800.000
G1 X64.325 Y105.793
G1 Z0.200
G1 E0.80000 F2100.00000
G1 F1200
G1 X64.325 Y141.884 E1.13163
G1 X65.079 Y141.884 E0.02365
G1 X65.079 Y105.962 E1.12631
G1 X65.833 Y105.962 E0.02365
G1 X65.833 Y141.884 E1.12631
G1 X66.588 Y141.884 E0.02365
G1 X66.588 Y105.962 E1.12631
G1 X67.342 Y105.962 E0.02365
G1 X67.342 Y141.884 E1.12631
G1 X68.096 Y141.884 E0.02365
G1 X68.096 Y105.962 E1.12631
G1 X68.211 Y105.962 E0.00363
G1 X68.211 Y109.527 E0.11176
G1 X68.586 Y109.901 E0.01659
G1 X68.850 Y109.901 E0.00829
G1 X68.850 Y137.199 E0.85591
G1 X69.604 Y137.199 E0.02365
G1 X69.604 Y109.901 E0.85591
M73 Q0 S255
G1 X70.358 Y109.901 E0.02365
G1 X70.358 Y137.199 E0.85591
M73 P0 R252
G1 X71.112 Y137.199 E0.02365
G1 X71.112 Y109.901 E0.85591
G1 X71.867 Y109.901 E0.02365
G1 X71.867 Y137.199 E0.85591
G1 X72.621 Y137.199 E0.02365
G1 X72.621 Y109.901 E0.85591
G1 X73.375 Y109.901 E0.02365
G1 X73.375 Y137.369 E0.86123
G1 F8640
G1 X73.375 Y134.077 E-0.76000
G1 E-0.04000 F2100.00000
G1 Z0.800 F10800.000
G1 X71.112 Y146.668
G1 Z0.200
G1 E0.80000 F2100.00000
G1 F1200
G1 X71.112 Y143.239 E0.10753
G1 X71.867 Y143.239 E0.02365
G1 X71.867 Y146.499 E0.10221
G1 X72.621 Y146.499 E0.02365
G1 X72.621 Y143.239 E0.10221
G1 X73.375 Y143.239 E0.02365
G1 X73.375 Y146.499 E0.10221
G1 X74.129 Y146.499 E0.02365
G1 X74.129 Y62.128 E2.64538
G1 X74.883 Y62.128 E0.02365
G1 X74.883 Y146.499 E2.64538
G1 X75.637 Y146.499 E0.02365
G1 X75.637 Y62.128 E2.64538
G1 X76.392 Y62.128 E0.02365
G1 X76.392 Y146.499 E2.64538
G1 X77.146 Y146.499 E0.02365
G1 X77.146 Y124.419 E0.69228
G1 X77.900 Y124.419 E0.02365
G1 X77.900 Y146.499 E0.69228
G1 X78.654 Y146.499 E0.02365
G1 X78.654 Y124.419 E0.69228
G1 X78.736 Y124.419 E0.00257
G1 X78.736 Y129.033 E0.14467
G1 X79.408 Y129.033 E0.02107
G1 X79.408 Y146.499 E0.54761
G1 X80.162 Y146.499 E0.02365
G1 X80.162 Y129.033 E0.54761
G1 X80.917 Y129.033 E0.02365
G1 X80.917 Y146.499 E0.54761
G1 X81.671 Y146.499 E0.02365
G1 X81.671 Y131.340 E0.47527
G1 X82.425 Y131.340 E0.02365
G1 X82.425 Y146.499 E0.47527
G1 X83.179 Y146.499 E0.02365
G1 X83.179 Y131.340 E0.47527
G1 X83.350 Y131.340 E0.00537
G1 X83.350 Y133.647 E0.07234
G1 X83.933 Y133.647 E0.01828
G1 X83.933 Y146.499 E0.40294
G1 X84.687 Y146.499 E0.02365
G1 X84.687 Y133.647 E0.40294
G1 X85.441 Y133.647 E0.02365
G1 X85.441 Y146.499 E0.40294
G1 X86.196 Y146.499 E0.02365
G1 X86.196 Y133.647 E0.40294
G1 X86.950 Y133.647 E0.02365
G1 X86.950 Y146.499 E0.40294
G1 X87.704 Y146.499 E0.02365
G1 X87.704 Y133.647 E0.40294
G1 X88.458 Y133.647 E0.02365
G1 X88.458 Y146.499 E0.40294
G1 X89.212 Y146.499 E0.02365
G1 X89.212 Y133.647 E0.40294
G1 X89.966 Y133.647 E0.02365
G1 X89.966 Y146.499 E0.40294
G1 X90.721 Y146.499 E0.02365
G1 X90.721 Y133.647 E0.40294
G1 X91.263 Y133.647 E0.01700
G1 X91.263 Y131.340 E0.07234
G1 X91.475 Y131.340 E0.00664
G1 X91.475 Y146.499 E0.47527
G1 X92.229 Y146.499 E0.02365
G1 X92.229 Y131.340 E0.47527
G1 X92.983 Y131.340 E0.02365
G1 X92.983 Y146.499 E0.47527
G1 X93.737 Y146.499 E0.02365
G1 X93.737 Y131.340 E0.47527
G1 X94.491 Y131.340 E0.02365
G1 X94.491 Y146.499 E0.47527
G1 X95.246 Y146.499 E0.02365
G1 X95.246 Y131.340 E0.47527
G1 X95.877 Y131.340 E0.01980
G1 X95.877 Y126.726 E0.14467
G1 X96.000 Y126.726 E0.00385
G1 X96.000 Y146.499 E0.61995
G1 X96.754 Y146.499 E0.02365
G1 X96.754 Y126.726 E0.61995
G1 X97.508 Y126.726 E0.02365
G1 X97.508 Y146.499 E0.61995
G1 X98.262 Y146.499 E0.02365
G1 X98.262 Y62.128 E2.64538
G1 X99.016 Y62.128 E0.02365
G1 X99.016 Y146.499 E2.64538
G1 X99.771 Y146.499 E0.02365
G1 X99.771 Y62.128 E2.64538
M73 Q0 S254
M73 P0 R251
G1 X100.525 Y62.128 E0.02365
G1 X100.525 Y146.668 E2.65070
G1 X105.804 Y146.668 F10800.000
G1 F1200
G1 X105.804 Y143.239 E0.10753
G1 X105.050 Y143.239 E0.02365
G1 X105.050 Y146.499 E0.10221
G1 X104.295 Y146.499 E0.02365
G1 X104.295 Y143.239 E0.10221
G1 X103.541 Y143.239 E0.02365
G1 X103.541 Y146.499 E0.10221
G1 X102.787 Y146.499 E0.02365
G1 X102.787 Y143.239 E0.10221
G1 X102.033 Y143.239 E0.02365
G1 X102.033 Y146.499 E0.10221
G1 X101.279 Y146.499 E0.02365
G1 X101.279 Y62.128 E2.64538
G1 X102.033 Y62.128 E0.02365
G1 X102.033 Y66.761 E0.14528
G1 X102.787 Y66.761 E0.02365
G1 X102.787 Y62.128 E0.14528
G1 X103.541 Y62.128 E0.02365
G1 X103.541 Y66.761 E0.14528
G1 X104.295 Y66.761 E0.02365
G1 X104.295 Y62.128 E0.14528
G1 X105.050 Y62.128 E0.02365
G1 X105.050 Y66.761 E0.14528
G1 X105.804 Y66.761 E0.02365
G1 X105.804 Y61.958 E0.15060
G1 F8640
G1 X105.804 Y65.250 E-0.76000
G1 E-0.04000 F2100.00000
G1 Z0.800 F10800.000
G1 X108.066 Y61.958
G1 Z0.200
G1 E0.80000 F2100.00000
G1 F1200
G1 X108.066 Y66.761 E0.15060
G1 X108.820 Y66.761 E0.02365
G1 X108.820 Y62.128 E0.14528
G1 X109.575 Y62.128 E0.02365
G1 X109.575 Y66.761 E0.14528
G1 X110.329 Y66.761 E0.02365
G1 X110.329 Y62.128 E0.14528
G1 X111.083 Y62.128 E0.02365
G1 X111.083 Y66.867 E0.14860
G1 X111.351 Y67.136 E0.01189
G1 X111.351 Y72.427 E0.16591
G1 X111.083 Y72.695 E0.01189
G1 X111.083 Y100.205 E0.86255
G1 X110.977 Y100.099 E0.00470
G1 X110.329 Y100.099 E0.02033
G1 X110.329 Y72.801 E0.85591
G1 X109.575 Y72.801 E0.02365
G1 X109.575 Y100.099 E0.85591
G1 X108.820 Y100.099 E0.02365
G1 X108.820 Y72.801 E0.85591
G1 X108.066 Y72.801 E0.02365
G1 X108.066 Y100.099 E0.85591
G1 X107.312 Y100.099 E0.02365
G1 X107.312 Y72.801 E0.85591
G1 X106.558 Y72.801 E0.02365
G1 X106.558 Y100.099 E0.85591
G1 X105.804 Y100.099 E0.02365
G1 X105.804 Y72.801 E0.85591
G1 X105.050 Y72.801 E0.02365
G1 X105.050 Y100.099 E0.85591
G1 X104.295 Y100.099 E0.02365
G1 X104.295 Y72.801 E0.85591
G1 X103.541 Y72.801 E0.02365
G1 X103.541 Y100.099 E0.85591
G1 X102.787 Y100.099 E0.02365
G1 X102.787 Y72.801 E0.85591
G1 X102.033 Y72.801 E0.02365
G1 X102.033 Y100.099 E0.85591
G1 X101.923 Y100.099 E0.00345
G1 X101.549 Y100.473 E0.01659
G1 X101.549 Y109.527 E0.28388
G1 X101.923 Y109.901 E0.01659
G1 X102.033 Y109.901 E0.00345
G1 X102.033 Y137.199 E0.85591
G1 X102.787 Y137.199 E0.02365
G1 X102.787 Y109.901 E0.85591
G1 X103.541 Y109.901 E0.02365
G1 X103.541 Y137.199 E0.85591
G1 X104.295 Y137.199 E0.02365
G1 X104.295 Y109.901 E0.85591
G1 X105.050 Y109.901 E0.02365
G1 X105.050 Y137.199 E0.85591
G1 X105.804 Y137.199 E0.02365
G1 X105.804 Y109.901 E0.85591
G1 X106.558 Y109.901 E0.02365
G1 X106.558 Y137.199 E0.85591
G1 X107.312 Y137.199 E0.02365
G1 X107.312 Y109.901 E0.85591
G1 X108.066 Y109.901 E0.02365
G1 X108.066 Y137.199 E0.85591
G1 X108.820 Y137.199 E0.02365
G1 X108.820 Y109.901 E0.85591
G1 X109.575 Y109.901 E0.02365
G1 X109.575 Y137.199 E0.85591
G1 X110.329 Y137.199 E0.02365
G1 X110.329 Y109.901 E0.85591
G1 X110.977 Y109.901 E0.02033
G1 X111.083 Y109.795 E0.00470
G1 X111.083 Y137.545 E0.87007
G1 F8640
G1 X111.083 Y134.253 E-0.76000
G1 E-0.04000 F2100.00000
G1 Z0.800 F10800.000
G1 X108.066 Y143.069
G1 Z0.200
G1 E0.80000 F2100.00000
G1 F1200
G1 X108.066 Y146.499 E0.10753
G1 X108.820 Y146.499 E0.02365
G1 X108.820 Y143.239 E0.10221
G1 X109.575 Y143.239 E0.02365
G1 X109.575 Y146.499 E0.10221
G1 X110.329 Y146.499 E0.02365
G1 X110.329 Y143.239 E0.10221
G1 X110.977 Y143.239 E0.02033
G1 X111.083 Y143.133 E0.00470
G1 X111.083 Y146.499 E0.10553
G1 X111.837 Y146.499 E0.02365
G1 X111.837 Y62.128 E2.64538
G1 X112.591 Y62.128 E0.02365
G1 X112.591 Y146.668 E2.65070
M73 Q1 S253
M73 P1 R250
G1 X134.462 Y146.668 F10800.000
G1 F1200
G1 X134.462 Y126.726 E0.62527
G1 X133.708 Y126.726 E0.02365
G1 X133.708 Y146.499 E0.61995
G1 X132.954 Y146.499 E0.02365
G1 X132.954 Y126.726 E0.61995
G1 X132.790 Y126.726 E0.00512
G1 X132.790 Y131.340 E0.14467
G1 X132.199 Y131.340 E0.01853
G1 X132.199 Y146.499 E0.47527
G1 X131.445 Y146.499 E0.02365
G1 X131.445 Y131.340 E0.47527
G1 X130.691 Y131.340 E0.02365
G1 X130.691 Y146.499 E0.47527
G1 X129.937 Y146.499 E0.02365
G1 X129.937 Y131.340 E0.47527
G1 X129.183 Y131.340 E0.02365
G1 X129.183 Y146.499 E0.47527
G1 X128.429 Y146.499 E0.02365
G1 X128.429 Y131.340 E0.47527
G1 X128.176 Y131.340 E0.00791
G1 X128.176 Y133.647 E0.07234
G1 X127.674 Y133.647 E0.01573
G1 X127.674 Y146.499 E0.40294
G1 X126.920 Y146.499 E0.02365
G1 X126.920 Y133.647 E0.40294
G1 X126.166 Y133.647 E0.02365
G1 X126.166 Y146.499 E0.40294
G1 X125.412 Y146.499 E0.02365
G1 X125.412 Y133.647 E0.40294
G1 X124.658 Y133.647 E0.02365
G1 X124.658 Y146.499 E0.40294
G1 X123.904 Y146.499 E0.02365
G1 X123.904 Y133.647 E0.40294
G1 X123.149 Y133.647 E0.02365
G1 X123.149 Y146.499 E0.40294
G1 X122.395 Y146.499 E0.02365
G1 X122.395 Y133.647 E0.40294
G1 X121.641 Y133.647 E0.02365
G1 X121.641 Y146.499 E0.40294
G1 X120.887 Y146.499 E0.02365
G1 X120.887 Y133.647 E0.40294
G1 X120.264 Y133.647 E0.01955
G1 X120.264 Y131.340 E0.07234
G1 X120.133 Y131.340 E0.00410
G1 X120.133 Y146.499 E0.47527
G1 X119.379 Y146.499 E0.02365
G1 X119.379 Y131.340 E0.47527
G1 X118.624 Y131.340 E0.02365
G1 X118.624 Y146.499 E0.47527
G1 X117.870 Y146.499 E0.02365
G1 X117.870 Y129.033 E0.54761
G1 X117.116 Y129.033 E0.02365
G1 X117.116 Y146.499 E0.54761
G1 X116.362 Y146.499 E0.02365
G1 X116.362 Y129.033 E0.54761
G1 X115.649 Y129.033 E0.02234
G1 X115.649 Y124.419 E0.14467
G1 X115.608 Y124.419 E0.00130
G1 X115.608 Y146.499 E0.69228
G1 X114.854 Y146.499 E0.02365
G1 X114.854 Y124.419 E0.69228
G1 X114.100 Y124.419 E0.02365
G1 X114.100 Y146.499 E0.69228
G1 X113.345 Y146.499 E0.02365
G1 X113.345 Y62.128 E2.64538
G1 X114.100 Y62.128 E0.02365
G1 X114.100 Y86.514 E0.76462
G1 X114.854 Y86.514 E0.02365
G1 X114.854 Y62.128 E0.76462
G1 X115.608 Y62.128 E0.02365
G1 X115.608 Y86.514 E0.76462
G1 X115.649 Y86.514 E0.00130
G1 X115.649 Y81.900 E0.14467
G1 X116.362 Y81.900 E0.02234
G1 X116.362 Y62.128 E0.61995
G1 X117.116 Y62.128 E0.02365
G1 X117.116 Y81.900 E0.61995
G1 X117.870 Y81.900 E0.02365
G1 X117.870 Y62.128 E0.61995
G1 X118.624 Y62.128 E0.02365
G1 X118.624 Y79.593 E0.54761
G1 X119.379 Y79.593 E0.02365
G1 X119.379 Y62.128 E0.54761
G1 X120.133 Y62.128 E0.02365
G1 X120.133 Y79.593 E0.54761
G1 X120.264 Y79.593 E0.00410
G1 X120.264 Y77.286 E0.07234
G1 X120.887 Y77.286 E0.01955
G1 X120.887 Y62.128 E0.47527
G1 X121.641 Y62.128 E0.02365
G1 X121.641 Y77.286 E0.47527
G1 X122.395 Y77.286 E0.02365
G1 X122.395 Y62.128 E0.47527
G1 X123.149 Y62.128 E0.02365
G1 X123.149 Y74.979 E0.40294
G1 X123.904 Y74.979 E0.02365
G1 X123.904 Y62.128 E0.40294
G1 X124.658 Y62.128 E0.02365
G1 X124.658 Y74.979 E0.40294
G1 X125.412 Y74.979 E0.02365
G1 X125.412 Y62.128 E0.40294
G1 X126.166 Y62.128 E0.02365
G1 X126.166 Y77.286 E0.47527
G1 X126.920 Y77.286 E0.02365
G1 X126.920 Y62.128 E0.47527
G1 X127.674 Y62.128 E0.02365
G1 X127.674 Y77.286 E0.47527
G1 X128.429 Y77.286 E0.02365
G1 X128.429 Y62.128 E0.47527
G1 X129.183 Y62.128 E0.02365
G1 X129.183 Y77.286 E0.47527
G1 X129.937 Y77.286 E0.02365
G1 X129.937 Y62.128 E0.47527
G1 X130.691 Y62.128 E0.02365
G1 X130.691 Y79.593 E0.54761
G1 X131.445 Y79.593 E0.02365
G1 X131.445 Y62.128 E0.54761
G1 X132.199 Y62.128 E0.02365
G1 X132.199 Y79.593 E0.54761
G1 X132.790 Y79.593 E0.01853
G1 X132.790 Y81.900 E0.07234
G1 X132.954 Y81.900 E0.00512
G1 X132.954 Y62.128 E0.61995
G1 X133.708 Y62.128 E0.02365
G1 X133.708 Y81.900 E0.61995
G1 X134.462 Y81.900 E0.02365
G1 X134.462 Y62.128 E0.61995
G1 X135.216 Y62.128 E0.02365
G1 X135.216 Y146.499 E2.64538
G1 X135.970 Y146.499 E0.02365
G1 X135.970 Y62.128 E2.64538
M73 Q1 S252
M73 P1 R249
G1 X136.724 Y62.128 E0.02365
G1 X136.724 Y146.499 E2.64538
G1 X137.478 Y146.499 E0.02365
G1 X137.478 Y62.128 E2.64538
G1 X138.233 Y62.128 E0.02365
G1 X138.233 Y146.499 E2.64538
G1 X138.987 Y146.499 E0.02365
G1 X138.987 Y143.202 E0.10335
G1 X139.023 Y143.239 E0.00161
G1 X139.741 Y143.239 E0.02251
G1 X139.741 Y146.499 E0.10221
G1 X140.495 Y146.499 E0.02365
G1 X140.495 Y143.239 E0.10221
G1 X141.249 Y143.239 E0.02365
G1 X141.249 Y146.499 E0.10221
G1 X142.003 Y146.499 E0.02365
G1 X142.003 Y143.239 E0.10221
G1 X142.758 Y143.239 E0.02365
G1 X142.758 Y146.668 E0.10753
G1 F8640
G1 X142.758 Y143.377 E-0.76000
G1 E-0.04000 F2100.00000
G1 Z0.800 F10800.000
G1 X145.020 Y143.069
G1 Z0.200
G1 E0.80000 F2100.00000
G1 F1200
G1 X145.020 Y146.499 E0.10753
G1 X145.774 Y146.499 E0.02365
G1 X145.774 Y143.239 E0.10221
G1 X146.528 Y143.239 E0.02365
G1 X146.528 Y146.499 E0.10221
G1 X147.283 Y146.499 E0.02365
G1 X147.283 Y143.239 E0.10221
G1 X148.037 Y143.239 E0.02365
G1 X148.037 Y146.499 E0.10221
G1 X148.791 Y146.499 E0.02365
G1 X148.791 Y62.128 E2.64538
G1 X149.545 Y62.128 E0.02365
G1 X149.545 Y146.499 E2.64538
G1 X150.299 Y146.499 E0.02365
G1 X150.299 Y62.128 E2.64538
G1 X151.053 Y62.128 E0.02365
G1 X151.053 Y86.514 E0.76462
G1 X151.807 Y86.514 E0.02365
G1 X151.807 Y62.128 E0.76462
G1 X152.562 Y62.128 E0.02365
G1 X152.562 Y86.514 E0.76462
G1 X152.563 Y81.900 E0.14467
G1 X153.316 Y81.900 E0.02361
G1 X153.316 Y62.128 E0.61995
G1 X154.070 Y62.128 E0.02365
