; generated by Slic3r Prusa Edition 1.41.2+ on 2019-02-23 at 12:40:32

; 

; external perimeters extrusion width = 0.45mm
; perimeters extrusion width = 0.45mm
; infill extrusion width = 0.45mm
; solid infill extrusion width = 0.45mm
; top infill extrusion width = 0.40mm
; support material extrusion width = 0.35mm
; first layer extrusion width = 0.42mm

M73 P0 R127
M73 Q0 S128
M201 X1000 Y1000 Z1000 E5000 ; sets maximum accelerations, mm/sec^2
M203 X200 Y200 Z12 E120 ; sets maximum feedrates, mm/sec
M204 P1250 R1250 T1250 ; sets acceleration (P, T) and retract acceleration (R), mm/sec^2
M205 X8.00 Y8.00 Z0.40 E1.50 ; sets the jerk limits, mm/sec
M205 S0 T0 ; sets the minimum extruding and travel feed rate, mm/sec
M107
M115 U3.5.1 ; tell printer latest fw version
M83  ; extruder relative mode
M104 S170 ; set extruder temp minus 50 to avoid stringing during calibration
M140 S60 ; set bed temp
M190 S60 ; wait for bed temp
M109 S170 ; wait for extruder temp
G28 W ; home all without mesh bed level
G80 N7 ; mesh bed leveling
G1 Y-3.0 F1000.0 ; go outside print area
M104 S220 ; set extruder temp
M109 S220 ; wait for extruder temp
G92 E0.0
G1 X60.0 E9.0  F1000.0 ; intro line
M73 Q0 S128
M73 P0 R127
G1 X100.0 E12.5  F1000.0 ; intro line
G92 E0.0
M221 S95
M900 K30; Filament gcode
G21 ; set units to millimeters
G90 ; use absolute coordinates
M83 ; use relative distances for extrusion
;BEFORE_LAYER_CHANGE
G92 E0.0
;0.2


G1 E-0.80000 F2100.00000
G1 Z0.600 F10800.000
;AFTER_LAYER_CHANGE
;0.2
G1 X66.133 Y70.503
G1 Z0.200
G1 E0.80000 F2100.00000
M204 S1100
G1 F1800
G1 X66.516 Y69.915 E0.02202
G1 X73.603 Y62.784 E0.31522
G1 X74.221 Y62.457 E0.02191
G1 X74.910 Y62.342 E0.02191
G1 X169.947 Y62.342 E2.97980
G1 X176.147 Y62.518 E0.19449
G1 X176.714 Y62.638 E0.01817
G1 X177.229 Y62.903 E0.01817
G1 X177.773 Y63.445 E0.02405
G1 X182.334 Y70.185 E0.25517
G1 X182.572 Y70.669 E0.01692
G1 X182.685 Y71.197 E0.01692
G1 X182.688 Y139.504 E2.14172
G1 X182.524 Y140.191 E0.02213
G1 X182.153 Y140.787 E0.02202
G1 X177.299 Y145.664 E0.21576
G1 X176.678 Y145.992 E0.02202
G1 X175.988 Y146.107 E0.02191
G1 X74.820 Y146.104 E3.17206
G1 X74.243 Y145.998 E0.01839
G1 X73.712 Y145.741 E0.01851
G1 X66.861 Y140.957 E0.26201
G1 X66.389 Y140.497 E0.02066
G1 X66.062 Y139.879 E0.02191
G1 X65.947 Y139.190 E0.02191
G1 X65.956 Y71.187 E2.13220
G1 X66.118 Y70.561 E0.02025
M204 S1200
; PURGING FINISHED
G1 F8640
G1 X66.516 Y69.915 E-0.17536
G1 X68.301 Y68.119 E-0.58464
G1 E-0.04000 F2100.00000
G1 Z0.800 F10800.000
G1 X68.135 Y71.387
G1 Z0.200
G1 E0.80000 F2100.00000
M204 S1100
G1 F1800
G1 X68.135 Y104.893 E1.05054
G1 X68.889 Y104.893 E0.02365
G1 X68.889 Y71.557 E1.04522
G1 X69.643 Y71.557 E0.02365
G1 X69.643 Y104.893 E1.04522
G1 X70.398 Y104.893 E0.02365
G1 X70.398 Y71.557 E1.04522
G1 X71.152 Y71.557 E0.02365
G1 X71.152 Y104.893 E1.04522
G1 X71.906 Y104.893 E0.02365
G1 X71.906 Y71.557 E1.04522
G1 X72.246 Y71.557 E0.01068
G1 X72.246 Y74.556 E0.09404
G1 X72.489 Y74.799 E0.01074
G1 X72.660 Y74.799 E0.00537
G1 X72.660 Y100.641 E0.81029
G1 X73.414 Y100.641 E0.02365
G1 X73.414 Y74.799 E0.81029
G1 X74.168 Y74.799 E0.02365
G1 X74.168 Y100.641 E0.81029
G1 X74.922 Y100.641 E0.02365
G1 X74.922 Y74.799 E0.81029
G1 X75.677 Y74.799 E0.02365
G1 X75.677 Y100.641 E0.81029
G1 X76.431 Y100.641 E0.02365
G1 X76.431 Y74.799 E0.81029
G1 X77.185 Y74.799 E0.02365
G1 X77.185 Y100.811 E0.81561
M204 S1200
G1 F8640
G1 X77.185 Y97.520 E-0.76000
G1 E-0.04000 F2100.00000
G1 Z0.800 F10800.000
G1 X68.135 Y105.672
G1 Z0.200
G1 E0.80000 F2100.00000
M204 S1100
G1 F1800
G1 X68.135 Y139.177 E1.05054
G1 X68.889 Y139.177 E0.02365
G1 X68.889 Y105.841 E1.04522
G1 X69.643 Y105.841 E0.02365
G1 X69.643 Y139.177 E1.04522
G1 X70.398 Y139.177 E0.02365
G1 X70.398 Y105.841 E1.04522
G1 X71.152 Y105.841 E0.02365
G1 X71.152 Y139.177 E1.04522
G1 X71.906 Y139.177 E0.02365
G1 X71.906 Y105.841 E1.04522
G1 X72.246 Y105.841 E0.01068
G1 X72.246 Y109.116 E0.10268
G1 X72.489 Y109.359 E0.01074
G1 X72.660 Y109.359 E0.00537
G1 X72.660 Y135.201 E0.81029
G1 X73.414 Y135.201 E0.02365
G1 X73.414 Y109.359 E0.81029
G1 X74.168 Y109.359 E0.02365
G1 X74.168 Y135.201 E0.81029
G1 X74.922 Y135.201 E0.02365
G1 X74.922 Y109.359 E0.81029
G1 X75.677 Y109.359 E0.02365
G1 X75.677 Y135.201 E0.81029
G1 X76.431 Y135.201 E0.02365
G1 X76.431 Y109.359 E0.81029
G1 X77.185 Y109.359 E0.02365
G1 X77.185 Y135.371 E0.81561
M204 S1200
G1 F8640
G1 X77.185 Y132.080 E-0.76000
G1 E-0.04000 F2100.00000
G1 Z0.800 F10800.000
G1 X77.185 Y143.918
G1 Z0.200
G1 E0.80000 F2100.00000
M204 S1100
G1 F1800
G1 X77.185 Y140.474 E0.10800
G1 X76.431 Y140.474 E0.02365
G1 X76.431 Y143.748 E0.10268
G1 X75.677 Y143.748 E0.02365
G1 X75.677 Y140.474 E0.10268
G1 X74.922 Y140.474 E0.02365
G1 X74.922 Y143.918 E0.10800
M204 S1200
G1 X79.447 Y143.918 F10800.000
M204 S1100
G1 F1800
G1 X79.447 Y64.700 E2.48382
G1 X78.693 Y64.700 E0.02365
G1 X78.693 Y143.748 E2.47850
G1 X77.939 Y143.748 E0.02365
G1 X77.939 Y64.700 E2.47850
G1 X77.185 Y64.700 E0.02365
G1 X77.185 Y69.526 E0.15132
G1 X76.431 Y69.526 E0.02365
G1 X76.431 Y64.700 E0.15132
G1 X75.677 Y64.700 E0.02365
G1 X75.677 Y69.526 E0.15132
G1 X74.922 Y69.526 E0.02365
G1 X74.922 Y64.530 E0.15665
M204 S1200
G1 X101.318 Y64.530 F10800.000
M204 S1100
G1 F1800
G1 X101.318 Y86.608 E0.69222
G1 X100.564 Y86.608 E0.02365
G1 X100.564 Y64.700 E0.68690
G1 X99.810 Y64.700 E0.02365
G1 X99.810 Y86.608 E0.68690
G1 X99.419 Y86.608 E0.01226
G1 X99.419 Y82.037 E0.14333
G1 X99.056 Y82.037 E0.01139
G1 X99.056 Y64.700 E0.54357
G1 X98.301 Y64.700 E0.02365
G1 X98.301 Y82.037 E0.54357
G1 X97.547 Y82.037 E0.02365
G1 X97.547 Y64.700 E0.54357
G1 X96.793 Y64.700 E0.02365
G1 X96.793 Y79.751 E0.47191
G1 X96.039 Y79.751 E0.02365
G1 X96.039 Y64.700 E0.47191
M73 Q0 S127
M73 P0 R126
G1 X95.285 Y64.700 E0.02365
G1 X95.285 Y79.751 E0.47191
G1 X94.848 Y79.751 E0.01371
G1 X94.848 Y77.465 E0.07166
G1 X94.531 Y77.465 E0.00994
G1 X94.531 Y64.700 E0.40025
G1 X93.776 Y64.700 E0.02365
G1 X93.776 Y77.465 E0.40025
G1 X93.022 Y77.465 E0.02365
G1 X93.022 Y64.700 E0.40025
G1 X92.268 Y64.700 E0.02365
G1 X92.268 Y77.465 E0.40025
G1 X91.514 Y77.465 E0.02365
G1 X91.514 Y64.700 E0.40025
G1 X90.760 Y64.700 E0.02365
G1 X90.760 Y77.465 E0.40025
G1 X90.006 Y77.465 E0.02365
G1 X90.006 Y64.700 E0.40025
G1 X89.251 Y64.700 E0.02365
G1 X89.251 Y77.465 E0.40025
G1 X88.497 Y77.465 E0.02365
G1 X88.497 Y64.700 E0.40025
G1 X87.743 Y64.700 E0.02365
G1 X87.743 Y77.465 E0.40025
G1 X87.042 Y77.465 E0.02198
G1 X87.042 Y79.751 E0.07166
G1 X86.989 Y79.751 E0.00167
G1 X86.989 Y64.700 E0.47191
G1 X86.235 Y64.700 E0.02365
G1 X86.235 Y79.751 E0.47191
G1 X85.481 Y79.751 E0.02365
G1 X85.481 Y64.700 E0.47191
G1 X84.727 Y64.700 E0.02365
G1 X84.727 Y82.037 E0.54357
G1 X83.972 Y82.037 E0.02365
G1 X83.972 Y64.700 E0.54357
G1 X83.218 Y64.700 E0.02365
G1 X83.218 Y82.037 E0.54357
G1 X82.471 Y82.037 E0.02343
G1 X82.471 Y84.322 E0.07166
G1 X82.464 Y64.700 E0.61524
G1 X81.710 Y64.700 E0.02365
G1 X81.710 Y84.322 E0.61524
G1 X80.956 Y84.322 E0.02365
G1 X80.956 Y64.700 E0.61524
G1 X80.202 Y64.700 E0.02365
G1 X80.202 Y143.748 E2.47850
G1 X80.956 Y143.748 E0.02365
G1 X80.956 Y126.412 E0.54357
G1 X81.710 Y126.412 E0.02365
G1 X81.710 Y143.748 E0.54357
G1 X82.464 Y143.748 E0.02365
G1 X82.464 Y126.412 E0.54357
G1 X82.471 Y128.698 E0.07166
G1 X83.218 Y128.698 E0.02343
G1 X83.218 Y143.748 E0.47191
G1 X83.972 Y143.748 E0.02365
G1 X83.972 Y128.698 E0.47191
G1 X84.727 Y128.698 E0.02365
G1 X84.727 Y143.748 E0.47191
G1 X85.481 Y143.748 E0.02365
G1 X85.481 Y130.983 E0.40025
G1 X86.235 Y130.983 E0.02365
G1 X86.235 Y143.748 E0.40025
G1 X86.989 Y143.748 E0.02365
G1 X86.989 Y130.983 E0.40025
G1 X87.042 Y130.983 E0.00167
G1 X87.042 Y133.269 E0.07166
G1 X87.743 Y133.269 E0.02198
G1 X87.743 Y143.748 E0.32858
G1 X88.497 Y143.748 E0.02365
G1 X88.497 Y133.269 E0.32858
G1 X89.251 Y133.269 E0.02365
G1 X89.251 Y143.748 E0.32858
G1 X90.006 Y143.748 E0.02365
G1 X90.006 Y133.269 E0.32858
G1 X90.760 Y133.269 E0.02365
G1 X90.760 Y143.748 E0.32858
G1 X91.514 Y143.748 E0.02365
G1 X91.514 Y133.269 E0.32858
G1 X92.268 Y133.269 E0.02365
G1 X92.268 Y143.748 E0.32858
G1 X93.022 Y143.748 E0.02365
G1 X93.022 Y130.983 E0.40025
G1 X93.776 Y130.983 E0.02365
G1 X93.776 Y143.748 E0.40025
G1 X94.531 Y143.748 E0.02365
G1 X94.531 Y130.983 E0.40025
G1 X95.285 Y130.983 E0.02365
G1 X95.285 Y143.748 E0.40025
G1 X96.039 Y143.748 E0.02365
G1 X96.039 Y130.983 E0.40025
G1 X96.793 Y130.983 E0.02365
G1 X96.793 Y143.748 E0.40025
G1 X97.547 Y143.748 E0.02365
G1 X97.547 Y128.698 E0.47191
G1 X98.301 Y128.698 E0.02365
G1 X98.301 Y143.748 E0.47191
G1 X99.056 Y143.748 E0.02365
G1 X99.056 Y128.698 E0.47191
G1 X99.419 Y128.698 E0.01139
G1 X99.419 Y124.126 E0.14333
G1 X99.810 Y124.126 E0.01226
G1 X99.810 Y143.748 E0.61524
G1 X100.564 Y143.748 E0.02365
G1 X100.564 Y124.126 E0.61524
G1 X101.318 Y124.126 E0.02365
G1 X101.318 Y143.748 E0.61524
G1 X102.072 Y143.748 E0.02365
G1 X102.072 Y64.700 E2.47850
G1 X102.826 Y64.700 E0.02365
G1 X102.826 Y143.918 E2.48382
M204 S1200
G1 X107.351 Y140.304 F10800.000
M204 S1100
G1 F1800
G1 X107.351 Y143.748 E0.10800
G1 X106.597 Y143.748 E0.02365
G1 X106.597 Y140.474 E0.10268
G1 X105.843 Y140.474 E0.02365
G1 X105.843 Y143.748 E0.10268
G1 X105.089 Y143.748 E0.02365
G1 X105.089 Y140.474 E0.10268
G1 X104.335 Y140.474 E0.02365
G1 X104.335 Y143.748 E0.10268
G1 X103.581 Y143.748 E0.02365
G1 X103.581 Y140.450 E0.10341
G1 X103.361 Y140.231 E0.00971
G1 X103.361 Y135.444 E0.15011
G1 X103.581 Y135.225 E0.00971
G1 X103.581 Y109.335 E0.81174
G1 X103.604 Y109.359 E0.00103
G1 X104.335 Y109.359 E0.02292
G1 X104.335 Y135.201 E0.81029
G1 X105.089 Y135.201 E0.02365
G1 X105.089 Y109.359 E0.81029
G1 X105.843 Y109.359 E0.02365
G1 X105.843 Y135.201 E0.81029
G1 X106.597 Y135.201 E0.02365
G1 X106.597 Y109.359 E0.81029
G1 X107.351 Y109.359 E0.02365
G1 X107.351 Y135.201 E0.81029
G1 X108.105 Y135.201 E0.02365
G1 X108.105 Y109.359 E0.81029
G1 X108.860 Y109.359 E0.02365
G1 X108.860 Y135.201 E0.81029
G1 X109.614 Y135.201 E0.02365
G1 X109.614 Y109.359 E0.81029
G1 X110.368 Y109.359 E0.02365
G1 X110.368 Y135.201 E0.81029
G1 X111.122 Y135.201 E0.02365
G1 X111.122 Y109.359 E0.81029
G1 X111.836 Y109.359 E0.02239
G1 X111.876 Y109.319 E0.00177
G1 X111.876 Y135.481 E0.82032
M204 S1200
G1 F8640
G1 X111.876 Y132.190 E-0.76000
G1 E-0.04000 F2100.00000
G1 Z0.800 F10800.000
G1 X108.860 Y140.304
G1 Z0.200
G1 E0.80000 F2100.00000
M204 S1100
G1 F1800
G1 X108.860 Y143.748 E0.10800
G1 X109.614 Y143.748 E0.02365
G1 X109.614 Y140.474 E0.10268
G1 X110.368 Y140.474 E0.02365
G1 X110.368 Y143.748 E0.10268
G1 X111.122 Y143.748 E0.02365
G1 X111.122 Y140.474 E0.10268
G1 X111.836 Y140.474 E0.02239
G1 X111.876 Y140.434 E0.00177
G1 X111.876 Y143.748 E0.10393
G1 X112.630 Y143.748 E0.02365
G1 X112.630 Y64.700 E2.47850
G1 X113.385 Y64.700 E0.02365
G1 X113.385 Y143.918 E2.48382
M204 S1200
G1 X138.272 Y140.304 F10800.000
M204 S1100
G1 F1800
G1 X138.272 Y143.748 E0.10800
G1 X139.026 Y143.748 E0.02365
G1 X139.026 Y140.474 E0.10268
G1 X139.780 Y140.474 E0.02365
G1 X139.780 Y143.748 E0.10268
G1 X140.534 Y143.748 E0.02365
G1 X140.534 Y140.474 E0.10268
G1 X141.288 Y140.474 E0.02365
G1 X141.288 Y143.918 E0.10800
M204 S1200
G1 F8640
G1 X141.288 Y140.627 E-0.76000
G1 E-0.04000 F2100.00000
G1 Z0.800 F10800.000
G1 X143.551 Y143.918
G1 Z0.200
G1 E0.80000 F2100.00000
M204 S1100
G1 F1800
G1 X143.551 Y140.474 E0.10800
G1 X144.305 Y140.474 E0.02365
G1 X144.305 Y143.748 E0.10268
G1 X145.059 Y143.748 E0.02365
G1 X145.059 Y140.474 E0.10268
G1 X145.813 Y140.474 E0.02365
G1 X145.813 Y143.918 E0.10800
M204 S1200
G1 X148.076 Y143.918 F10800.000
M204 S1100
G1 F1800
G1 X148.076 Y64.700 E2.48382
G1 X147.322 Y64.700 E0.02365
G1 X147.322 Y143.748 E2.47850
M73 Q1 S126
M73 P1 R125
G1 X146.568 Y143.748 E0.02365
G1 X146.568 Y64.700 E2.47850
G1 X145.813 Y64.700 E0.02365
G1 X145.813 Y69.526 E0.15132
G1 X145.059 Y69.526 E0.02365
G1 X145.059 Y64.700 E0.15132
G1 X144.305 Y64.700 E0.02365
G1 X144.305 Y69.526 E0.15132
G1 X143.551 Y69.526 E0.02365
G1 X143.551 Y64.530 E0.15665
M204 S1200
G1 F8640
G1 X143.551 Y67.822 E-0.76000
G1 E-0.04000 F2100.00000
G1 Z0.800 F10800.000
G1 X141.288 Y69.696
G1 Z0.200
G1 E0.80000 F2100.00000
M204 S1100
G1 F1800
G1 X141.288 Y64.700 E0.15665
G1 X140.534 Y64.700 E0.02365
G1 X140.534 Y69.526 E0.15132
G1 X139.780 Y69.526 E0.02365
G1 X139.780 Y64.700 E0.15132
G1 X139.026 Y64.700 E0.02365
G1 X139.026 Y69.526 E0.15132
G1 X138.272 Y69.526 E0.02365
G1 X138.272 Y64.700 E0.15132
G1 X137.518 Y64.700 E0.02365
G1 X137.518 Y143.748 E2.47850
G1 X136.764 Y143.748 E0.02365
G1 X136.764 Y64.700 E2.47850
G1 X136.009 Y64.700 E0.02365
G1 X136.009 Y143.748 E2.47850
G1 X135.255 Y143.748 E0.02365
G1 X135.255 Y124.126 E0.61524
G1 X134.501 Y124.126 E0.02365
G1 X134.501 Y143.748 E0.61524
G1 X133.747 Y143.748 E0.02365
G1 X133.747 Y124.126 E0.61524
G1 X133.703 Y124.126 E0.00137
G1 X133.703 Y128.698 E0.14333
G1 X132.993 Y128.698 E0.02227
G1 X132.993 Y143.748 E0.47191
G1 X132.239 Y143.748 E0.02365
G1 X132.239 Y128.698 E0.47191
G1 X131.484 Y128.698 E0.02365
G1 X131.484 Y143.748 E0.47191
G1 X130.730 Y143.748 E0.02365
G1 X130.730 Y130.983 E0.40025
G1 X129.976 Y130.983 E0.02365
G1 X129.976 Y143.748 E0.40025
G1 X129.222 Y143.748 E0.02365
G1 X129.222 Y130.983 E0.40025
G1 X128.468 Y130.983 E0.02365
G1 X128.468 Y143.748 E0.40025
G1 X127.714 Y143.748 E0.02365
G1 X127.714 Y130.983 E0.40025
G1 X126.959 Y130.983 E0.02365
G1 X126.959 Y143.748 E0.40025
G1 X126.205 Y143.748 E0.02365
G1 X126.205 Y133.269 E0.32858
G1 X125.451 Y133.269 E0.02365
G1 X125.451 Y143.748 E0.32858
G1 X124.697 Y143.748 E0.02365
G1 X124.697 Y133.269 E0.32858
G1 X123.943 Y133.269 E0.02365
G1 X123.943 Y143.748 E0.32858
G1 X123.189 Y143.748 E0.02365
G1 X123.189 Y130.983 E0.40025
G1 X122.434 Y130.983 E0.02365
G1 X122.434 Y143.748 E0.40025
G1 X121.680 Y143.748 E0.02365
G1 X121.680 Y130.983 E0.40025
G1 X120.926 Y130.983 E0.02365
G1 X120.926 Y143.748 E0.40025
G1 X120.172 Y143.748 E0.02365
G1 X120.172 Y130.983 E0.40025
G1 X119.418 Y130.983 E0.02365
G1 X119.418 Y143.748 E0.40025
G1 X118.664 Y143.748 E0.02365
G1 X118.664 Y128.698 E0.47191
G1 X117.910 Y128.698 E0.02365
G1 X117.910 Y143.748 E0.47191
G1 X117.155 Y143.748 E0.02365
G1 X117.155 Y128.698 E0.47191
G1 X116.755 Y128.698 E0.01254
G1 X116.755 Y126.412 E0.07166
G1 X116.401 Y126.412 E0.01110
G1 X116.401 Y143.748 E0.54357
G1 X115.647 Y143.748 E0.02365
G1 X115.647 Y126.412 E0.54357
G1 X114.893 Y126.412 E0.02365
G1 X114.893 Y143.748 E0.54357
G1 X114.139 Y143.748 E0.02365
G1 X114.139 Y64.700 E2.47850
G1 X114.893 Y64.700 E0.02365
G1 X114.893 Y84.322 E0.61524
G1 X115.647 Y84.322 E0.02365
G1 X115.647 Y64.700 E0.61524
G1 X116.401 Y64.700 E0.02365
G1 X116.401 Y84.322 E0.61524
G1 X116.755 Y84.322 E0.01110
G1 X116.755 Y82.037 E0.07166
G1 X117.155 Y82.037 E0.01254
G1 X117.155 Y64.700 E0.54357
G1 X117.910 Y64.700 E0.02365
G1 X117.910 Y82.037 E0.54357
G1 X118.664 Y82.037 E0.02365
G1 X118.664 Y64.700 E0.54357
G1 X119.418 Y64.700 E0.02365
G1 X119.418 Y79.751 E0.47191
G1 X120.172 Y79.751 E0.02365
G1 X120.172 Y64.700 E0.47191
G1 X120.926 Y64.700 E0.02365
G1 X120.926 Y79.751 E0.47191
G1 X121.327 Y79.751 E0.01255
G1 X121.327 Y77.465 E0.07166
G1 X121.680 Y77.465 E0.01109
G1 X121.680 Y64.700 E0.40025
G1 X122.434 Y64.700 E0.02365
G1 X122.434 Y77.465 E0.40025
G1 X123.189 Y77.465 E0.02365
G1 X123.189 Y64.700 E0.40025
G1 X123.943 Y64.700 E0.02365
G1 X123.943 Y77.465 E0.40025
G1 X124.697 Y77.465 E0.02365
G1 X124.697 Y64.700 E0.40025
G1 X125.451 Y64.700 E0.02365
G1 X125.451 Y77.465 E0.40025
G1 X126.205 Y77.465 E0.02365
G1 X126.205 Y64.700 E0.40025
G1 X126.959 Y64.700 E0.02365
G1 X126.959 Y77.465 E0.40025
G1 X127.714 Y77.465 E0.02365
G1 X127.714 Y64.700 E0.40025
G1 X128.468 Y64.700 E0.02365
G1 X128.468 Y77.465 E0.40025
G1 X129.132 Y77.465 E0.02082
G1 X129.132 Y79.751 E0.07166
G1 X129.222 Y79.751 E0.00282
G1 X129.222 Y64.700 E0.47191
G1 X129.976 Y64.700 E0.02365
G1 X129.976 Y79.751 E0.47191
G1 X130.730 Y79.751 E0.02365
G1 X130.730 Y64.700 E0.47191
G1 X131.484 Y64.700 E0.02365
G1 X131.484 Y82.037 E0.54357
G1 X132.239 Y82.037 E0.02365
G1 X132.239 Y64.700 E0.54357
G1 X132.993 Y64.700 E0.02365
