; generated by Slic3r Prusa Edition 1.41.2+ on 2019-02-18 at 17:55:11

; 

; external perimeters extrusion width = 0.45mm
; perimeters extrusion width = 0.45mm
; infill extrusion width = 0.45mm
; solid infill extrusion width = 0.45mm
; top infill extrusion width = 0.40mm
; support material extrusion width = 0.35mm
; first layer extrusion width = 0.42mm

M73 P0 R219
M73 Q0 S221
M201 X1000 Y1000 Z1000 E5000 ; sets maximum accelerations, mm/sec^2
M203 X200 Y200 Z12 E120 ; sets maximum feedrates, mm/sec
M204 P1250 R1250 T1250 ; sets acceleration (P, T) and retract acceleration (R), mm/sec^2
M205 X8.00 Y8.00 Z0.40 E1.50 ; sets the jerk limits, mm/sec
M205 S0 T0 ; sets the minimum extruding and travel feed rate, mm/sec
M107
M115 U3.5.1 ; tell printer latest fw version
M83  ; extruder relative mode
M104 S165 ; set extruder temp minus 50 to avoid stringing during calibration
M140 S60 ; set bed temp
M190 S60 ; wait for bed temp
M109 S165 ; wait for extruder temp
G28 W ; home all without mesh bed level
G80 N7 ; mesh bed leveling
G1 Y-3.0 F1000.0 ; go outside print area
M104 S215 ; set extruder temp
M109 S215 ; wait for extruder temp
G92 E0.0
G1 X60.0 E9.0  F1000.0 ; intro line
M73 Q0 S221
M73 P0 R219
G1 X100.0 E12.5  F1000.0 ; intro line
G92 E0.0
M221 S95
M900 K30; Filament gcode
G21 ; set units to millimeters
G90 ; use absolute coordinates
M83 ; use relative distances for extrusion
;BEFORE_LAYER_CHANGE
G92 E0.0
;0.2


G1 E-0.80000 F2100.00000
G1 Z0.600 F10800.000
;AFTER_LAYER_CHANGE
;0.2
G1 X69.080 Y58.911
G1 Z0.200
G1 E0.80000 F2100.00000
M204 S1000
G1 F1200
G1 X69.671 Y58.153 E0.03013
G1 X79.083 Y48.661 E0.41912
G1 X79.718 Y48.186 E0.02485
G1 X80.417 Y47.813 E0.02485
G1 X81.165 Y47.551 E0.02485
G1 X81.945 Y47.407 E0.02485
G1 X169.988 Y47.377 E2.76053
G1 X171.088 Y47.496 E0.03469
G1 X172.143 Y47.848 E0.03487
G1 X173.094 Y48.414 E0.03469
G1 X173.907 Y49.172 E0.03487
G1 X181.085 Y58.827 E0.37720
G1 X181.655 Y59.960 E0.03978
G1 X181.933 Y61.198 E0.03978
G1 X181.958 Y150.317 E2.79427
G1 X181.855 Y151.267 E0.02995
G1 X181.578 Y152.187 E0.03013
G1 X181.140 Y153.035 E0.02995
G1 X180.549 Y153.793 E0.03013
G1 X173.236 Y161.137 E0.32496
G1 X172.508 Y161.627 E0.02749
G1 X171.709 Y161.988 E0.02749
G1 X170.861 Y162.209 E0.02749
G1 X169.987 Y162.283 E0.02749
G1 X90.030 Y162.283 E2.50699
G1 X82.063 Y162.095 E0.24988
G1 X80.774 Y161.818 E0.04135
G1 X79.591 Y161.222 E0.04153
G1 X69.896 Y153.848 E0.38192
G1 X69.207 Y153.055 E0.03294
G1 X68.690 Y152.134 E0.03311
G1 X68.372 Y151.133 E0.03294
G1 X68.262 Y150.082 E0.03311
G1 X68.262 Y61.629 E2.77338
G1 X68.364 Y60.679 E0.02995
G1 X68.641 Y59.759 E0.03013
G1 X69.053 Y58.964 E0.02807
G1 F8640
G1 X69.671 Y58.153 E-0.23551
G1 X71.270 Y56.540 E-0.52449
G1 E-0.04000 F2100.00000
G1 Z0.800 F10800.000
G1 X124.647 Y48.800
G1 Z0.200
G1 E0.80000 F2100.00000
G1 F1200
G1 X125.796 Y48.160 E0.04123
G1 X126.933 Y47.870 E0.03680
G1 X127.887 Y47.862 E0.02992
G1 X128.156 Y47.833 E0.00848
G1 X158.263 Y47.833 E0.94397
G1 X158.502 Y47.858 E0.00755
G1 X159.107 Y47.833 E0.01898
G1 X169.576 Y47.833 E0.32824
G1 X169.874 Y47.866 E0.00939
G1 X171.169 Y47.923 E0.04065
G1 X172.062 Y48.215 E0.02947
G1 X173.078 Y48.821 E0.03708
G1 X173.858 Y49.593 E0.03439
G1 X174.420 Y50.443 E0.03197
G1 X174.873 Y51.966 E0.04982
G1 X174.879 Y54.182 E0.06947
G1 X175.802 Y55.111 E0.04107
G1 X176.415 Y56.167 E0.03829
G1 X176.640 Y57.004 E0.02716
G1 X177.568 Y57.011 E0.02912
G1 X178.655 Y57.275 E0.03507
G1 X179.891 Y57.983 E0.04465
G1 X180.668 Y58.766 E0.03459
G1 X181.268 Y59.716 E0.03522
G1 X181.672 Y61.194 E0.04806
G1 X181.668 Y102.516 E1.29561
G1 X181.359 Y103.843 E0.04274
G1 X180.817 Y104.845 E0.03573
G1 X181.295 Y105.658 E0.02956
G1 X181.672 Y107.132 E0.04769
G1 X181.672 Y150.682 E1.36550
G1 X181.461 Y151.744 E0.03395
G1 X181.005 Y152.728 E0.03399
G1 X179.593 Y154.180 E0.06350
G1 X178.634 Y154.681 E0.03393
G1 X177.721 Y154.915 E0.02956
G1 X176.637 Y154.941 E0.03401
G1 X176.356 Y154.971 E0.00883
G1 X175.719 Y154.968 E0.02000
G1 X175.087 Y155.632 E0.02873
G1 X174.880 Y155.787 E0.00811
G1 X174.875 Y157.639 E0.05807
G1 X174.604 Y158.790 E0.03708
G1 X173.866 Y160.067 E0.04623
G1 X173.044 Y160.859 E0.03581
G1 X172.068 Y161.447 E0.03573
G1 X170.933 Y161.774 E0.03703
G1 X169.847 Y161.798 E0.03405
G1 X169.575 Y161.827 E0.00856
G1 X165.140 Y161.827 E0.13905
G1 X164.536 Y161.802 E0.01898
G1 X164.296 Y161.827 E0.00755
G1 X135.728 Y161.827 E0.89572
G1 X135.123 Y161.802 E0.01898
G1 X134.884 Y161.827 E0.00755
G1 X127.293 Y161.827 E0.23801
G1 X125.792 Y161.439 E0.04860
G1 X124.703 Y160.805 E0.03952
G1 X123.774 Y161.395 E0.03448
G1 X122.179 Y161.827 E0.05182
G1 X119.137 Y161.827 E0.09540
G1 X118.532 Y161.802 E0.01898
G1 X118.292 Y161.827 E0.00755
G1 X113.858 Y161.827 E0.13905
G1 X113.253 Y161.802 E0.01898
G1 X113.013 Y161.827 E0.00755
G1 X90.479 Y161.827 E0.70655
G1 X89.874 Y161.802 E0.01898
G1 X89.634 Y161.827 E0.00755
G1 X82.045 Y161.827 E0.23796
G1 X80.555 Y161.445 E0.04824
G1 X79.601 Y160.896 E0.03448
G1 X78.773 Y160.126 E0.03547
G1 X78.168 Y159.265 E0.03300
G1 X77.669 Y157.854 E0.04691
G1 X77.631 Y156.736 E0.03509
G1 X77.364 Y156.719 E0.00841
G1 X76.202 Y156.428 E0.03756
G1 X75.078 Y155.778 E0.04068
G1 X74.249 Y154.955 E0.03664
G1 X72.723 Y154.933 E0.04784
G1 X71.401 Y154.542 E0.04324
G1 X70.367 Y153.901 E0.03814
G1 X69.571 Y153.083 E0.03578
G1 X68.977 Y152.120 E0.03547
G1 X68.548 Y150.535 E0.05151
G1 X68.548 Y106.964 E1.36613
G1 X68.845 Y105.680 E0.04132
G1 X69.358 Y104.752 E0.03325
G1 X68.991 Y104.159 E0.02185
G1 X68.548 Y102.547 E0.05244
G1 X68.548 Y61.173 E1.29724
G1 X69.128 Y59.359 E0.05969
G1 X69.631 Y58.673 E0.02670
G1 X70.336 Y57.976 E0.03108
G1 X71.625 Y57.252 E0.04636
G1 X72.615 Y57.015 E0.03190
G1 X73.357 Y57.005 E0.02327
G1 X73.514 Y56.354 E0.02098
G1 X74.133 Y55.197 E0.04115
G1 X74.916 Y54.368 E0.03574
G1 X75.513 Y53.905 E0.02369
G1 X77.179 Y53.303 E0.05554
G1 X77.600 Y53.274 E0.01324
G1 X77.605 Y52.074 E0.03763
G1 X77.796 Y51.097 E0.03121
G1 X78.369 Y49.930 E0.04077
G1 X79.556 Y48.709 E0.05338
G1 X81.196 Y47.941 E0.05678
G1 X81.855 Y47.856 E0.02083
G1 X82.652 Y47.860 E0.02501
G1 X82.907 Y47.833 E0.00804
G1 X122.159 Y47.837 E1.23071
G1 X123.475 Y48.138 E0.04232
G1 X124.468 Y48.655 E0.03509
G1 X124.600 Y48.762 E0.00535
G1 X124.674 Y49.334 F10800.000
G1 F1200
G1 X124.994 Y49.036 E0.01372
G1 X125.913 Y48.519 E0.03306
G1 X127.003 Y48.241 E0.03526
G1 X127.909 Y48.239 E0.02839
G1 X128.167 Y48.210 E0.00815
G1 X158.252 Y48.210 E0.94329
G1 X158.489 Y48.236 E0.00748
G1 X159.111 Y48.210 E0.01952
G1 X169.565 Y48.210 E0.32777
G1 X169.845 Y48.242 E0.00884
G1 X171.079 Y48.290 E0.03871
G1 X171.888 Y48.550 E0.02665
G1 X172.864 Y49.133 E0.03565
G1 X173.577 Y49.845 E0.03159
G1 X174.090 Y50.626 E0.02931
G1 X174.496 Y51.994 E0.04473
G1 X174.502 Y54.399 E0.07541
G1 X174.732 Y54.560 E0.00878
G1 X175.488 Y55.321 E0.03364
G1 X176.075 Y56.333 E0.03670
G1 X176.338 Y57.349 E0.03288
G1 X176.610 Y57.382 E0.00859
G1 X177.502 Y57.383 E0.02796
G1 X178.539 Y57.635 E0.03348
G1 X179.679 Y58.296 E0.04130
G1 X180.384 Y59.014 E0.03157
G1 X180.934 Y59.892 E0.03245
G1 X181.295 Y61.219 E0.04313
G1 X181.291 Y102.493 E1.29413
G1 X180.998 Y103.731 E0.03986
G1 X180.381 Y104.854 E0.04020
G1 X180.937 Y105.780 E0.03388
G1 X181.295 Y107.156 E0.04457
G1 X181.295 Y150.663 E1.36413
G1 X181.096 Y151.647 E0.03146
G1 X180.678 Y152.538 E0.03086
G1 X179.346 Y153.893 E0.05957
G1 X178.483 Y154.335 E0.03042
G1 X177.651 Y154.544 E0.02689
G1 X176.612 Y154.564 E0.03257
G1 X176.347 Y154.594 E0.00838
G1 X175.557 Y154.591 E0.02475
G1 X174.827 Y155.358 E0.03322
G1 X174.503 Y155.591 E0.01251
G1 X174.498 Y157.617 E0.06353
G1 X174.263 Y158.627 E0.03253
G1 X173.584 Y159.815 E0.04290
G1 X172.829 Y160.549 E0.03301
G1 X171.937 Y161.093 E0.03276
G1 X170.899 Y161.397 E0.03392
G1 X169.821 Y161.422 E0.03379
G1 X169.564 Y161.450 E0.00810
G1 X165.144 Y161.450 E0.13858
G1 X164.522 Y161.424 E0.01952
G1 X164.285 Y161.450 E0.00748
G1 X135.732 Y161.450 E0.89526
G1 X135.110 Y161.424 E0.01952
G1 X134.873 Y161.450 E0.00748
G1 X127.318 Y161.450 E0.23690
G1 X125.914 Y161.082 E0.04551
G1 X125.047 Y160.572 E0.03152
G1 X124.763 Y160.316 E0.01199
G1 X123.645 Y161.039 E0.04175
G1 X122.154 Y161.450 E0.04852
G1 X119.141 Y161.450 E0.09447
G1 X118.519 Y161.424 E0.01952
G1 X118.282 Y161.450 E0.00748
G1 X113.862 Y161.450 E0.13858
G1 X113.240 Y161.424 E0.01952
G1 X113.002 Y161.450 E0.00748
G1 X90.483 Y161.450 E0.70609
M73 Q0 S220
G1 X89.861 Y161.424 E0.01952
G1 X89.624 Y161.450 E0.00748
G1 X82.069 Y161.450 E0.23688
M73 P0 R218
G1 X80.720 Y161.105 E0.04363
G1 X79.809 Y160.581 E0.03298
G1 X79.044 Y159.864 E0.03284
G1 X78.515 Y159.114 E0.02879
G1 X78.035 Y157.757 E0.04512
G1 X78.001 Y156.360 E0.04383
G1 X77.429 Y156.347 E0.01794
G1 X76.367 Y156.087 E0.03429
G1 X75.289 Y155.464 E0.03903
G1 X74.561 Y154.733 E0.03237
G1 X74.448 Y154.579 E0.00598
G1 X72.803 Y154.563 E0.05158
G1 X71.576 Y154.207 E0.04006
G1 X70.619 Y153.619 E0.03519
G1 X69.879 Y152.865 E0.03314
G1 X69.333 Y151.993 E0.03226
G1 X68.925 Y150.509 E0.04826
G1 X68.925 Y106.986 E1.36463
G1 X69.205 Y105.793 E0.03843
G1 X69.798 Y104.739 E0.03792
G1 X69.346 Y104.029 E0.02638
G1 X68.925 Y102.520 E0.04912
G1 X68.925 Y61.202 E1.29551
G1 X69.450 Y59.557 E0.05415
G1 X69.908 Y58.928 E0.02439
G1 X70.546 Y58.291 E0.02826
G1 X71.739 Y57.612 E0.04305
G1 X72.681 Y57.387 E0.03035
G1 X73.660 Y57.381 E0.03070
G1 X73.859 Y56.509 E0.02805
G1 X74.454 Y55.398 E0.03951
G1 X75.178 Y54.639 E0.03289
G1 X75.719 Y54.223 E0.02141
G1 X77.275 Y53.669 E0.05178
G1 X77.976 Y53.643 E0.02200
G1 X77.982 Y52.094 E0.04857
G1 X78.160 Y51.196 E0.02870
G1 X78.693 Y50.124 E0.03753
G1 X79.749 Y49.035 E0.04755
G1 X81.274 Y48.312 E0.05294
G1 X81.890 Y48.232 E0.01948
G1 X82.672 Y48.237 E0.02451
G1 X82.918 Y48.210 E0.00776
G1 X122.137 Y48.214 E1.22968
G1 X123.365 Y48.500 E0.03952
G1 X124.268 Y48.976 E0.03201
G1 X124.629 Y49.294 E0.01509
G1 X124.683 Y49.855 F10800.000
G1 F1200
G1 X125.204 Y49.350 E0.02276
G1 X126.032 Y48.878 E0.02988
G1 X127.073 Y48.613 E0.03368
G1 X127.930 Y48.616 E0.02688
G1 X128.179 Y48.587 E0.00785
G1 X158.241 Y48.587 E0.94257
G1 X158.475 Y48.614 E0.00740
G1 X159.115 Y48.587 E0.02009
G1 X169.553 Y48.587 E0.32728
G1 X169.817 Y48.618 E0.00832
G1 X170.991 Y48.658 E0.03684
G1 X171.716 Y48.886 E0.02383
G1 X172.615 Y49.417 E0.03273
G1 X173.296 Y50.098 E0.03019
G1 X173.759 Y50.809 E0.02660
G1 X174.119 Y52.022 E0.03968
G1 X174.126 Y54.602 E0.08090
G1 X174.480 Y54.841 E0.01340
G1 X175.174 Y55.532 E0.03072
G1 X175.735 Y56.499 E0.03505
G1 X175.969 Y57.432 E0.03016
G1 X175.985 Y57.730 E0.00935
G1 X176.358 Y57.731 E0.01168
G1 X176.588 Y57.759 E0.00730
G1 X177.438 Y57.755 E0.02664
G1 X178.377 Y57.976 E0.03023
G1 X179.428 Y58.579 E0.03800
G1 X180.100 Y59.263 E0.03008
G1 X180.598 Y60.067 E0.02964
G1 X180.918 Y61.244 E0.03825
G1 X180.914 Y102.471 E1.29263
G1 X180.638 Y103.618 E0.03700
G1 X180.161 Y104.490 E0.03117
G1 X179.863 Y104.820 E0.01392
G1 X180.027 Y105.000 E0.00763
G1 X180.580 Y105.904 E0.03323
G1 X180.918 Y107.181 E0.04140
G1 X180.918 Y150.645 E1.36278
G1 X180.745 Y151.507 E0.02758
G1 X180.350 Y152.347 E0.02911
G1 X179.102 Y153.605 E0.05556
G1 X178.334 Y153.988 E0.02690
G1 X177.583 Y154.173 E0.02427
G1 X176.588 Y154.187 E0.03120
G1 X176.336 Y154.216 E0.00793
G1 X175.355 Y154.213 E0.03077
G1 X175.260 Y154.356 E0.00539
G1 X174.568 Y155.084 E0.03151
G1 X174.127 Y155.393 E0.01688
G1 X174.121 Y157.595 E0.06906
G1 X173.921 Y158.466 E0.02803
G1 X173.300 Y159.565 E0.03957
G1 X172.612 Y160.240 E0.03021
G1 X171.806 Y160.738 E0.02972
G1 X170.818 Y161.028 E0.03229
G1 X169.796 Y161.045 E0.03202
G1 X169.553 Y161.073 E0.00769
G1 X165.148 Y161.073 E0.13810
G1 X164.508 Y161.046 E0.02009
G1 X164.274 Y161.073 E0.00740
G1 X135.736 Y161.073 E0.89478
G1 X135.096 Y161.046 E0.02009
G1 X134.862 Y161.073 E0.00740
G1 X127.342 Y161.073 E0.23579
G1 X126.082 Y160.743 E0.04082
G1 X125.257 Y160.259 E0.03000
G1 X124.724 Y159.759 E0.02291
G1 X124.352 Y160.145 E0.01682
G1 X123.516 Y160.684 E0.03118
G1 X122.127 Y161.073 E0.04522
G1 X119.145 Y161.073 E0.09352
G1 X118.504 Y161.046 E0.02009
G1 X118.270 Y161.073 E0.00739
G1 X113.866 Y161.073 E0.13810
G1 X113.225 Y161.046 E0.02009
G1 X112.991 Y161.073 E0.00740
G1 X90.487 Y161.073 E0.70561
G1 X89.846 Y161.046 E0.02009
G1 X89.612 Y161.073 E0.00740
G1 X82.092 Y161.073 E0.23579
G1 X80.884 Y160.765 E0.03908
G1 X80.049 Y160.289 E0.03015
G1 X79.339 Y159.629 E0.03040
G1 X78.861 Y158.962 E0.02571
G1 X78.401 Y157.661 E0.04328
G1 X78.373 Y155.985 E0.05257
G1 X77.494 Y155.975 E0.02758
G1 X76.531 Y155.747 E0.03103
G1 X75.500 Y155.151 E0.03733
G1 X74.842 Y154.482 E0.02943
G1 X74.648 Y154.204 E0.01063
G1 X72.832 Y154.186 E0.05693
G1 X71.750 Y153.871 E0.03534
G1 X70.872 Y153.338 E0.03221
G1 X70.163 Y152.616 E0.03172
G1 X69.668 Y151.818 E0.02945
G1 X69.302 Y150.484 E0.04337
G1 X69.302 Y107.009 E1.36313
G1 X69.566 Y105.906 E0.03555
G1 X70.009 Y105.113 E0.02849
G1 X70.293 Y104.805 E0.01313
G1 X69.701 Y103.897 E0.03399
G1 X69.302 Y102.494 E0.04575
G1 X69.302 Y61.231 E1.29376
G1 X69.773 Y59.753 E0.04863
G1 X70.186 Y59.184 E0.02204
G1 X70.794 Y58.576 E0.02696
G1 X71.899 Y57.954 E0.03977
G1 X72.743 Y57.760 E0.02716
G1 X73.632 Y57.759 E0.02786
G1 X74.015 Y57.712 E0.01208
G1 X74.027 Y57.474 E0.00748
G1 X74.204 Y56.663 E0.02603
G1 X74.773 Y55.599 E0.03782
G1 X75.439 Y54.912 E0.02999
G1 X75.924 Y54.541 E0.01916
G1 X77.369 Y54.035 E0.04801
G1 X78.352 Y54.015 E0.03082
G1 X78.359 Y52.114 E0.05961
G1 X78.525 Y51.296 E0.02615
G1 X79.017 Y50.319 E0.03431
G1 X79.943 Y49.360 E0.04180
G1 X81.353 Y48.682 E0.04907
G1 X81.926 Y48.607 E0.01810
G1 X82.692 Y48.615 E0.02404
G1 X82.929 Y48.587 E0.00748
G1 X122.116 Y48.591 E1.22866
G1 X123.211 Y48.845 E0.03524
G1 X124.070 Y49.297 E0.03045
G1 X124.638 Y49.815 E0.02411
G1 X124.692 Y50.380 F10800.000
G1 F1200
G1 X125.413 Y49.665 E0.03186
G1 X126.196 Y49.218 E0.02827
G1 X127.095 Y48.990 E0.02906
G1 X127.953 Y48.994 E0.02690
G1 X128.191 Y48.964 E0.00752
G1 X158.229 Y48.964 E0.94182
G1 X158.460 Y48.992 E0.00729
G1 X159.119 Y48.964 E0.02070
G1 X169.541 Y48.964 E0.32677
G1 X169.788 Y48.995 E0.00781
G1 X170.905 Y49.026 E0.03504
G1 X171.544 Y49.223 E0.02095
G1 X172.402 Y49.729 E0.03124
G1 X173.013 Y50.348 E0.02728
G1 X173.427 Y50.990 E0.02395
G1 X173.742 Y52.050 E0.03467
G1 X173.749 Y54.807 E0.08645
G1 X174.230 Y55.124 E0.01805
G1 X174.863 Y55.746 E0.02782
G1 X175.376 Y56.618 E0.03173
G1 X175.597 Y57.500 E0.02851
G1 X175.608 Y58.110 E0.01915
G1 X176.325 Y58.107 E0.02246
G1 X176.566 Y58.136 E0.00764
G1 X177.418 Y58.133 E0.02670
G1 X178.215 Y58.318 E0.02567
G1 X179.180 Y58.863 E0.03472
G1 X179.793 Y59.483 E0.02735
G1 X180.243 Y60.195 E0.02641
G1 X180.541 Y61.270 E0.03497
G1 X180.537 Y102.449 E1.29112
G1 X180.295 Y103.459 E0.03258
G1 X179.842 Y104.287 E0.02957
G1 X179.324 Y104.837 E0.02371
G1 X179.722 Y105.224 E0.01741
G1 X180.223 Y106.030 E0.02976
G1 X180.541 Y107.206 E0.03819
G1 X180.541 Y150.625 E1.36137
G1 X180.381 Y151.408 E0.02506
G1 X180.025 Y152.155 E0.02594
G1 X178.859 Y153.314 E0.05154
G1 X178.189 Y153.640 E0.02335
G1 X177.516 Y153.801 E0.02170
G1 X176.563 Y153.811 E0.02989
G1 X176.326 Y153.839 E0.00750
G1 X175.132 Y153.835 E0.03744
G1 X174.968 Y154.116 E0.01020
G1 X174.309 Y154.809 E0.02999
G1 X173.750 Y155.193 E0.02125
G1 X173.744 Y157.574 E0.07466
G1 X173.578 Y158.307 E0.02358
G1 X173.016 Y159.315 E0.03618
G1 X172.364 Y159.955 E0.02866
G1 X171.632 Y160.403 E0.02690
G1 X170.739 Y160.658 E0.02911
G1 X169.772 Y160.668 E0.03034
G1 X169.541 Y160.696 E0.00729
G1 X165.152 Y160.696 E0.13760
G1 X164.493 Y160.668 E0.02070
G1 X164.262 Y160.696 E0.00729
G1 X135.740 Y160.696 E0.89428
G1 X135.081 Y160.668 E0.02070
G1 X134.850 Y160.696 E0.00729
G1 X127.366 Y160.696 E0.23466
G1 X126.251 Y160.405 E0.03613
G1 X125.468 Y159.945 E0.02847
G1 X124.708 Y159.220 E0.03291
G1 X124.127 Y159.841 E0.02668
G1 X123.336 Y160.352 E0.02951
G1 X122.102 Y160.696 E0.04017
G1 X119.149 Y160.696 E0.09259
G1 X118.489 Y160.668 E0.02070
G1 X118.258 Y160.696 E0.00729
G1 X113.870 Y160.696 E0.13760
G1 X113.210 Y160.668 E0.02070
G1 X112.979 Y160.696 E0.00729
G1 X90.491 Y160.696 E0.70511
G1 X89.831 Y160.668 E0.02070
